;FLAVOR:Marlin
;TIME:3616
;Filament used: 3.14109m
;Layer height: 0.2
;MINX:15.242
;MINY:26.303
;MINZ:0.2
;MAXX:110.342
;MAXY:87.853
;MAXZ:9
;Generated with Cura_SteamEngine 4.8.0
M140 S85
M105
M190 S85
M104 S235
M105
M109 S235
M82 ;absolute extrusion mode
; Ender 3 Custom Start G-code
G92 E0 ; Reset Extruder
G28 ; Home all axes
G1 Z2.0 F3000 ; Move Z Axis up little to prevent scratching of Heat Bed
G1 X0.1 Y20 Z0.3 F5000.0 ; Move to start position
G1 X0.1 Y200.0 Z0.3 F1500.0 E15 ; Draw the first line
G1 X0.4 Y200.0 Z0.3 F5000.0 ; Move to side a little
G1 X0.4 Y20 Z0.3 F1500.0 E30 ; Draw the second line
G92 E0 ; Reset Extruder
G1 Z2.0 F3000 ; Move Z Axis up little to prevent scratching of Heat Bed
G1 X5 Y20 Z0.3 F5000.0 ; Move over to prevent blob squish
G92 E0
G92 E0
G1 F2700 E-5
;LAYER_COUNT:45
;LAYER:0
M107
G0 F6000 X23.728 Y30.465 Z0.2
;TYPE:SKIRT
G1 F2700 E0
G1 F1200 X24.126 Y30.17 E0.01648
G1 X24.211 Y30.11 E0.01994
G1 X24.689 Y29.791 E0.03905
G1 X25.441 Y29.317 E0.06862
G1 X25.874 Y29.058 E0.0854
G1 X26.451 Y28.748 E0.10718
G1 X27.28 Y28.334 E0.138
G1 X27.765 Y28.107 E0.15581
G1 X27.84 Y28.074 E0.15854
G1 X28.34 Y27.868 E0.17653
G1 X29.153 Y27.557 E0.20548
G1 X29.571 Y27.407 E0.22025
G1 X29.847 Y27.314 E0.22993
G1 X30.376 Y27.15 E0.24836
G1 X30.66 Y27.07 E0.25817
G1 X31.136 Y26.948 E0.27451
G1 X31.623 Y26.834 E0.29115
G1 X32.293 Y26.699 E0.31388
G1 X33.143 Y26.555 E0.34255
G1 X33.533 Y26.496 E0.35567
G1 X33.646 Y26.481 E0.35946
G1 X34.316 Y26.412 E0.38187
G1 X35.206 Y26.349 E0.41154
G1 X35.598 Y26.329 E0.4246
G1 X36.055 Y26.313 E0.43981
G1 X36.339 Y26.306 E0.44926
G1 X36.666 Y26.303 E0.46013
G1 X88.635 Y26.303 E2.18863
G1 X89.686 Y26.317 E2.22359
G1 X90.125 Y26.331 E2.2382
G1 X90.4 Y26.345 E2.24735
G1 X90.83 Y26.372 E2.26168
G1 X91.522 Y26.437 E2.2848
G1 X92.415 Y26.55 E2.31474
G1 X92.8 Y26.605 E2.32767
G1 X93.577 Y26.754 E2.35399
G1 X94.449 Y26.954 E2.38374
G1 X94.745 Y27.027 E2.39388
G1 X95.004 Y27.094 E2.40278
G1 X95.717 Y27.304 E2.4275
G1 X96.018 Y27.404 E2.43805
G1 X96.403 Y27.54 E2.45163
G1 X96.871 Y27.715 E2.46825
G1 X97.521 Y27.982 E2.49162
G1 X98.31 Y28.336 E2.52039
G1 X98.734 Y28.537 E2.53599
G1 X99.326 Y28.851 E2.55828
G1 X100.132 Y29.311 E2.58915
G1 X100.533 Y29.551 E2.60469
G1 X101.119 Y29.941 E2.6281
G1 X101.85 Y30.461 E2.65794
G1 X102.204 Y30.723 E2.67259
G1 X102.759 Y31.174 E2.69638
G1 X103.422 Y31.75 E2.72559
G1 X103.805 Y32.099 E2.74282
G1 X104.265 Y32.557 E2.76441
G1 X104.878 Y33.205 E2.79408
G1 X105.204 Y33.564 E2.81021
G1 X105.262 Y33.631 E2.81316
G1 X105.641 Y34.094 E2.83306
G1 X106.181 Y34.791 E2.86238
G1 X106.397 Y35.081 E2.87441
G1 X106.567 Y35.316 E2.88406
G1 X106.923 Y35.838 E2.90507
G1 X107.102 Y36.118 E2.91612
G1 X107.353 Y36.531 E2.9322
G1 X107.58 Y36.923 E2.94726
G1 X107.907 Y37.53 E2.9702
G1 X108.307 Y38.333 E3.00003
G1 X108.462 Y38.658 E3.01201
G1 X108.571 Y38.896 E3.02072
G1 X108.806 Y39.449 E3.0407
G1 X108.926 Y39.754 E3.0516
G1 X109.103 Y40.234 E3.06862
G1 X109.259 Y40.692 E3.08471
G1 X109.459 Y41.346 E3.10746
G1 X109.691 Y42.197 E3.1368
G1 X109.784 Y42.565 E3.14942
G1 X109.945 Y43.343 E3.17584
G1 X110.108 Y44.312 E3.20853
G1 X110.233 Y45.368 E3.24389
G1 X110.297 Y46.281 E3.27434
G1 X110.318 Y46.69 E3.28796
G1 X110.332 Y47.117 E3.30217
G1 X110.341 Y47.708 E3.32183
G1 X110.342 Y66.146 E3.93508
G1 X110.328 Y67.197 E3.97003
G1 X110.314 Y67.636 E3.98464
G1 X110.3 Y67.91 E3.99377
G1 X110.273 Y68.341 E4.00813
G1 X110.208 Y69.035 E4.03132
G1 X110.095 Y69.927 E4.06122
G1 X110.038 Y70.323 E4.07453
G1 X109.891 Y71.082 E4.10024
G1 X109.683 Y71.986 E4.13109
G1 X109.573 Y72.424 E4.14611
G1 X109.375 Y73.084 E4.16903
G1 X109.102 Y73.901 E4.19768
G1 X108.95 Y74.328 E4.21276
G1 X108.671 Y75.009 E4.23724
G1 X108.275 Y75.891 E4.26939
G1 X107.787 Y76.85 E4.30518
G1 X107.324 Y77.659 E4.33618
G1 X107.146 Y77.96 E4.34781
G1 X106.718 Y78.611 E4.37373
G1 X106.193 Y79.351 E4.4039
G1 X105.896 Y79.75 E4.42045
G1 X105.85 Y79.809 E4.42294
G1 X105.482 Y80.256 E4.44219
G1 X104.883 Y80.946 E4.47258
G1 X104.544 Y81.319 E4.48935
G1 X104.088 Y81.776 E4.51082
G1 X103.44 Y82.389 E4.54049
G1 X103.069 Y82.725 E4.55714
G1 X102.562 Y83.142 E4.57897
G1 X101.816 Y83.72 E4.61036
G1 X101.37 Y84.048 E4.62877
G1 X100.897 Y84.364 E4.64769
G1 X100.146 Y84.837 E4.67721
G1 X99.663 Y85.124 E4.6959
G1 X99.597 Y85.161 E4.69842
G1 X99.133 Y85.407 E4.71588
G1 X98.304 Y85.821 E4.7467
G1 X97.843 Y86.038 E4.76365
G1 X97.773 Y86.069 E4.7662
G1 X97.25 Y86.285 E4.78502
G1 X96.432 Y86.598 E4.81415
G1 X96.013 Y86.748 E4.82895
G1 X95.737 Y86.841 E4.83864
G1 X95.208 Y87.005 E4.85706
G1 X94.924 Y87.085 E4.86687
G1 X94.448 Y87.207 E4.88321
G1 X93.961 Y87.321 E4.89985
G1 X93.291 Y87.456 E4.92258
G1 X92.441 Y87.6 E4.95125
G1 X92.094 Y87.654 E4.96293
G1 X91.977 Y87.67 E4.96686
G1 X91.259 Y87.744 E4.99087
G1 X90.364 Y87.807 E5.02071
G1 X89.998 Y87.826 E5.0329
G1 X89.565 Y87.842 E5.04731
G1 X89.264 Y87.849 E5.05733
G1 X88.846 Y87.853 E5.07123
G1 X79.342 Y87.852 E5.38733
G1 X78.641 Y87.842 E5.41065
G1 X77.705 Y87.789 E5.44183
G1 X76.795 Y87.659 E5.47241
G1 X76.012 Y87.513 E5.4989
G1 X74.519 Y87.213 E5.54955
G1 X72.067 Y86.795 E5.63228
G1 X69.537 Y86.435 E5.71727
G1 X67.075 Y86.156 E5.79969
G1 X64.55 Y85.942 E5.88397
G1 X62.031 Y85.801 E5.96788
G1 X59.51 Y85.73 E6.05176
G1 X56.986 Y85.732 E6.13571
G1 X54.497 Y85.803 E6.21853
G1 X51.964 Y85.948 E6.30292
G1 X49.477 Y86.159 E6.38593
G1 X46.964 Y86.447 E6.47006
G1 X44.466 Y86.802 E6.55398
G1 X41.95 Y87.235 E6.63889
G1 X41.38 Y87.346 E6.65821
G1 X41.101 Y87.397 E6.66764
G1 X40.128 Y87.561 E6.70046
G1 X39.693 Y87.625 E6.71508
G1 X38.949 Y87.72 E6.74003
G1 X38.237 Y87.788 E6.76382
G1 X37.979 Y87.804 E6.77242
G1 X37.673 Y87.819 E6.78261
G1 X36.999 Y87.842 E6.80504
G1 X36.483 Y87.847 E6.8222
G1 X35.937 Y87.84 E6.84036
G1 X35.624 Y87.832 E6.85077
G1 X35.406 Y87.823 E6.85803
G1 X35.145 Y87.809 E6.86672
G1 X34.715 Y87.781 E6.88106
G1 X34.048 Y87.717 E6.90334
G1 X33.187 Y87.608 E6.93221
G1 X32.778 Y87.549 E6.94595
G1 X32.007 Y87.401 E6.97206
G1 X31.135 Y87.201 E7.00182
G1 X30.76 Y87.108 E7.01467
G1 X30.505 Y87.04 E7.02345
G1 X29.943 Y86.874 E7.04294
G1 X29.638 Y86.775 E7.0536
G1 X29.181 Y86.615 E7.06971
G1 X28.713 Y86.44 E7.08633
G1 X28.063 Y86.173 E7.1097
G1 X27.274 Y85.819 E7.13846
G1 X26.846 Y85.616 E7.15422
G1 X26.254 Y85.302 E7.17651
G1 X25.45 Y84.843 E7.2073
G1 X25.074 Y84.618 E7.22187
G1 X24.468 Y84.217 E7.24604
G1 X23.739 Y83.699 E7.27578
G1 X23.379 Y83.432 E7.29069
G1 X22.843 Y82.996 E7.31367
G1 X22.137 Y82.383 E7.34477
G1 X21.739 Y82.02 E7.36269
G1 X21.319 Y81.599 E7.38247
G1 X20.706 Y80.951 E7.41213
G1 X20.393 Y80.607 E7.4276
G1 X20.34 Y80.546 E7.43029
G1 X19.937 Y80.053 E7.45147
G1 X19.341 Y79.281 E7.48391
G1 X18.735 Y78.412 E7.51914
G1 X18.241 Y77.626 E7.55002
G1 X17.975 Y77.182 E7.56724
G1 X17.685 Y76.639 E7.58771
G1 X17.276 Y75.82 E7.61816
G1 X17.037 Y75.31 E7.63689
G1 X16.816 Y74.775 E7.65614
G1 X16.489 Y73.921 E7.68656
G1 X16.309 Y73.415 E7.70442
G1 X16.289 Y73.354 E7.70656
G1 X16.127 Y72.812 E7.72537
G1 X15.871 Y71.87 E7.75784
G1 X15.64 Y70.819 E7.79363
G1 X15.49 Y69.932 E7.82355
G1 X15.421 Y69.462 E7.83935
G1 X15.409 Y69.366 E7.84257
G1 X15.351 Y68.779 E7.86219
G1 X15.288 Y67.889 E7.89186
G1 X15.268 Y67.498 E7.90489
G1 X15.252 Y67.042 E7.92006
G1 X15.245 Y66.757 E7.92954
G1 X15.242 Y66.429 E7.94045
G1 X15.243 Y47.856 E8.55819
G1 X15.256 Y46.927 E8.5891
G1 X15.27 Y46.488 E8.6037
G1 X15.311 Y45.814 E8.62616
G1 X15.375 Y45.13 E8.64901
G1 X15.489 Y44.226 E8.67932
G1 X15.544 Y43.846 E8.69209
G1 X15.687 Y43.101 E8.71732
G1 X15.897 Y42.182 E8.74867
G1 X16.044 Y41.61 E8.76832
G1 X16.207 Y41.079 E8.78679
G1 X16.491 Y40.23 E8.81657
G1 X16.631 Y39.836 E8.83047
G1 X16.731 Y39.571 E8.83989
G1 X16.943 Y39.052 E8.85854
G1 X17.057 Y38.791 E8.86801
G1 X17.259 Y38.354 E8.88403
G1 X17.48 Y37.903 E8.90073
G1 X17.81 Y37.28 E8.92418
G1 X18.246 Y36.518 E8.95338
G1 X18.464 Y36.154 E8.96749
G1 X18.622 Y35.901 E8.97741
G1 X18.933 Y35.43 E8.99618
G1 X19.095 Y35.198 E9.0056
G1 X19.37 Y34.822 E9.02109
G1 X19.673 Y34.425 E9.0377
G1 X20.118 Y33.879 E9.06113
G1 X20.694 Y33.217 E9.09031
G1 X21.038 Y32.84 E9.10729
G1 X21.496 Y32.38 E9.12888
G1 X22.144 Y31.767 E9.15855
G1 X22.503 Y31.441 E9.17467
G1 X22.57 Y31.383 E9.17762
G1 X23.028 Y31.008 E9.19731
G1 X23.728 Y30.465 E9.22678
G0 F6000 X23.973 Y30.781
G1 F1200 X24.357 Y30.497 E9.24266
G1 X24.442 Y30.437 E9.24612
G1 X24.903 Y30.13 E9.26454
G1 X25.655 Y29.656 E9.29411
G1 X26.073 Y29.405 E9.31033
G1 X26.63 Y29.106 E9.33135
G1 X27.459 Y28.692 E9.36217
G1 X27.926 Y28.473 E9.37933
G1 X28.001 Y28.44 E9.38205
G1 X28.483 Y28.242 E9.39938
G1 X29.296 Y27.931 E9.42834
G1 X29.698 Y27.786 E9.44255
G1 X29.974 Y27.693 E9.45224
G1 X30.485 Y27.535 E9.47003
G1 X30.769 Y27.455 E9.47984
G1 X31.227 Y27.337 E9.49557
G1 X31.714 Y27.223 E9.51221
G1 X32.359 Y27.093 E9.53409
G1 X33.209 Y26.949 E9.56276
G1 X33.585 Y26.892 E9.57541
G1 X33.698 Y26.877 E9.5792
G1 X34.345 Y26.811 E9.60083
G1 X35.235 Y26.748 E9.63051
G1 X35.612 Y26.728 E9.64307
G1 X36.069 Y26.712 E9.65828
G1 X36.343 Y26.706 E9.66739
G1 X36.67 Y26.703 E9.67827
G1 X88.635 Y26.703 E11.40663
G1 X89.68 Y26.717 E11.44139
G1 X90.11 Y26.73 E11.4557
G1 X90.375 Y26.744 E11.46453
G1 X90.805 Y26.771 E11.47886
G1 X91.472 Y26.834 E11.50114
G1 X92.365 Y26.947 E11.53108
G1 X92.739 Y27.001 E11.54365
G1 X93.488 Y27.144 E11.56901
G1 X94.36 Y27.344 E11.59876
G1 X94.645 Y27.414 E11.60852
G1 X94.904 Y27.481 E11.61742
G1 X95.591 Y27.684 E11.64125
G1 X95.892 Y27.784 E11.6518
G1 X96.263 Y27.914 E11.66487
G1 X96.731 Y28.089 E11.68149
G1 X97.357 Y28.347 E11.70401
G1 X98.146 Y28.701 E11.73277
G1 X98.558 Y28.896 E11.74793
G1 X99.128 Y29.199 E11.7694
G1 X99.934 Y29.659 E11.80027
G1 X100.322 Y29.891 E11.81531
G1 X100.887 Y30.266 E11.83786
G1 X101.618 Y30.786 E11.8677
G1 X101.962 Y31.041 E11.88194
G1 X102.497 Y31.476 E11.90487
G1 X103.16 Y32.052 E11.93409
G1 X103.466 Y32.328 E11.94779
G1 X103.532 Y32.39 E11.9508
G1 X103.974 Y32.832 E11.97159
G1 X104.587 Y33.48 E12.00126
G1 X104.901 Y33.826 E12.0168
G1 X104.959 Y33.893 E12.01975
G1 X105.324 Y34.339 E12.03892
G1 X105.864 Y35.036 E12.06824
G1 X106.073 Y35.315 E12.07984
G1 X106.243 Y35.55 E12.08949
G1 X106.586 Y36.054 E12.10976
G1 X106.765 Y36.334 E12.12082
G1 X107.007 Y36.731 E12.13628
G1 X107.234 Y37.123 E12.15135
G1 X107.549 Y37.709 E12.17347
G1 X107.949 Y38.512 E12.20331
G1 X108.098 Y38.824 E12.21481
G1 X108.207 Y39.062 E12.22352
G1 X108.434 Y39.595 E12.24279
G1 X108.554 Y39.9 E12.25369
G1 X108.724 Y40.363 E12.27009
G1 X108.88 Y40.821 E12.28618
G1 X109.073 Y41.451 E12.3081
G1 X109.305 Y42.302 E12.33744
G1 X109.396 Y42.659 E12.34969
G1 X109.55 Y43.41 E12.37519
G1 X109.713 Y44.379 E12.40787
G1 X109.834 Y45.396 E12.44193
G1 X109.898 Y46.309 E12.47238
G1 X109.918 Y46.703 E12.4855
G1 X109.932 Y47.13 E12.49971
G1 X109.937 Y47.358 E12.50729
G1 X109.942 Y47.832 E12.52306
G1 X109.941 Y66.301 E13.13734
G1 X109.928 Y67.191 E13.16694
G1 X109.915 Y67.621 E13.18125
G1 X109.901 Y67.885 E13.19005
G1 X109.874 Y68.316 E13.20441
G1 X109.811 Y68.985 E13.22676
G1 X109.698 Y69.877 E13.25666
G1 X109.642 Y70.261 E13.26957
G1 X109.501 Y70.992 E13.29433
G1 X109.293 Y71.896 E13.32518
G1 X109.186 Y72.321 E13.33976
G1 X108.996 Y72.957 E13.36184
G1 X108.723 Y73.774 E13.39049
G1 X108.575 Y74.189 E13.40514
G1 X108.306 Y74.846 E13.42876
G1 X107.91 Y75.728 E13.46091
G1 X107.44 Y76.651 E13.49536
G1 X106.977 Y77.46 E13.52637
G1 X106.804 Y77.752 E13.53765
G1 X106.391 Y78.379 E13.56263
G1 X105.866 Y79.119 E13.5928
G1 X105.58 Y79.504 E13.60875
G1 X105.534 Y79.563 E13.61124
G1 X105.18 Y79.994 E13.62979
G1 X104.581 Y80.684 E13.66018
G1 X104.252 Y81.045 E13.67643
G1 X103.813 Y81.485 E13.6971
G1 X103.165 Y82.098 E13.72677
G1 X102.805 Y82.424 E13.74292
G1 X102.317 Y82.826 E13.76395
G1 X101.571 Y83.404 E13.79534
G1 X101.14 Y83.721 E13.81314
G1 X100.684 Y84.025 E13.83136
G1 X99.933 Y84.498 E13.86088
G1 X99.467 Y84.775 E13.87891
G1 X99.401 Y84.812 E13.88143
G1 X98.954 Y85.049 E13.89826
G1 X98.125 Y85.463 E13.92908
G1 X97.681 Y85.672 E13.9454
G1 X97.611 Y85.703 E13.94795
G1 X97.107 Y85.911 E13.96608
G1 X96.289 Y86.224 E13.99521
G1 X95.886 Y86.369 E14.00946
G1 X95.61 Y86.462 E14.01914
G1 X95.099 Y86.62 E14.03693
G1 X94.815 Y86.7 E14.04675
G1 X94.357 Y86.818 E14.06248
G1 X93.87 Y86.932 E14.07911
G1 X93.225 Y87.062 E14.101
G1 X92.375 Y87.206 E14.12967
G1 X91.923 Y87.273 E14.14487
G1 X91.231 Y87.345 E14.16801
G1 X90.336 Y87.408 E14.19785
G1 X89.983 Y87.427 E14.20961
G1 X89.55 Y87.443 E14.22402
G1 X89.261 Y87.45 E14.23363
G1 X88.948 Y87.453 E14.24405
G1 X79.348 Y87.452 E14.56334
G1 X78.647 Y87.442 E14.58666
G1 X77.728 Y87.389 E14.61728
G1 X76.868 Y87.266 E14.64617
G1 X76.091 Y87.121 E14.67246
G1 X74.6 Y86.822 E14.72304
G1 X72.118 Y86.398 E14.80679
G1 X69.602 Y86.04 E14.89131
G1 X67.082 Y85.755 E14.97566
G1 X64.572 Y85.542 E15.05945
G1 X62.064 Y85.401 E15.14299
G1 X59.521 Y85.33 E15.22761
G1 X57.01 Y85.332 E15.31112
G1 X54.462 Y85.405 E15.39591
G1 X51.947 Y85.548 E15.47969
G1 X49.432 Y85.762 E15.56364
G1 X46.894 Y86.052 E15.6486
G1 X44.413 Y86.406 E15.73196
G1 X41.893 Y86.839 E15.817
G1 X41.303 Y86.954 E15.837
G1 X41.035 Y87.003 E15.84606
G1 X40.062 Y87.167 E15.87888
G1 X39.643 Y87.229 E15.89296
G1 X38.899 Y87.324 E15.91791
G1 X38.212 Y87.389 E15.94086
G1 X37.954 Y87.405 E15.94946
G1 X37.66 Y87.419 E15.95925
G1 X36.986 Y87.442 E15.98168
G1 X36.488 Y87.447 E15.99824
G1 X35.942 Y87.44 E16.0164
G1 X35.641 Y87.432 E16.02642
G1 X35.171 Y87.41 E16.04207
G1 X34.741 Y87.382 E16.0564
G1 X34.099 Y87.32 E16.07785
G1 X33.238 Y87.211 E16.10672
G1 X32.839 Y87.153 E16.12013
G1 X32.096 Y87.011 E16.14529
G1 X31.224 Y86.811 E16.17504
G1 X30.863 Y86.721 E16.18742
G1 X30.608 Y86.653 E16.1962
G1 X30.066 Y86.493 E16.21499
G1 X29.761 Y86.394 E16.22566
G1 X29.321 Y86.241 E16.24115
G1 X28.853 Y86.066 E16.25777
G1 X28.227 Y85.808 E16.28029
G1 X27.438 Y85.454 E16.30905
G1 X27.023 Y85.257 E16.32433
G1 X26.453 Y84.954 E16.3458
G1 X25.649 Y84.495 E16.37659
G1 X25.284 Y84.278 E16.39072
G1 X24.699 Y83.891 E16.41405
G1 X23.97 Y83.373 E16.44379
G1 X23.622 Y83.115 E16.4582
G1 X23.105 Y82.694 E16.48038
G1 X22.399 Y82.081 E16.51147
G1 X22.014 Y81.73 E16.5288
G1 X21.61 Y81.324 E16.54785
G1 X20.997 Y80.676 E16.57752
G1 X20.695 Y80.344 E16.59245
G1 X20.642 Y80.283 E16.59514
G1 X20.254 Y79.809 E16.61551
G1 X19.658 Y79.037 E16.64795
G1 X19.073 Y78.2 E16.68191
G1 X18.579 Y77.414 E16.71279
G1 X18.323 Y76.983 E16.72946
G1 X18.043 Y76.46 E16.74919
G1 X17.634 Y75.641 E16.77964
G1 X17.403 Y75.147 E16.79778
G1 X17.19 Y74.632 E16.81631
G1 X16.863 Y73.778 E16.84673
G1 X16.67 Y73.229 E16.86609
G1 X16.513 Y72.707 E16.88422
G1 X16.257 Y71.765 E16.91668
G1 X16.034 Y70.752 E16.95118
G1 X15.884 Y69.865 E16.9811
G1 X15.818 Y69.413 E16.9963
G1 X15.806 Y69.317 E16.99951
G1 X15.75 Y68.75 E17.01846
G1 X15.687 Y67.86 E17.04814
G1 X15.668 Y67.484 E17.06066
G1 X15.652 Y67.028 E17.07584
G1 X15.645 Y66.753 E17.08499
G1 X15.642 Y66.425 E17.0959
G1 X15.643 Y47.862 E17.7133
G1 X15.656 Y46.933 E17.74421
G1 X15.67 Y46.506 E17.75842
G1 X15.71 Y45.839 E17.78064
G1 X15.772 Y45.18 E17.80266
G1 X15.886 Y44.276 E17.83296
G1 X15.939 Y43.908 E17.84533
G1 X16.077 Y43.19 E17.86964
G1 X16.287 Y42.271 E17.901
G1 X16.429 Y41.72 E17.91992
G1 X16.587 Y41.206 E17.93781
G1 X16.871 Y40.357 E17.96758
G1 X17.006 Y39.978 E17.98097
G1 X17.106 Y39.713 E17.99039
G1 X17.309 Y39.212 E18.00837
G1 X17.423 Y38.951 E18.01784
G1 X17.618 Y38.53 E18.03327
G1 X17.839 Y38.079 E18.04997
G1 X18.158 Y37.479 E18.07258
G1 X18.594 Y36.717 E18.10178
G1 X18.803 Y36.366 E18.11536
G1 X18.961 Y36.113 E18.12528
G1 X19.261 Y35.659 E18.14338
G1 X19.423 Y35.427 E18.15279
G1 X19.688 Y35.065 E18.16772
G1 X19.991 Y34.668 E18.18433
G1 X20.42 Y34.141 E18.20693
G1 X20.996 Y33.479 E18.23611
G1 X21.267 Y33.179 E18.24956
G1 X21.329 Y33.113 E18.25257
G1 X21.771 Y32.671 E18.27336
G1 X22.419 Y32.058 E18.30303
G1 X22.765 Y31.744 E18.31857
G1 X22.832 Y31.686 E18.32152
G1 X23.273 Y31.324 E18.34049
G1 X23.973 Y30.781 E18.36996
G0 F6000 X24.218 Y31.098
G1 F1200 X24.588 Y30.824 E18.38527
G1 X24.673 Y30.764 E18.38873
G1 X25.116 Y30.468 E18.40646
G1 X25.868 Y29.994 E18.43602
