;FLAVOR:Marlin
;TIME:5013
;Filament used: 2.82438m
;Layer height: 0.2
;MINX:24.419
;MINY:22.436
;MINZ:0.2
;MAXX:64.513
;MAXY:69.13
;MAXZ:51.6
;Generated with Cura_SteamEngine 4.8.0
M140 S75
M105
M190 S75
M104 S235
M105
M109 S235
M82 ;absolute extrusion mode
; Ender 3 Custom Start G-code
G92 E0 ; Reset Extruder
G28 ; Home all axes
G1 Z2.0 F3000 ; Move Z Axis up little to prevent scratching of Heat Bed
G1 X0.1 Y20 Z0.3 F5000.0 ; Move to start position
G1 X0.1 Y200.0 Z0.3 F1500.0 E15 ; Draw the first line
G1 X0.4 Y200.0 Z0.3 F5000.0 ; Move to side a little
G1 X0.4 Y20 Z0.3 F1500.0 E30 ; Draw the second line
G92 E0 ; Reset Extruder
G1 Z2.0 F3000 ; Move Z Axis up little to prevent scratching of Heat Bed
G1 X5 Y20 Z0.3 F5000.0 ; Move over to prevent blob squish
G92 E0
G92 E0
G1 F2700 E-5
;LAYER_COUNT:258
;LAYER:0
M107
G0 F6000 X29.903 Y28.703 Z0.2
;TYPE:SKIRT
G1 F2700 E0
G1 F1200 X30.171 Y28.427 E0.0128
G1 X30.409 Y28.19 E0.02397
G1 X30.698 Y27.91 E0.03735
G1 X31.118 Y27.523 E0.05635
G1 X31.362 Y27.31 E0.06712
G1 X31.591 Y27.116 E0.0771
G1 X31.907 Y26.855 E0.09073
G1 X32.42 Y26.456 E0.11235
G1 X32.751 Y26.214 E0.12599
G1 X33.031 Y26.016 E0.13739
G1 X33.37 Y25.784 E0.15105
G1 X33.864 Y25.465 E0.17061
G1 X34.145 Y25.294 E0.18155
G1 X34.412 Y25.137 E0.19186
G1 X34.724 Y24.959 E0.2038
G1 X35.256 Y24.674 E0.22388
G1 X35.678 Y24.463 E0.23957
G1 X36.009 Y24.305 E0.25177
G1 X36.338 Y24.154 E0.26381
G1 X36.866 Y23.928 E0.28291
G1 X37.143 Y23.818 E0.29282
G1 X37.422 Y23.711 E0.30276
G1 X37.84 Y23.558 E0.31757
G1 X38.466 Y23.35 E0.33951
G1 X38.896 Y23.225 E0.3544
G1 X39.607 Y23.032 E0.3789
G1 X40.166 Y22.896 E0.39804
G1 X40.328 Y22.861 E0.40355
G1 X40.638 Y22.799 E0.41407
G1 X40.998 Y22.732 E0.42625
G1 X41.602 Y22.637 E0.44658
G1 X41.997 Y22.586 E0.45983
G1 X42.4 Y22.541 E0.47332
G1 X42.779 Y22.51 E0.48596
G1 X43.566 Y22.458 E0.5122
G1 X44.52 Y22.436 E0.54393
G1 X45.384 Y22.454 E0.57268
G1 X46.215 Y22.503 E0.60036
G1 X46.762 Y22.567 E0.61868
G1 X47.587 Y22.684 E0.6464
G1 X48.001 Y22.751 E0.66035
G1 X48.327 Y22.81 E0.67136
G1 X48.601 Y22.863 E0.68065
G1 X48.847 Y22.914 E0.689
G1 X49.546 Y23.083 E0.71292
G1 X49.951 Y23.195 E0.7269
G1 X50.51 Y23.361 E0.74629
G1 X50.957 Y23.506 E0.76192
G1 X51.172 Y23.581 E0.7695
G1 X51.641 Y23.756 E0.78614
G1 X52.165 Y23.966 E0.80492
G1 X52.718 Y24.206 E0.82497
G1 X53.04 Y24.356 E0.83679
G1 X53.325 Y24.494 E0.84732
G1 X53.696 Y24.68 E0.86112
G1 X54.249 Y24.977 E0.882
G1 X54.569 Y25.161 E0.89428
G1 X54.811 Y25.304 E0.90363
G1 X55.126 Y25.496 E0.9159
G1 X55.667 Y25.848 E0.93736
G1 X55.996 Y26.076 E0.95068
G1 X56.231 Y26.244 E0.96028
G1 X56.519 Y26.455 E0.97216
G1 X57.015 Y26.84 E0.99304
G1 X57.328 Y27.098 E1.00653
G1 X57.585 Y27.316 E1.01774
G1 X57.878 Y27.573 E1.0307
G1 X58.331 Y27.994 E1.05127
G1 X58.607 Y28.265 E1.06414
G1 X58.831 Y28.492 E1.07475
G1 X59.102 Y28.774 E1.08775
G1 X59.47 Y29.176 E1.10588
G1 X59.664 Y29.399 E1.11571
G1 X59.875 Y29.649 E1.12659
G1 X60.142 Y29.975 E1.14061
G1 X60.492 Y30.426 E1.1596
G1 X60.698 Y30.706 E1.17116
G1 X60.91 Y31.005 E1.18335
G1 X61.139 Y31.339 E1.19682
G1 X61.485 Y31.875 E1.21804
G1 X61.721 Y32.266 E1.23323
G1 X61.888 Y32.554 E1.2443
G1 X62.04 Y32.824 E1.2546
G1 X62.276 Y33.266 E1.27127
G1 X62.446 Y33.603 E1.28382
G1 X62.64 Y34.007 E1.29873
G1 X62.819 Y34.401 E1.31312
G1 X63.038 Y34.917 E1.33177
G1 X63.174 Y35.262 E1.3441
G1 X63.284 Y35.553 E1.35445
G1 X63.411 Y35.904 E1.36686
G1 X63.605 Y36.494 E1.38752
G1 X63.713 Y36.855 E1.40005
G1 X63.812 Y37.206 E1.41218
G1 X63.915 Y37.597 E1.42563
G1 X64.043 Y38.137 E1.44409
G1 X64.122 Y38.513 E1.45687
G1 X64.195 Y38.896 E1.46984
G1 X64.26 Y39.271 E1.4825
G1 X64.314 Y39.609 E1.49388
G1 X64.357 Y39.913 E1.50409
G1 X64.408 Y40.333 E1.51816
G1 X64.463 Y40.993 E1.54019
G1 X64.498 Y41.651 E1.56211
G1 X64.513 Y42.394 E1.58682
G1 X64.501 Y43.222 E1.61437
G1 X64.489 Y43.61 E1.62728
G1 X64.439 Y44.303 E1.65039
G1 X64.403 Y44.648 E1.66192
G1 X64.366 Y44.96 E1.67237
G1 X64.332 Y45.215 E1.68093
G1 X64.276 Y45.585 E1.69338
G1 X64.22 Y45.918 E1.70461
G1 X64.158 Y46.251 E1.71587
G1 X64.087 Y46.606 E1.72792
G1 X63.936 Y47.259 E1.75021
G1 X63.755 Y47.944 E1.77377
G1 X63.654 Y48.303 E1.78618
G1 X63.429 Y49.051 E1.81216
G1 X62.928 Y50.634 E1.86738
G1 X62.232 Y53.069 E1.95161
G1 X61.854 Y54.553 E2.00255
G1 X61.496 Y55.931 E2.0499
G1 X61.367 Y56.387 E2.06566
G1 X61.261 Y56.733 E2.0777
G1 X61.142 Y57.097 E2.09044
G1 X61.042 Y57.387 E2.10064
G1 X60.924 Y57.712 E2.11214
G1 X60.59 Y58.59 E2.14338
G1 X60.452 Y58.936 E2.15577
G1 X60.269 Y59.372 E2.1715
G1 X60.08 Y59.802 E2.18712
G1 X59.859 Y60.269 E2.20431
G1 X59.692 Y60.601 E2.21667
G1 X59.494 Y60.976 E2.23077
G1 X59.008 Y61.856 E2.26421
G1 X58.804 Y62.21 E2.2778
G1 X58.552 Y62.625 E2.29394
G1 X58.399 Y62.868 E2.30349
G1 X58.074 Y63.354 E2.32294
G1 X57.713 Y63.865 E2.34375
G1 X57.14 Y64.607 E2.37493
G1 X56.505 Y65.298 E2.40614
G1 X55.814 Y65.932 E2.43733
G1 X55.072 Y66.505 E2.46852
G1 X54.283 Y67.013 E2.49973
G1 X53.049 Y67.634 E2.54567
G1 X52.864 Y67.713 E2.55236
G1 X51.986 Y68.044 E2.58357
G1 X51.433 Y68.211 E2.60279
G1 X51.117 Y68.297 E2.61368
G1 X50.83 Y68.371 E2.62354
G1 X50.259 Y68.51 E2.64308
G1 X49.385 Y68.685 E2.67273
G1 X48.882 Y68.765 E2.68967
G1 X48.613 Y68.805 E2.69872
G1 X47.731 Y68.922 E2.72831
G1 X46.976 Y69.012 E2.7536
G1 X46.349 Y69.068 E2.77453
G1 X45.91 Y69.095 E2.78916
G1 X45.61 Y69.11 E2.79915
G1 X45.258 Y69.122 E2.81087
G1 X44.915 Y69.128 E2.82228
G1 X44.218 Y69.13 E2.84546
G1 X43.897 Y69.126 E2.85614
G1 X43.745 Y69.122 E2.86119
G1 X43.36 Y69.105 E2.87401
G1 X42.334 Y69.042 E2.9082
G1 X41.978 Y69.015 E2.92008
G1 X41.574 Y68.977 E2.93357
G1 X41.28 Y68.945 E2.94341
G1 X41.016 Y68.913 E2.95225
G1 X40.532 Y68.843 E2.96852
G1 X39.878 Y68.734 E2.99057
G1 X39.624 Y68.689 E2.99915
G1 X39.341 Y68.635 E3.00873
G1 X39.083 Y68.583 E3.01749
G1 X38.434 Y68.443 E3.03957
G1 X38.017 Y68.344 E3.05382
G1 X37.725 Y68.269 E3.06385
G1 X37.344 Y68.164 E3.077
G1 X36.505 Y67.916 E3.10609
G1 X36.25 Y67.837 E3.11497
G1 X36.011 Y67.76 E3.12333
G1 X35.77 Y67.679 E3.13178
G1 X35.221 Y67.488 E3.15111
G1 X34.601 Y67.251 E3.17319
G1 X34.191 Y67.08 E3.18797
G1 X33.903 Y66.956 E3.1984
G1 X33.577 Y66.809 E3.21029
G1 X32.74 Y66.387 E3.24147
G1 X31.941 Y65.896 E3.27266
G1 X31.187 Y65.338 E3.30386
G1 X30.483 Y64.718 E3.33506
G1 X29.835 Y64.04 E3.36625
G1 X29.246 Y63.31 E3.39745
G1 X28.722 Y62.532 E3.42865
G1 X28.266 Y61.713 E3.45983
G1 X27.966 Y61.062 E3.48367
G1 X27.846 Y60.778 E3.49392
G1 X27.519 Y59.9 E3.52508
G1 X27.267 Y58.996 E3.5563
G1 X27.113 Y58.208 E3.583
G1 X27.029 Y57.67 E3.60111
G1 X26.761 Y55.795 E3.66411
G1 X26.337 Y53.322 E3.74756
G1 X25.846 Y50.874 E3.8306
G1 X25.265 Y48.358 E3.91649
G1 X25.167 Y47.97 E3.9298
G1 X24.964 Y47.127 E3.95864
G1 X24.876 Y46.731 E3.97213
G1 X24.817 Y46.439 E3.98204
G1 X24.751 Y46.085 E3.99402
G1 X24.697 Y45.764 E4.00484
G1 X24.652 Y45.468 E4.0148
G1 X24.571 Y44.891 E4.03418
G1 X24.521 Y44.484 E4.04782
G1 X24.509 Y44.367 E4.05173
G1 X24.466 Y43.796 E4.07077
G1 X24.437 Y43.218 E4.09002
G1 X24.425 Y42.856 E4.10207
G1 X24.42 Y42.565 E4.11175
G1 X24.419 Y42.261 E4.12186
G1 X24.421 Y42.07 E4.12821
G1 X24.44 Y41.514 E4.14672
G1 X24.456 Y41.252 E4.15545
G1 X24.499 Y40.744 E4.1724
G1 X24.575 Y40.039 E4.19599
G1 X24.666 Y39.385 E4.21795
G1 X24.752 Y38.876 E4.23512
G1 X24.81 Y38.561 E4.24577
G1 X24.854 Y38.34 E4.25327
G1 X25.006 Y37.682 E4.27573
G1 X25.168 Y37.068 E4.29685
G1 X25.264 Y36.726 E4.30866
G1 X25.333 Y36.495 E4.31668
G1 X25.521 Y35.923 E4.33671
G1 X25.65 Y35.564 E4.3494
G1 X25.774 Y35.237 E4.36103
G1 X25.903 Y34.911 E4.37269
G1 X26.146 Y34.344 E4.39321
G1 X26.329 Y33.948 E4.40772
G1 X26.458 Y33.677 E4.4177
G1 X26.63 Y33.33 E4.43058
G1 X26.798 Y33.005 E4.44275
G1 X26.969 Y32.693 E4.45458
G1 X27.078 Y32.502 E4.4619
G1 X27.218 Y32.264 E4.47108
G1 X27.435 Y31.905 E4.48503
G1 X27.769 Y31.386 E4.50556
G1 X28.009 Y31.035 E4.5197
G1 X28.209 Y30.752 E4.53123
G1 X28.421 Y30.462 E4.54318
G1 X28.772 Y30.007 E4.56229
G1 X29.018 Y29.705 E4.57524
G1 X29.236 Y29.446 E4.5865
G1 X29.484 Y29.16 E4.5991
G1 X29.903 Y28.703 E4.61972
G0 F6000 X30.19 Y28.982
G1 F1200 X30.458 Y28.706 E4.63251
G1 X30.687 Y28.477 E4.64328
G1 X30.976 Y28.197 E4.65667
G1 X31.381 Y27.825 E4.67496
G1 X31.625 Y27.612 E4.68573
G1 X31.846 Y27.424 E4.69538
G1 X32.162 Y27.163 E4.70901
G1 X32.656 Y26.779 E4.72982
G1 X32.987 Y26.537 E4.74346
G1 X33.256 Y26.346 E4.75443
G1 X33.595 Y26.114 E4.7681
G1 X34.072 Y25.807 E4.78696
G1 X34.353 Y25.636 E4.7979
G1 X34.61 Y25.484 E4.80783
G1 X34.922 Y25.306 E4.81978
G1 X35.435 Y25.032 E4.83913
G1 X35.857 Y24.821 E4.85482
G1 X36.175 Y24.668 E4.86656
G1 X36.504 Y24.517 E4.8786
G1 X37.014 Y24.299 E4.89704
G1 X37.291 Y24.189 E4.90696
G1 X37.559 Y24.087 E4.91649
G1 X37.977 Y23.934 E4.9313
G1 X38.581 Y23.733 E4.95247
G1 X39.001 Y23.611 E4.96702
G1 X39.712 Y23.418 E4.99152
G1 X40.251 Y23.287 E5.00997
G1 X40.413 Y23.252 E5.01548
G1 X40.712 Y23.192 E5.02563
G1 X41.072 Y23.125 E5.0378
G1 X41.654 Y23.033 E5.0574
G1 X42.049 Y22.982 E5.07065
G1 X42.437 Y22.939 E5.08363
G1 X42.805 Y22.909 E5.09591
G1 X43.592 Y22.857 E5.12215
G1 X44.512 Y22.836 E5.15275
G1 X45.376 Y22.854 E5.1815
G1 X46.176 Y22.901 E5.20815
G1 X46.705 Y22.963 E5.22587
G1 X47.53 Y23.08 E5.25358
G1 X47.93 Y23.144 E5.26705
G1 X48.256 Y23.203 E5.27807
G1 X48.766 Y23.306 E5.29538
G1 X49.439 Y23.468 E5.3184
G1 X49.844 Y23.58 E5.33238
G1 X50.08 Y23.648 E5.34055
G1 X50.395 Y23.743 E5.35149
G1 X50.825 Y23.883 E5.36653
G1 X51.04 Y23.958 E5.3741
G1 X51.492 Y24.128 E5.39016
G1 X52.016 Y24.338 E5.40894
G1 X52.549 Y24.568 E5.42825
G1 X52.871 Y24.718 E5.44006
G1 X53.146 Y24.851 E5.45022
G1 X53.517 Y25.037 E5.46403
G1 X54.05 Y25.324 E5.48416
G1 X54.37 Y25.508 E5.49644
G1 X54.603 Y25.646 E5.50544
G1 X54.918 Y25.838 E5.51771
G1 X55.439 Y26.177 E5.53839
G1 X55.768 Y26.405 E5.5517
G1 X55.995 Y26.566 E5.56096
G1 X56.283 Y26.777 E5.57283
G1 X56.76 Y27.149 E5.59295
G1 X57.073 Y27.407 E5.60644
G1 X57.321 Y27.617 E5.61725
G1 X57.614 Y27.874 E5.63021
G1 X58.051 Y28.279 E5.65003
G1 X58.327 Y28.55 E5.6629
G1 X58.543 Y28.769 E5.67313
G1 X58.814 Y29.051 E5.68614
G1 X59.168 Y29.439 E5.7036
G1 X59.362 Y29.662 E5.71344
G1 X59.566 Y29.903 E5.72394
G1 X59.833 Y30.229 E5.73795
G1 X60.17 Y30.663 E5.75623
G1 X60.376 Y30.943 E5.76779
G1 X60.58 Y31.231 E5.77953
G1 X60.809 Y31.565 E5.793
G1 X61.142 Y32.081 E5.81342
G1 X61.378 Y32.472 E5.82861
G1 X61.54 Y32.75 E5.83931
G1 X61.692 Y33.02 E5.84962
G1 X61.919 Y33.446 E5.86568
G1 X62.089 Y33.783 E5.87823
G1 X62.276 Y34.173 E5.89261
G1 X62.455 Y34.567 E5.90701
G1 X62.665 Y35.064 E5.92495
G1 X62.801 Y35.409 E5.93729
G1 X62.908 Y35.689 E5.94726
G1 X63.035 Y36.04 E5.95967
G1 X63.222 Y36.609 E5.97959
G1 X63.33 Y36.97 E5.99213
G1 X63.425 Y37.308 E6.0038
G1 X63.528 Y37.699 E6.01725
G1 X63.652 Y38.219 E6.03503
G1 X63.731 Y38.595 E6.04781
G1 X63.801 Y38.965 E6.06034
G1 X63.866 Y39.34 E6.07299
G1 X63.918 Y39.665 E6.08394
G1 X63.961 Y39.969 E6.09415
G1 X64.011 Y40.378 E6.10786
G1 X64.064 Y41.014 E6.12908
G1 X64.099 Y41.672 E6.151
G1 X64.113 Y42.389 E6.17485
G1 X64.101 Y43.217 E6.20239
G1 X64.089 Y43.593 E6.21491
G1 X64.041 Y44.261 E6.23718
G1 X64.005 Y44.606 E6.24872
G1 X63.969 Y44.907 E6.2588
G1 X63.935 Y45.162 E6.26736
G1 X63.881 Y45.519 E6.27937
G1 X63.825 Y45.852 E6.2906
G1 X63.766 Y46.173 E6.30145
G1 X63.695 Y46.528 E6.31349
G1 X63.549 Y47.157 E6.33497
G1 X63.368 Y47.842 E6.35854
G1 X63.271 Y48.187 E6.37046
G1 X63 Y49.083 E6.40159
G1 X62.541 Y50.531 E6.45211
G1 X61.843 Y52.975 E6.53665
G1 X61.466 Y54.452 E6.58735
G1 X61.108 Y55.83 E6.63471
G1 X60.984 Y56.27 E6.64991
G1 X60.878 Y56.616 E6.66195
G1 X60.764 Y56.967 E6.67422
G1 X60.664 Y57.257 E6.68442
G1 X60.55 Y57.57 E6.6955
G1 X60.216 Y58.448 E6.72675
G1 X60.083 Y58.781 E6.73867
G1 X59.809 Y59.429 E6.76207
G1 X59.715 Y59.64 E6.76976
G1 X59.501 Y60.089 E6.7863
G1 X59.334 Y60.421 E6.79866
G1 X59.144 Y60.783 E6.81226
G1 X58.658 Y61.663 E6.84569
G1 X58.461 Y62.003 E6.85876
G1 X58.213 Y62.412 E6.87467
G1 X58.06 Y62.655 E6.88422
G1 X57.748 Y63.123 E6.90293
G1 X57.387 Y63.634 E6.92374
G1 X56.823 Y64.362 E6.95437
G1 X56.199 Y65.039 E6.98499
G1 X55.518 Y65.659 E7.01562
G1 X54.786 Y66.217 E7.04624
G1 X54.008 Y66.71 E7.07687
G1 X52.892 Y67.266 E7.11834
G1 X52.707 Y67.345 E7.12503
G1 X51.845 Y67.67 E7.15567
G1 X51.328 Y67.825 E7.17362
G1 X51.012 Y67.911 E7.18452
G1 X50.735 Y67.982 E7.19403
G1 X50.164 Y68.121 E7.21357
G1 X49.322 Y68.29 E7.24214
G1 X48.819 Y68.37 E7.25908
G1 X48.56 Y68.408 E7.26778
G1 X47.684 Y68.524 E7.29717
G1 X46.929 Y68.614 E7.32246
G1 X46.325 Y68.669 E7.34263
G1 X45.886 Y68.696 E7.35726
G1 X45.596 Y68.71 E7.36692
G1 X45.244 Y68.722 E7.37863
G1 X44.913 Y68.728 E7.38965
G1 X44.216 Y68.73 E7.41283
G1 X43.755 Y68.722 E7.42816
G1 X43.384 Y68.706 E7.44051
G1 X42.358 Y68.643 E7.4747
G1 X42.015 Y68.616 E7.48615
G1 X41.611 Y68.578 E7.49964
G1 X41.328 Y68.548 E7.50911
G1 X41.064 Y68.516 E7.51795
G1 X40.597 Y68.449 E7.53365
G1 X39.943 Y68.34 E7.5557
G1 X39.416 Y68.242 E7.57353
G1 X39.168 Y68.192 E7.58194
G1 X38.519 Y68.052 E7.60402
G1 X38.117 Y67.957 E7.61776
G1 X37.825 Y67.882 E7.62779
G1 X37.457 Y67.78 E7.64049
G1 X36.618 Y67.532 E7.66959
G1 X36.372 Y67.456 E7.67815
G1 X36.133 Y67.379 E7.6865
G1 X35.901 Y67.301 E7.69464
G1 X35.352 Y67.11 E7.71398
G1 X34.755 Y66.882 E7.73523
G1 X34.345 Y66.711 E7.75001
G1 X34.068 Y66.591 E7.76005
G1 X33.742 Y66.444 E7.77194
G1 X32.92 Y66.03 E7.80255
G1 X32.137 Y65.545 E7.83319
G1 X31.399 Y64.995 E7.8638
G1 X30.711 Y64.382 E7.89445
G1 X30.08 Y63.713 E7.92504
G1 X29.508 Y62.991 E7.95567
G1 X29.002 Y62.222 E7.98629
G1 X28.564 Y61.412 E8.01692
G1 X28.335 Y60.907 E8.03536
G1 X28.215 Y60.623 E8.04561
G1 X27.894 Y59.76 E8.07624
G1 X27.649 Y58.872 E8.10688
G1 X27.508 Y58.146 E8.13148
G1 X27.425 Y57.614 E8.14938
G1 X27.153 Y55.708 E8.21342
G1 X26.736 Y53.275 E8.29552
G1 X26.234 Y50.777 E8.38027
G1 X25.661 Y48.294 E8.46502
G1 X25.556 Y47.877 E8.47933
G1 X25.353 Y47.034 E8.50817
G1 X25.268 Y46.651 E8.52121
G1 X25.209 Y46.359 E8.53112
G1 X25.146 Y46.018 E8.54266
G1 X25.092 Y45.697 E8.55348
G1 X25.048 Y45.413 E8.56304
G1 X24.967 Y44.836 E8.58242
G1 X24.919 Y44.444 E8.59556
G1 X24.907 Y44.327 E8.59947
G1 X24.865 Y43.776 E8.61785
G1 X24.836 Y43.198 E8.6371
G1 X24.825 Y42.849 E8.64871
G1 X24.82 Y42.558 E8.65839
G1 X24.819 Y42.265 E8.66813
G1 X24.821 Y42.074 E8.67449
G1 X24.84 Y41.539 E8.69229
G1 X24.856 Y41.277 E8.70102
G1 X24.897 Y40.787 E8.71738
G1 X24.973 Y40.082 E8.74096
G1 X25.06 Y39.452 E8.76211
G1 X25.146 Y38.943 E8.77928
G1 X25.202 Y38.639 E8.78956
G1 X25.246 Y38.418 E8.79706
G1 X25.393 Y37.784 E8.81871
G1 X25.555 Y37.17 E8.83983
G1 X25.647 Y36.84 E8.85122
G1 X25.716 Y36.609 E8.85924
G1 X25.897 Y36.058 E8.87853
G1 X26.026 Y35.699 E8.89122
G1 X26.146 Y35.384 E8.90243
G1 X26.275 Y35.058 E8.91409
G1 X26.509 Y34.511 E8.93388
G1 X26.692 Y34.115 E8.94839
G1 X26.817 Y33.854 E8.95801
G1 X26.989 Y33.507 E8.97089
G1 X27.152 Y33.192 E8.98269
G1 X27.317 Y32.891 E8.99411
G1 X27.56 Y32.471 E9.01025
G1 X27.777 Y32.112 E9.0242
G1 X28.099 Y31.612 E9.04398
G1 X28.339 Y31.261 E9.05812
G1 X28.532 Y30.988 E9.06924
G1 X28.744 Y30.698 E9.08119
G1 X29.083 Y30.259 E9.09964
G1 X29.329 Y29.957 E9.11259
G1 X29.539 Y29.708 E9.12343
G1 X29.787 Y29.422 E9.13602
G1 X30.19 Y28.982 E9.15586
G0 F6000 X30.477 Y29.26
G1 F1200 X30.745 Y28.984 E9.16866
G1 X30.965 Y28.764 E9.179
G1 X31.254 Y28.484 E9.19239
G1 X31.644 Y28.126 E9.21
G1 X31.888 Y27.913 E9.22077
G1 X32.1 Y27.733 E9.23002
G1 X32.416 Y27.472 E9.24365
G1 X32.892 Y27.102 E9.2637
G1 X33.223 Y26.86 E9.27734
G1 X33.482 Y26.676 E9.28791
G1 X33.821 Y26.444 E9.30157
G1 X34.28 Y26.149 E9.31972
G1 X34.561 Y25.978 E9.33066
G1 X34.809 Y25.831 E9.34025
G1 X35.121 Y25.653 E9.35219
G1 X35.613 Y25.39 E9.37075
G1 X36.035 Y25.179 E9.38644
G1 X36.342 Y25.032 E9.39776
G1 X36.671 Y24.881 E9.4098
G1 X37.161 Y24.671 E9.42753
G1 X37.438 Y24.561 E9.43745
G1 X37.697 Y24.462 E9.44667
G1 X38.115 Y24.309 E9.46147
G1 X38.696 Y24.116 E9.48184
G1 X39.106 Y23.997 E9.49604
G1 X39.817 Y23.804 E9.52054
G1 X40.335 Y23.678 E9.53827
G1 X40.497 Y23.643 E9.54378
G1 X40.785 Y23.585 E9.55355
G1 X41.145 Y23.518 E9.56573
G1 X41.705 Y23.43 E9.58459
