;FLAVOR:Marlin
;TIME:1873
;Filament used: 1.43272m
;Layer height: 0.2
;MINX:26.701
;MINY:23.003
;MINZ:0.2
;MAXX:68.668
;MAXY:64.966
;MAXZ:20
;Generated with Cura_SteamEngine 4.8.0
M140 S70
M105
M190 S70
M104 S230
M105
M109 S230
M82 ;absolute extrusion mode
; Ender 3 Custom Start G-code
G92 E0 ; Reset Extruder
G28 ; Home all axes
G1 Z2.0 F3000 ; Move Z Axis up little to prevent scratching of Heat Bed
G1 X0.1 Y20 Z0.3 F5000.0 ; Move to start position
G1 X0.1 Y200.0 Z0.3 F1500.0 E15 ; Draw the first line
G1 X0.4 Y200.0 Z0.3 F5000.0 ; Move to side a little
G1 X0.4 Y20 Z0.3 F1500.0 E30 ; Draw the second line
G92 E0 ; Reset Extruder
G1 Z2.0 F3000 ; Move Z Axis up little to prevent scratching of Heat Bed
G1 X5 Y20 Z0.3 F5000.0 ; Move over to prevent blob squish
G92 E0
G92 E0
G1 F2700 E-5
;LAYER_COUNT:100
;LAYER:0
M107
G0 F6000 X32.481 Y29.523 Z0.2
;TYPE:SKIRT
G1 F2700 E0
G1 F1200 X32.995 Y28.997 E0.02446
G1 X33.396 Y28.614 E0.0429
G1 X33.93 Y28.137 E0.06672
G1 X34.454 Y27.698 E0.08946
G1 X35.045 Y27.237 E0.11439
G1 X35.633 Y26.809 E0.13857
G1 X36.248 Y26.392 E0.16329
G1 X36.747 Y26.078 E0.1829
G1 X37.328 Y25.737 E0.2053
G1 X37.948 Y25.398 E0.22881
G1 X38.645 Y25.048 E0.25475
G1 X39.239 Y24.776 E0.27648
G1 X39.882 Y24.506 E0.29967
G1 X40.469 Y24.281 E0.32058
G1 X41.161 Y24.042 E0.34493
G1 X41.825 Y23.837 E0.36804
G1 X42.517 Y23.647 E0.39191
G1 X43.129 Y23.501 E0.41284
G1 X43.856 Y23.354 E0.43751
G1 X44.539 Y23.239 E0.46054
G1 X45.26 Y23.142 E0.48474
G1 X45.904 Y23.077 E0.50627
G1 X46.621 Y23.028 E0.53017
G1 X47.273 Y23.005 E0.55187
G1 X47.993 Y23.003 E0.57582
G1 X48.656 Y23.023 E0.59788
G1 X49.399 Y23.071 E0.62264
G1 X50.081 Y23.138 E0.64544
G1 X50.771 Y23.228 E0.66858
G1 X51.343 Y23.321 E0.68786
G1 X52.107 Y23.473 E0.71376
G1 X52.886 Y23.657 E0.74039
G1 X53.566 Y23.84 E0.76381
G1 X54.071 Y23.994 E0.78137
G1 X54.758 Y24.229 E0.80552
G1 X55.434 Y24.485 E0.82956
G1 X56.097 Y24.761 E0.85345
G1 X56.703 Y25.037 E0.87559
G1 X57.367 Y25.367 E0.90026
G1 X57.899 Y25.654 E0.92036
G1 X58.52 Y26.016 E0.94427
G1 X59.169 Y26.423 E0.96975
G1 X59.779 Y26.834 E0.99421
G1 X60.2 Y27.139 E1.0115
G1 X60.76 Y27.573 E1.03507
G1 X61.346 Y28.058 E1.06037
G1 X61.92 Y28.568 E1.08591
G1 X62.386 Y29.012 E1.10731
G1 X62.878 Y29.512 E1.13064
G1 X63.314 Y29.984 E1.15202
G1 X63.789 Y30.533 E1.17616
G1 X64.219 Y31.065 E1.19891
G1 X64.648 Y31.632 E1.22256
G1 X65.014 Y32.15 E1.24366
G1 X65.425 Y32.776 E1.26856
G1 X65.76 Y33.326 E1.28998
G1 X66.116 Y33.956 E1.31405
G1 X66.457 Y34.609 E1.33855
G1 X66.767 Y35.254 E1.36236
G1 X66.988 Y35.754 E1.38054
G1 X67.265 Y36.442 E1.40521
G1 X67.537 Y37.19 E1.43168
G1 X67.766 Y37.894 E1.4563
G1 X67.925 Y38.444 E1.47534
G1 X68.097 Y39.117 E1.49845
G1 X68.231 Y39.721 E1.51902
G1 X68.366 Y40.443 E1.54345
G1 X68.482 Y41.203 E1.56902
G1 X68.571 Y41.961 E1.59441
G1 X68.621 Y42.569 E1.6147
G1 X68.656 Y43.269 E1.63801
G1 X68.668 Y43.921 E1.6597
G1 X68.658 Y44.639 E1.68358
G1 X68.627 Y45.299 E1.70556
G1 X68.568 Y46.031 E1.72998
G1 X68.494 Y46.679 E1.75168
G1 X68.392 Y47.374 E1.77504
G1 X68.27 Y48.054 E1.79802
G1 X68.103 Y48.824 E1.82422
G1 X67.935 Y49.484 E1.84688
G1 X67.749 Y50.131 E1.86927
G1 X67.578 Y50.664 E1.88788
G1 X67.324 Y51.372 E1.9129
G1 X67.035 Y52.098 E1.93889
G1 X66.744 Y52.764 E1.96306
G1 X66.497 Y53.282 E1.98215
G1 X66.168 Y53.918 E2.00597
G1 X65.843 Y54.499 E2.02811
G1 X65.459 Y55.134 E2.05279
G1 X65.055 Y55.754 E2.0774
G1 X64.662 Y56.318 E2.10027
G1 X64.327 Y56.768 E2.11893
G1 X63.85 Y57.364 E2.14432
G1 X63.383 Y57.908 E2.16816
G1 X62.888 Y58.447 E2.1925
G1 X62.416 Y58.928 E2.21492
G1 X61.884 Y59.436 E2.23938
G1 X61.452 Y59.821 E2.25863
G1 X60.903 Y60.279 E2.28241
G1 X60.296 Y60.753 E2.30802
G1 X59.716 Y61.176 E2.3319
G1 X59.243 Y61.498 E2.35093
G1 X58.638 Y61.882 E2.37477
G1 X58.022 Y62.245 E2.39855
G1 X57.343 Y62.614 E2.42425
G1 X56.771 Y62.899 E2.4455
G1 X56.135 Y63.19 E2.46877
G1 X55.532 Y63.444 E2.49053
G1 X54.855 Y63.704 E2.51465
G1 X54.204 Y63.929 E2.53756
G1 X53.494 Y64.148 E2.56227
G1 X52.868 Y64.318 E2.58385
G1 X52.189 Y64.479 E2.60706
G1 X51.607 Y64.598 E2.62681
G1 X50.879 Y64.722 E2.65138
G1 X50.096 Y64.828 E2.67766
G1 X49.364 Y64.902 E2.70213
G1 X48.818 Y64.939 E2.72033
G1 X48.106 Y64.964 E2.74403
G1 X47.421 Y64.966 E2.76681
G1 X46.666 Y64.942 E2.79193
G1 X45.937 Y64.894 E2.81623
G1 X45.236 Y64.825 E2.83966
G1 X44.692 Y64.754 E2.85791
G1 X43.967 Y64.635 E2.88234
G1 X43.214 Y64.485 E2.90788
G1 X42.499 Y64.318 E2.9323
G1 X41.928 Y64.164 E2.95197
G1 X41.257 Y63.96 E2.9753
G1 X40.647 Y63.753 E2.99672
G1 X39.932 Y63.482 E3.02215
G1 X39.254 Y63.198 E3.0466
G1 X38.62 Y62.908 E3.06979
G1 X38.057 Y62.629 E3.09069
G1 X37.39 Y62.27 E3.11588
G1 X36.834 Y61.945 E3.1373
G1 X36.23 Y61.565 E3.16104
G1 X35.676 Y61.191 E3.18327
G1 X35.098 Y60.773 E3.20699
G1 X34.598 Y60.386 E3.22802
G1 X34.03 Y59.915 E3.25257
G1 X33.471 Y59.419 E3.27742
G1 X32.938 Y58.913 E3.30187
G1 X32.521 Y58.49 E3.32162
G1 X32.042 Y57.972 E3.34509
G1 X31.633 Y57.5 E3.36586
G1 X31.162 Y56.917 E3.39079
G1 X30.7 Y56.304 E3.41632
G1 X30.279 Y55.706 E3.44064
G1 X29.978 Y55.246 E3.45893
G1 X29.612 Y54.645 E3.48233
G1 X29.254 Y54.013 E3.50649
G1 X28.905 Y53.344 E3.53159
G1 X28.629 Y52.768 E3.55283
G1 X28.345 Y52.123 E3.57627
G1 X28.097 Y51.507 E3.59836
G1 X27.842 Y50.805 E3.6232
G1 X27.629 Y50.151 E3.64608
G1 X27.432 Y49.473 E3.66956
G1 X27.283 Y48.891 E3.68954
G1 X27.124 Y48.17 E3.7141
G1 X26.995 Y47.475 E3.73761
G1 X26.885 Y46.754 E3.76187
G1 X26.808 Y46.1 E3.78377
G1 X26.748 Y45.388 E3.80753
G1 X26.715 Y44.756 E3.82858
G1 X26.701 Y44.019 E3.8531
G1 X26.711 Y43.346 E3.87549
G1 X26.746 Y42.618 E3.89973
G1 X26.801 Y41.941 E3.92232
G1 X26.883 Y41.226 E3.94626
G1 X26.973 Y40.616 E3.96676
G1 X27.106 Y39.884 E3.99151
G1 X27.26 Y39.176 E4.01561
G1 X27.434 Y38.487 E4.03924
G1 X27.598 Y37.914 E4.05907
G1 X27.821 Y37.221 E4.08328
G1 X28.056 Y36.567 E4.10639
G1 X28.329 Y35.881 E4.13095
G1 X28.59 Y35.284 E4.15262
G1 X28.9 Y34.634 E4.17657
G1 X29.196 Y34.062 E4.19799
G1 X29.546 Y33.436 E4.22185
G1 X29.92 Y32.816 E4.24593
G1 X30.344 Y32.166 E4.27174
G1 X30.665 Y31.71 E4.29029
G1 X31.073 Y31.167 E4.31288
G1 X31.527 Y30.6 E4.33704
G1 X32.002 Y30.046 E4.36131
G1 X32.481 Y29.523 E4.3849
G0 F6000 X32.776 Y29.793
G1 F1200 X33.272 Y29.287 E4.40847
G1 X33.673 Y28.904 E4.42691
G1 X34.187 Y28.444 E4.44985
G1 X34.711 Y28.005 E4.47259
G1 X35.28 Y27.56 E4.49661
G1 X35.868 Y27.132 E4.5208
G1 X36.461 Y26.73 E4.54463
G1 X36.96 Y26.416 E4.56424
G1 X37.52 Y26.087 E4.58584
G1 X38.14 Y25.748 E4.60935
G1 X38.812 Y25.411 E4.63435
G1 X39.406 Y25.139 E4.65608
G1 X40.025 Y24.879 E4.67841
G1 X40.612 Y24.654 E4.69932
G1 X41.279 Y24.424 E4.72278
G1 X41.943 Y24.219 E4.7459
G1 X42.61 Y24.036 E4.7689
G1 X43.222 Y23.89 E4.78983
G1 X43.922 Y23.748 E4.81358
G1 X44.605 Y23.633 E4.83662
G1 X45.301 Y23.54 E4.85998
G1 X45.945 Y23.475 E4.8815
G1 X46.635 Y23.428 E4.90451
G1 X47.287 Y23.405 E4.92621
G1 X47.981 Y23.403 E4.94929
G1 X48.644 Y23.423 E4.97135
G1 X49.36 Y23.469 E4.99521
G1 X50.042 Y23.536 E5.01801
G1 X50.707 Y23.622 E5.04031
G1 X51.279 Y23.715 E5.05958
G1 X52.015 Y23.862 E5.08455
G1 X52.794 Y24.046 E5.11117
G1 X53.449 Y24.223 E5.13373
G1 X53.954 Y24.377 E5.15129
G1 X54.616 Y24.603 E5.17456
G1 X55.292 Y24.859 E5.1986
G1 X55.932 Y25.125 E5.22165
G1 X56.538 Y25.401 E5.2438
G1 X57.177 Y25.719 E5.26754
G1 X57.709 Y26.006 E5.28765
G1 X58.308 Y26.355 E5.3107
G1 X58.957 Y26.762 E5.33618
G1 X59.544 Y27.158 E5.35974
G1 X59.965 Y27.463 E5.37703
G1 X60.505 Y27.881 E5.39974
G1 X61.091 Y28.366 E5.42504
G1 X61.644 Y28.858 E5.44966
G1 X62.11 Y29.302 E5.47107
G1 X62.584 Y29.783 E5.49353
G1 X63.02 Y30.255 E5.5149
G1 X63.478 Y30.785 E5.5382
G1 X63.908 Y31.317 E5.56095
G1 X64.321 Y31.863 E5.58372
G1 X64.687 Y32.381 E5.60481
G1 X65.083 Y32.984 E5.62881
G1 X65.418 Y33.534 E5.65023
G1 X65.761 Y34.141 E5.67342
G1 X66.102 Y34.794 E5.69792
G1 X66.401 Y35.416 E5.72087
G1 X66.622 Y35.916 E5.73905
G1 X66.889 Y36.579 E5.76283
G1 X67.161 Y37.327 E5.7893
G1 X67.382 Y38.005 E5.81302
G1 X67.541 Y38.555 E5.83206
G1 X67.706 Y39.203 E5.8543
G1 X67.84 Y39.807 E5.87488
G1 X67.971 Y40.504 E5.89846
G1 X68.087 Y41.264 E5.92403
G1 X68.172 Y41.994 E5.94848
G1 X68.222 Y42.602 E5.96877
G1 X68.256 Y43.276 E5.99121
G1 X68.268 Y43.928 E6.0129
G1 X68.258 Y44.62 E6.03592
G1 X68.227 Y45.28 E6.0579
G1 X68.171 Y45.986 E6.08145
G1 X68.097 Y46.634 E6.10315
G1 X67.998 Y47.303 E6.12564
G1 X67.876 Y47.983 E6.14862
G1 X67.715 Y48.726 E6.1739
G1 X67.547 Y49.386 E6.19656
G1 X67.368 Y50.009 E6.21811
G1 X67.197 Y50.542 E6.23673
G1 X66.952 Y51.224 E6.26084
G1 X66.663 Y51.95 E6.28682
G1 X66.383 Y52.592 E6.31012
G1 X66.136 Y53.11 E6.32921
G1 X65.819 Y53.723 E6.35216
G1 X65.494 Y54.304 E6.3743
G1 X65.124 Y54.916 E6.39809
G1 X64.72 Y55.536 E6.4227
G1 X64.342 Y56.079 E6.44471
G1 X64.007 Y56.529 E6.46337
G1 X63.547 Y57.103 E6.48783
G1 X63.08 Y57.647 E6.51168
G1 X62.603 Y58.167 E6.53515
G1 X62.131 Y58.648 E6.55756
G1 X61.617 Y59.137 E6.58116
G1 X61.185 Y59.522 E6.6004
G1 X60.657 Y59.964 E6.62331
G1 X60.05 Y60.438 E6.64892
G1 X59.491 Y60.845 E6.67192
G1 X59.018 Y61.167 E6.69095
G1 X58.435 Y61.537 E6.71392
G1 X57.819 Y61.9 E6.7377
G1 X57.164 Y62.256 E6.76249
G1 X56.592 Y62.541 E6.78375
G1 X55.98 Y62.822 E6.80615
G1 X55.377 Y63.076 E6.82791
G1 X54.725 Y63.325 E6.85112
G1 X54.074 Y63.55 E6.87403
G1 X53.389 Y63.762 E6.89788
G1 X52.763 Y63.932 E6.91946
G1 X52.108 Y64.087 E6.94184
G1 X51.526 Y64.206 E6.9616
G1 X50.825 Y64.325 E6.98525
G1 X50.042 Y64.431 E7.01153
G1 X49.337 Y64.503 E7.0351
G1 X48.791 Y64.54 E7.0533
G1 X48.105 Y64.564 E7.07613
G1 X47.42 Y64.566 E7.09892
G1 X46.693 Y64.543 E7.12311
G1 X45.964 Y64.495 E7.14741
G1 X45.288 Y64.429 E7.17
G1 X44.744 Y64.358 E7.18825
G1 X44.045 Y64.243 E7.21181
G1 X43.292 Y64.093 E7.23734
G1 X42.603 Y63.931 E7.26089
G1 X42.032 Y63.777 E7.28056
G1 X41.386 Y63.581 E7.30301
G1 X40.776 Y63.374 E7.32443
G1 X40.087 Y63.113 E7.34894
G1 X39.409 Y62.829 E7.37339
G1 X38.797 Y62.55 E7.39576
G1 X38.234 Y62.271 E7.41666
G1 X37.592 Y61.924 E7.44093
G1 X37.036 Y61.599 E7.46235
G1 X36.454 Y61.233 E7.48522
G1 X35.9 Y60.859 E7.50745
G1 X35.343 Y60.456 E7.53031
G1 X34.843 Y60.069 E7.55134
G1 X34.296 Y59.616 E7.57497
G1 X33.737 Y59.12 E7.59982
G1 X33.223 Y58.633 E7.62337
G1 X32.806 Y58.21 E7.64313
G1 X32.344 Y57.71 E7.66577
G1 X31.935 Y57.238 E7.68654
G1 X31.481 Y56.676 E7.71057
G1 X31.019 Y56.063 E7.7361
G1 X30.614 Y55.487 E7.75952
G1 X30.313 Y55.027 E7.77781
G1 X29.96 Y54.447 E7.80039
G1 X29.602 Y53.815 E7.82455
G1 X29.266 Y53.171 E7.84871
G1 X28.99 Y52.595 E7.86995
G1 X28.716 Y51.974 E7.89253
G1 X28.468 Y51.358 E7.91461
G1 X28.222 Y50.682 E7.93854
G1 X28.009 Y50.028 E7.96142
G1 X27.819 Y49.374 E7.98407
G1 X27.67 Y48.792 E8.00405
G1 X27.517 Y48.097 E8.02772
G1 X27.388 Y47.402 E8.05123
G1 X27.283 Y46.707 E8.07461
G1 X27.206 Y46.053 E8.09651
G1 X27.147 Y45.367 E8.11941
G1 X27.114 Y44.735 E8.14046
G1 X27.101 Y44.025 E8.16408
G1 X27.111 Y43.352 E8.18647
G1 X27.145 Y42.651 E8.20981
G1 X27.2 Y41.974 E8.2324
G1 X27.279 Y41.285 E8.25547
G1 X27.369 Y40.675 E8.27597
G1 X27.497 Y39.969 E8.29984
G1 X27.651 Y39.261 E8.32394
G1 X27.818 Y38.597 E8.34671
G1 X27.982 Y38.024 E8.36653
G1 X28.197 Y37.357 E8.38984
G1 X28.432 Y36.703 E8.41296
G1 X28.696 Y36.041 E8.43666
G1 X28.957 Y35.444 E8.45833
G1 X29.255 Y34.818 E8.48139
G1 X29.551 Y34.246 E8.50281
G1 X29.889 Y33.643 E8.5258
G1 X30.263 Y33.023 E8.54989
G1 X30.671 Y32.396 E8.57477
G1 X30.992 Y31.94 E8.59331
G1 X31.386 Y31.417 E8.61509
G1 X31.84 Y30.85 E8.63925
G1 X32.297 Y30.316 E8.66263
G1 X32.776 Y29.793 E8.68622
G0 F6000 X33.071 Y30.063
G1 F1200 X33.548 Y29.576 E8.70889
G1 X33.949 Y29.193 E8.72733
G1 X34.444 Y28.75 E8.74943
G1 X34.968 Y28.311 E8.77216
G1 X35.515 Y27.883 E8.79527
G1 X36.103 Y27.455 E8.81945
G1 X36.674 Y27.069 E8.84238
G1 X37.173 Y26.755 E8.86199
G1 X37.712 Y26.438 E8.88279
G1 X38.332 Y26.099 E8.90629
G1 X38.978 Y25.775 E8.93033
G1 X39.572 Y25.503 E8.95205
G1 X40.168 Y25.253 E8.97355
G1 X40.755 Y25.028 E8.99446
G1 X41.397 Y24.806 E9.01705
G1 X42.061 Y24.601 E9.04017
G1 X42.703 Y24.425 E9.06231
G1 X43.315 Y24.279 E9.08323
G1 X43.988 Y24.143 E9.10607
G1 X44.671 Y24.028 E9.12911
G1 X45.341 Y23.938 E9.15159
G1 X45.985 Y23.873 E9.17312
G1 X46.649 Y23.827 E9.19526
G1 X47.301 Y23.804 E9.21696
G1 X47.969 Y23.803 E9.23917
G1 X48.632 Y23.823 E9.26124
G1 X49.321 Y23.867 E9.2842
G1 X50.003 Y23.934 E9.30699
G1 X50.643 Y24.017 E9.32846
G1 X51.215 Y24.11 E9.34773
G1 X51.923 Y24.251 E9.37174
G1 X52.702 Y24.435 E9.39836
G1 X53.332 Y24.606 E9.42008
G1 X53.837 Y24.76 E9.43764
G1 X54.474 Y24.977 E9.46002
G1 X55.15 Y25.233 E9.48406
G1 X55.766 Y25.489 E9.50625
G1 X56.372 Y25.765 E9.52839
G1 X56.987 Y26.071 E9.55124
G1 X57.519 Y26.358 E9.57135
G1 X58.095 Y26.694 E9.59353
G1 X58.744 Y27.101 E9.61901
G1 X59.309 Y27.482 E9.64167
G1 X59.73 Y27.787 E9.65896
G1 X60.249 Y28.189 E9.6808
G1 X60.835 Y28.674 E9.7061
G1 X61.368 Y29.147 E9.7298
G1 X61.834 Y29.591 E9.75121
G1 X62.291 Y30.055 E9.77287
G1 X62.727 Y30.527 E9.79424
G1 X63.167 Y31.036 E9.81662
G1 X63.597 Y31.568 E9.83937
G1 X63.994 Y32.094 E9.86129
G1 X64.36 Y32.612 E9.88238
G1 X64.741 Y33.192 E9.90546
G1 X65.076 Y33.742 E9.92688
G1 X65.406 Y34.327 E9.94922
G1 X65.747 Y34.98 E9.97372
G1 X66.035 Y35.577 E9.99577
G1 X66.256 Y36.077 E10.01395
G1 X66.513 Y36.715 E10.03683
G1 X66.785 Y37.463 E10.0633
G1 X66.998 Y38.116 E10.08615
G1 X67.157 Y38.666 E10.10519
G1 X67.316 Y39.29 E10.12661
G1 X67.45 Y39.894 E10.14718
G1 X67.575 Y40.564 E10.16985
G1 X67.691 Y41.324 E10.19542
G1 X67.774 Y42.027 E10.21897
G1 X67.824 Y42.635 E10.23926
G1 X67.856 Y43.283 E10.26084
G1 X67.868 Y43.935 E10.28253
G1 X67.859 Y44.602 E10.30471
G1 X67.828 Y45.262 E10.32669
G1 X67.773 Y45.94 E10.34931
G1 X67.699 Y46.588 E10.371
G1 X67.605 Y47.232 E10.39265
G1 X67.483 Y47.912 E10.41563
G1 X67.328 Y48.627 E10.43996
G1 X67.16 Y49.287 E10.46261
G1 X66.987 Y49.887 E10.48338
G1 X66.816 Y50.42 E10.502
G1 X66.581 Y51.076 E10.52518
G1 X66.292 Y51.802 E10.55117
G1 X66.022 Y52.42 E10.5736
G1 X65.775 Y52.938 E10.59269
G1 X65.47 Y53.528 E10.61478
G1 X65.145 Y54.109 E10.63692
G1 X64.789 Y54.698 E10.65981
G1 X64.385 Y55.318 E10.68442
G1 X64.021 Y55.84 E10.70559
G1 X63.686 Y56.29 E10.72425
G1 X63.243 Y56.843 E10.74781
G1 X62.776 Y57.387 E10.77166
G1 X62.317 Y57.887 E10.79423
G1 X61.845 Y58.368 E10.81665
G1 X61.351 Y58.839 E10.83935
G1 X60.919 Y59.224 E10.8586
G1 X60.411 Y59.648 E10.8806
G1 X59.804 Y60.122 E10.90622
G1 X59.266 Y60.515 E10.92838
G1 X58.793 Y60.837 E10.94741
G1 X58.231 Y61.193 E10.96954
G1 X57.615 Y61.556 E10.99332
G1 X56.986 Y61.898 E11.01713
G1 X56.414 Y62.183 E11.03839
G1 X55.825 Y62.453 E11.05994
G1 X55.222 Y62.707 E11.0817
G1 X54.594 Y62.947 E11.10406
G1 X53.943 Y63.172 E11.12697
G1 X53.284 Y63.375 E11.1499
G1 X52.658 Y63.545 E11.17148
G1 X52.028 Y63.695 E11.19302
G1 X51.446 Y63.814 E11.21278
G1 X50.771 Y63.929 E11.23555
G1 X49.988 Y64.035 E11.26183
G1 X49.31 Y64.104 E11.2845
G1 X48.764 Y64.141 E11.3027
G1 X48.104 Y64.164 E11.32466
G1 X47.419 Y64.166 E11.34745
G1 X46.719 Y64.144 E11.37074
G1 X45.99 Y64.096 E11.39504
G1 X45.34 Y64.032 E11.41676
G1 X44.796 Y63.961 E11.43501
G1 X44.123 Y63.85 E11.4577
G1 X43.37 Y63.7 E11.48324
G1 X42.707 Y63.545 E11.50588
G1 X42.136 Y63.391 E11.52555
G1 X41.514 Y63.202 E11.54717
G1 X40.904 Y62.995 E11.5686
G1 X40.241 Y62.744 E11.59218
G1 X39.563 Y62.46 E11.61663
G1 X38.975 Y62.191 E11.63813
G1 X38.412 Y61.912 E11.65903
G1 X37.794 Y61.579 E11.68238
G1 X37.238 Y61.254 E11.7038
G1 X36.678 Y60.902 E11.7258
G1 X36.124 Y60.528 E11.74803
G1 X35.588 Y60.14 E11.77004
G1 X35.088 Y59.753 E11.79107
G1 X34.561 Y59.317 E11.81382
G1 X34.002 Y58.821 E11.83867
G1 X33.508 Y58.352 E11.86133
G1 X33.091 Y57.929 E11.88109
G1 X32.646 Y57.448 E11.90288
G1 X32.237 Y56.976 E11.92365
G1 X31.8 Y56.435 E11.94678
G1 X31.338 Y55.822 E11.97231
G1 X30.949 Y55.268 E11.99483
G1 X30.648 Y54.808 E12.01311
G1 X30.308 Y54.25 E12.03485
G1 X29.95 Y53.618 E12.05901
G1 X29.626 Y52.999 E12.08224
G1 X29.35 Y52.423 E12.10349
G1 X29.087 Y51.824 E12.12525
G1 X28.839 Y51.208 E12.14733
G1 X28.602 Y50.558 E12.17034
G1 X28.389 Y49.904 E12.19322
G1 X28.207 Y49.275 E12.215
G1 X28.058 Y48.693 E12.23498
