;FLAVOR:Marlin
;TIME:1859
;Filament used: 1.40372m
;Layer height: 0.2
;MINX:12.141
;MINY:16.774
;MINZ:0.2
;MAXX:54.109
;MAXY:58.736
;MAXZ:20
;Generated with Cura_SteamEngine 4.8.0
M140 S70
M105
M190 S70
M104 S230
M105
M109 S230
M82 ;absolute extrusion mode
; Ender 3 Custom Start G-code
G92 E0 ; Reset Extruder
G28 ; Home all axes
G1 Z2.0 F3000 ; Move Z Axis up little to prevent scratching of Heat Bed
G1 X0.1 Y20 Z0.3 F5000.0 ; Move to start position
G1 X0.1 Y200.0 Z0.3 F1500.0 E15 ; Draw the first line
G1 X0.4 Y200.0 Z0.3 F5000.0 ; Move to side a little
G1 X0.4 Y20 Z0.3 F1500.0 E30 ; Draw the second line
G92 E0 ; Reset Extruder
G1 Z2.0 F3000 ; Move Z Axis up little to prevent scratching of Heat Bed
G1 X5 Y20 Z0.3 F5000.0 ; Move over to prevent blob squish
G92 E0
G92 E0
G1 F2700 E-5
;LAYER_COUNT:100
;LAYER:0
M107
G0 F6000 X19.391 Y21.889 Z0.2
;TYPE:SKIRT
G1 F2700 E0
G1 F1200 X19.946 Y21.426 E0.02404
G1 X20.439 Y21.041 E0.04484
G1 X21.019 Y20.618 E0.06872
G1 X21.661 Y20.181 E0.09455
G1 X22.272 Y19.794 E0.11861
G1 X22.707 Y19.538 E0.13539
G1 X23.372 Y19.177 E0.16056
G1 X24.093 Y18.817 E0.18736
G1 X24.746 Y18.517 E0.21127
G1 X25.272 Y18.296 E0.23024
G1 X25.942 Y18.04 E0.2541
G1 X26.576 Y17.821 E0.27641
G1 X27.278 Y17.604 E0.30085
G1 X27.943 Y17.423 E0.32377
G1 X28.616 Y17.263 E0.34678
G1 X29.214 Y17.14 E0.36708
G1 X29.971 Y17.011 E0.39262
G1 X30.711 Y16.912 E0.41745
G1 X31.42 Y16.841 E0.44115
G1 X31.991 Y16.802 E0.46019
G1 X32.709 Y16.776 E0.48409
G1 X33.387 Y16.774 E0.50664
G1 X34.142 Y16.798 E0.53176
G1 X34.871 Y16.846 E0.55606
G1 X35.572 Y16.915 E0.57949
G1 X36.116 Y16.986 E0.59774
G1 X36.847 Y17.106 E0.62237
G1 X37.603 Y17.257 E0.64802
G1 X38.297 Y17.419 E0.67172
G1 X38.849 Y17.567 E0.69073
G1 X39.541 Y17.777 E0.71478
G1 X40.194 Y17.999 E0.73772
G1 X40.897 Y18.266 E0.76273
G1 X41.545 Y18.537 E0.78609
G1 X42.191 Y18.832 E0.80971
G1 X42.727 Y19.098 E0.82961
G1 X43.38 Y19.449 E0.85427
G1 X43.992 Y19.806 E0.87784
G1 X44.603 Y20.191 E0.90186
G1 X45.123 Y20.542 E0.92272
G1 X45.708 Y20.965 E0.94673
G1 X46.237 Y21.375 E0.96899
G1 X46.787 Y21.83 E0.99274
G1 X47.29 Y22.275 E1.01507
G1 X47.831 Y22.788 E1.03987
G1 X48.275 Y23.238 E1.0609
G1 X48.763 Y23.766 E1.08481
G1 X49.226 Y24.301 E1.10834
G1 X49.704 Y24.893 E1.13365
G1 X50.072 Y25.383 E1.15403
G1 X50.474 Y25.956 E1.17731
G1 X50.859 Y26.543 E1.20066
G1 X51.239 Y27.166 E1.22493
G1 X51.535 Y27.69 E1.24495
G1 X51.869 Y28.331 E1.26899
G1 X52.2 Y29.019 E1.29438
G1 X52.493 Y29.681 E1.31846
G1 X52.693 Y30.178 E1.33628
G1 X52.943 Y30.864 E1.36056
G1 X53.174 Y31.57 E1.38527
G1 X53.377 Y32.271 E1.40954
G1 X53.536 Y32.894 E1.43093
G1 X53.695 Y33.617 E1.45555
G1 X53.817 Y34.278 E1.47791
G1 X53.922 Y34.967 E1.50109
G1 X53.993 Y35.56 E1.52095
G1 X54.056 Y36.301 E1.54569
G1 X54.095 Y37.056 E1.57083
G1 X54.109 Y37.786 E1.59512
G1 X54.101 Y38.325 E1.61304
G1 X54.066 Y39.05 E1.63719
G1 X54.003 Y39.828 E1.66315
G1 X53.921 Y40.545 E1.68715
G1 X53.835 Y41.128 E1.70675
G1 X53.705 Y41.847 E1.73105
G1 X53.558 Y42.527 E1.75419
G1 X53.379 Y43.239 E1.77861
G1 X53.211 Y43.824 E1.79885
G1 X52.991 Y44.506 E1.82269
G1 X52.736 Y45.216 E1.84778
G1 X52.462 Y45.904 E1.87241
G1 X52.243 Y46.405 E1.8906
G1 X51.935 Y47.052 E1.91443
G1 X51.588 Y47.723 E1.93955
G1 X51.233 Y48.356 E1.96369
G1 X50.919 Y48.876 E1.9839
G1 X50.512 Y49.502 E2.00873
G1 X50.114 Y50.07 E2.0318
G1 X49.687 Y50.639 E2.05546
G1 X49.315 Y51.103 E2.07524
G1 X48.844 Y51.652 E2.0993
G1 X48.331 Y52.212 E2.12456
G1 X47.801 Y52.752 E2.14973
G1 X47.371 Y53.161 E2.16946
G1 X46.866 Y53.613 E2.192
G1 X46.372 Y54.028 E2.21346
G1 X45.774 Y54.496 E2.23872
G1 X45.166 Y54.939 E2.26374
G1 X44.545 Y55.36 E2.28869
G1 X44.084 Y55.65 E2.30681
G1 X43.483 Y56.002 E2.32997
G1 X42.823 Y56.361 E2.35496
G1 X42.169 Y56.689 E2.3793
G1 X41.598 Y56.952 E2.40021
G1 X40.939 Y57.23 E2.424
G1 X40.353 Y57.455 E2.44487
G1 X39.658 Y57.696 E2.46934
G1 X38.985 Y57.904 E2.49277
G1 X38.281 Y58.096 E2.51704
G1 X37.671 Y58.241 E2.53789
G1 X36.951 Y58.387 E2.56233
G1 X36.267 Y58.502 E2.5854
G1 X35.548 Y58.598 E2.60952
G1 X34.904 Y58.663 E2.63105
G1 X34.178 Y58.712 E2.65525
G1 X33.54 Y58.734 E2.67649
G1 X32.824 Y58.736 E2.7003
G1 X32.139 Y58.715 E2.72309
G1 X31.405 Y58.668 E2.74756
G1 X30.72 Y58.601 E2.77045
G1 X30.044 Y58.513 E2.79312
G1 X29.497 Y58.425 E2.81155
G1 X28.716 Y58.27 E2.83803
G1 X27.92 Y58.082 E2.86524
G1 X27.24 Y57.899 E2.88866
G1 X26.748 Y57.749 E2.90577
G1 X26.052 Y57.511 E2.93023
G1 X25.317 Y57.232 E2.95638
G1 X24.657 Y56.956 E2.98017
G1 X24.168 Y56.733 E2.99805
G1 X23.524 Y56.414 E3.02195
G1 X22.884 Y56.07 E3.04612
G1 X22.246 Y55.699 E3.07066
G1 X21.669 Y55.337 E3.09332
G1 X21.056 Y54.923 E3.11792
G1 X20.568 Y54.569 E3.13797
G1 X19.996 Y54.124 E3.16208
G1 X19.445 Y53.666 E3.18591
G1 X18.908 Y53.19 E3.20978
G1 X18.447 Y52.753 E3.2309
G1 X17.937 Y52.236 E3.25506
G1 X17.498 Y51.761 E3.27657
G1 X17.017 Y51.204 E3.30105
G1 X16.594 Y50.68 E3.32345
G1 X16.167 Y50.115 E3.347
G1 X15.778 Y49.564 E3.36943
G1 X15.365 Y48.935 E3.39446
G1 X15.033 Y48.389 E3.41572
G1 X14.692 Y47.785 E3.43878
G1 X14.395 Y47.219 E3.46004
G1 X14.067 Y46.54 E3.48513
G1 X13.787 Y45.904 E3.50824
G1 X13.516 Y45.227 E3.53249
G1 X13.281 Y44.58 E3.55539
G1 X13.053 Y43.881 E3.57984
G1 X12.889 Y43.314 E3.59947
G1 X12.716 Y42.636 E3.62275
G1 X12.569 Y41.972 E3.64536
G1 X12.433 Y41.239 E3.67016
G1 X12.325 Y40.525 E3.69418
G1 X12.24 Y39.809 E3.71816
G1 X12.191 Y39.231 E3.73745
G1 X12.154 Y38.513 E3.76137
G1 X12.141 Y37.835 E3.78392
G1 X12.151 Y37.1 E3.80837
G1 X12.185 Y36.387 E3.83211
G1 X12.244 Y35.66 E3.85637
G1 X12.313 Y35.057 E3.87656
G1 X12.414 Y34.37 E3.89965
G1 X12.528 Y33.733 E3.92118
G1 X12.693 Y32.971 E3.94711
G1 X12.871 Y32.268 E3.97123
G1 X13.067 Y31.584 E3.99489
G1 X13.26 Y30.987 E4.01576
G1 X13.509 Y30.298 E4.04013
G1 X13.747 Y29.701 E4.0615
G1 X14.037 Y29.037 E4.0856
G1 X14.339 Y28.404 E4.10893
G1 X14.671 Y27.764 E4.13291
G1 X14.968 Y27.234 E4.15312
G1 X15.348 Y26.606 E4.17753
G1 X15.735 Y26.012 E4.20111
G1 X16.134 Y25.44 E4.22431
G1 X16.495 Y24.956 E4.24439
G1 X16.96 Y24.374 E4.26917
G1 X17.422 Y23.835 E4.29278
G1 X17.929 Y23.283 E4.31771
G1 X18.387 Y22.817 E4.33944
G1 X18.907 Y22.321 E4.36334
G1 X19.391 Y21.889 E4.38492
G0 F6000 X19.658 Y22.188
G1 F1200 X20.192 Y21.742 E4.40806
G1 X20.685 Y21.357 E4.42886
G1 X21.244 Y20.948 E4.4519
G1 X21.886 Y20.511 E4.47773
G1 X22.475 Y20.139 E4.5009
G1 X22.91 Y19.883 E4.51769
G1 X23.551 Y19.534 E4.54196
G1 X24.272 Y19.174 E4.56877
G1 X24.901 Y18.886 E4.59178
G1 X25.427 Y18.665 E4.61075
G1 X26.072 Y18.418 E4.63372
G1 X26.706 Y18.199 E4.65603
G1 X27.383 Y17.99 E4.6796
G1 X28.048 Y17.809 E4.70252
G1 X28.696 Y17.654 E4.72468
G1 X29.294 Y17.531 E4.74499
G1 X30.024 Y17.408 E4.76961
G1 X30.764 Y17.309 E4.79444
G1 X31.448 Y17.24 E4.81731
G1 X32.019 Y17.201 E4.83634
G1 X32.71 Y17.176 E4.85934
G1 X33.388 Y17.174 E4.88189
G1 X34.115 Y17.197 E4.90608
G1 X34.844 Y17.245 E4.93038
G1 X35.52 Y17.311 E4.95297
G1 X36.064 Y17.382 E4.97122
G1 X36.768 Y17.498 E4.99495
G1 X37.524 Y17.649 E5.02059
G1 X38.193 Y17.806 E5.04345
G1 X38.745 Y17.954 E5.06246
G1 X39.412 Y18.156 E5.08564
G1 X40.065 Y18.378 E5.10858
G1 X40.743 Y18.635 E5.13269
G1 X41.391 Y18.906 E5.15605
G1 X42.013 Y19.19 E5.1788
G1 X42.549 Y19.456 E5.1987
G1 X43.178 Y19.795 E5.22246
G1 X43.79 Y20.152 E5.24603
G1 X44.379 Y20.522 E5.26916
G1 X44.899 Y20.873 E5.29003
G1 X45.463 Y21.281 E5.31318
G1 X45.992 Y21.691 E5.33544
G1 X46.522 Y22.13 E5.35833
G1 X47.025 Y22.575 E5.38067
G1 X47.546 Y23.069 E5.40455
G1 X47.99 Y23.519 E5.42558
G1 X48.46 Y24.027 E5.44859
G1 X48.923 Y24.562 E5.47213
G1 X49.384 Y25.133 E5.49653
G1 X49.752 Y25.623 E5.51692
G1 X50.14 Y26.176 E5.53939
G1 X50.525 Y26.763 E5.56273
G1 X50.89 Y27.363 E5.58609
G1 X51.186 Y27.887 E5.60611
G1 X51.509 Y28.504 E5.62927
G1 X51.84 Y29.192 E5.65467
G1 X52.122 Y29.831 E5.6779
G1 X52.322 Y30.328 E5.69572
G1 X52.562 Y30.989 E5.7191
G1 X52.793 Y31.695 E5.74381
G1 X52.99 Y32.37 E5.7672
G1 X53.149 Y32.993 E5.78858
G1 X53.302 Y33.69 E5.81232
G1 X53.424 Y34.351 E5.83467
G1 X53.525 Y35.015 E5.85701
G1 X53.596 Y35.608 E5.87688
G1 X53.657 Y36.321 E5.90068
G1 X53.696 Y37.076 E5.92582
G1 X53.709 Y37.78 E5.94924
G1 X53.701 Y38.319 E5.96717
G1 X53.667 Y39.018 E5.99045
G1 X53.604 Y39.796 E6.01641
G1 X53.526 Y40.487 E6.03954
G1 X53.44 Y41.07 E6.05914
G1 X53.314 Y41.763 E6.08256
G1 X53.167 Y42.443 E6.1057
G1 X52.994 Y43.129 E6.12924
G1 X52.826 Y43.714 E6.14948
G1 X52.614 Y44.371 E6.17244
G1 X52.359 Y45.081 E6.19753
G1 X52.096 Y45.744 E6.22125
G1 X51.877 Y46.245 E6.23944
G1 X51.58 Y46.868 E6.2624
G1 X51.233 Y47.539 E6.28752
G1 X50.891 Y48.149 E6.31078
G1 X50.577 Y48.669 E6.33098
G1 X50.184 Y49.273 E6.35495
G1 X49.786 Y49.841 E6.37802
G1 X49.375 Y50.388 E6.40078
G1 X49.003 Y50.852 E6.42056
G1 X48.549 Y51.382 E6.44377
G1 X48.036 Y51.942 E6.46903
G1 X47.525 Y52.463 E6.4933
G1 X47.095 Y52.872 E6.51304
G1 X46.608 Y53.307 E6.53476
G1 X46.114 Y53.722 E6.55621
G1 X45.538 Y54.173 E6.58055
G1 X44.93 Y54.616 E6.60557
G1 X44.332 Y55.021 E6.62959
G1 X43.871 Y55.311 E6.6477
G1 X43.292 Y55.651 E6.67004
G1 X42.632 Y56.01 E6.69502
G1 X42.002 Y56.326 E6.71847
G1 X41.431 Y56.589 E6.73938
G1 X40.796 Y56.857 E6.7623
G1 X40.21 Y57.082 E6.78318
G1 X39.54 Y57.313 E6.80675
G1 X38.867 Y57.521 E6.83018
G1 X38.188 Y57.707 E6.85359
G1 X37.578 Y57.852 E6.87445
G1 X36.884 Y57.992 E6.898
G1 X36.2 Y58.107 E6.92106
G1 X35.507 Y58.2 E6.94432
G1 X34.863 Y58.265 E6.96585
G1 X34.164 Y58.313 E6.98915
G1 X33.526 Y58.335 E7.01039
G1 X32.836 Y58.336 E7.03333
G1 X32.151 Y58.315 E7.05613
G1 X31.444 Y58.27 E7.07969
G1 X30.759 Y58.203 E7.10258
G1 X30.107 Y58.118 E7.12445
G1 X29.56 Y58.03 E7.14288
G1 X28.808 Y57.881 E7.16838
G1 X28.012 Y57.693 E7.19558
G1 X27.357 Y57.516 E7.21815
G1 X26.865 Y57.366 E7.23526
G1 X26.194 Y57.137 E7.25884
G1 X25.459 Y56.858 E7.28498
G1 X24.823 Y56.592 E7.30791
G1 X24.334 Y56.369 E7.32579
G1 X23.714 Y56.062 E7.3488
G1 X23.074 Y55.718 E7.37297
G1 X22.459 Y55.36 E7.39663
G1 X21.882 Y54.998 E7.41929
G1 X21.291 Y54.599 E7.44301
G1 X20.803 Y54.245 E7.46306
G1 X20.251 Y53.817 E7.48629
G1 X19.7 Y53.359 E7.51012
G1 X19.184 Y52.9 E7.53309
G1 X18.723 Y52.463 E7.55422
G1 X18.23 Y51.965 E7.57753
G1 X17.791 Y51.49 E7.59904
G1 X17.328 Y50.953 E7.62262
G1 X16.905 Y50.429 E7.64502
G1 X16.494 Y49.884 E7.66772
G1 X16.105 Y49.333 E7.69016
G1 X15.707 Y48.727 E7.71427
G1 X15.375 Y48.181 E7.73552
G1 X15.046 Y47.599 E7.75776
G1 X14.749 Y47.033 E7.77902
G1 X14.434 Y46.379 E7.80316
G1 X14.154 Y45.743 E7.82628
G1 X13.892 Y45.091 E7.84965
G1 X13.657 Y44.444 E7.87254
G1 X13.437 Y43.77 E7.89612
G1 X13.273 Y43.203 E7.91575
G1 X13.107 Y42.549 E7.9382
G1 X12.96 Y41.885 E7.96082
G1 X12.828 Y41.179 E7.9847
G1 X12.72 Y40.465 E8.00872
G1 X12.639 Y39.775 E8.03183
G1 X12.59 Y39.197 E8.05112
G1 X12.554 Y38.505 E8.07417
G1 X12.541 Y37.827 E8.09672
G1 X12.551 Y37.119 E8.12027
G1 X12.585 Y36.406 E8.14402
G1 X12.642 Y35.706 E8.16738
G1 X12.711 Y35.103 E8.18756
G1 X12.808 Y34.441 E8.20982
G1 X12.922 Y33.804 E8.23134
G1 X13.08 Y33.069 E8.25634
G1 X13.258 Y32.366 E8.28046
G1 X13.448 Y31.707 E8.30327
G1 X13.641 Y31.11 E8.32414
G1 X13.881 Y30.446 E8.34763
G1 X14.119 Y29.849 E8.369
G1 X14.398 Y29.21 E8.39219
G1 X14.7 Y28.577 E8.41552
G1 X15.02 Y27.959 E8.43867
G1 X15.317 Y27.429 E8.45887
G1 X15.683 Y26.825 E8.48236
G1 X16.07 Y26.231 E8.50594
G1 X16.454 Y25.679 E8.52831
G1 X16.815 Y25.195 E8.54839
G1 X17.264 Y24.635 E8.57226
G1 X17.726 Y24.096 E8.59587
G1 X18.214 Y23.564 E8.61989
G1 X18.672 Y23.098 E8.64162
G1 X19.174 Y22.62 E8.66467
G1 X19.658 Y22.188 E8.68625
G0 F6000 X19.924 Y22.486
G1 F1200 X20.438 Y22.057 E8.70852
G1 X20.931 Y21.672 E8.72932
G1 X21.469 Y21.279 E8.75148
G1 X22.111 Y20.842 E8.77731
G1 X22.678 Y20.483 E8.79963
G1 X23.113 Y20.227 E8.81642
G1 X23.729 Y19.892 E8.83974
G1 X24.45 Y19.532 E8.86655
G1 X25.056 Y19.254 E8.88872
G1 X25.582 Y19.033 E8.9077
G1 X26.203 Y18.796 E8.92981
G1 X26.837 Y18.577 E8.95212
G1 X27.488 Y18.376 E8.97478
G1 X28.153 Y18.195 E8.9977
G1 X28.777 Y18.046 E9.01904
G1 X29.375 Y17.923 E9.03934
G1 X30.077 Y17.804 E9.06303
G1 X30.817 Y17.705 E9.08786
G1 X31.475 Y17.639 E9.10985
G1 X32.046 Y17.6 E9.12889
G1 X32.711 Y17.576 E9.15102
G1 X33.389 Y17.574 E9.17357
G1 X34.089 Y17.596 E9.19686
G1 X34.818 Y17.644 E9.22116
G1 X35.468 Y17.708 E9.24289
G1 X36.012 Y17.779 E9.26113
G1 X36.69 Y17.891 E9.28399
G1 X37.446 Y18.042 E9.30963
G1 X38.089 Y18.192 E9.33159
G1 X38.641 Y18.34 E9.3506
G1 X39.283 Y18.535 E9.37292
G1 X39.936 Y18.757 E9.39586
G1 X40.588 Y19.004 E9.41905
G1 X41.236 Y19.275 E9.44241
G1 X41.835 Y19.548 E9.4643
G1 X42.371 Y19.814 E9.4842
G1 X42.976 Y20.14 E9.50706
G1 X43.588 Y20.497 E9.53063
G1 X44.156 Y20.854 E9.55294
G1 X44.676 Y21.205 E9.57381
G1 X45.217 Y21.597 E9.59603
G1 X45.746 Y22.007 E9.61829
G1 X46.257 Y22.43 E9.64035
G1 X46.76 Y22.875 E9.66269
G1 X47.262 Y23.35 E9.68567
G1 X47.706 Y23.8 E9.7067
G1 X48.158 Y24.289 E9.72885
G1 X48.621 Y24.824 E9.75238
G1 X49.064 Y25.374 E9.77587
G1 X49.432 Y25.864 E9.79625
G1 X49.805 Y26.395 E9.81783
G1 X50.19 Y26.982 E9.84118
G1 X50.542 Y27.559 E9.86366
G1 X50.838 Y28.083 E9.88368
G1 X51.149 Y28.678 E9.90601
G1 X51.48 Y29.366 E9.9314
G1 X51.751 Y29.98 E9.95373
G1 X51.951 Y30.477 E9.97154
G1 X52.182 Y31.113 E9.99405
G1 X52.413 Y31.819 E10.01876
G1 X52.602 Y32.469 E10.04127
G1 X52.761 Y33.092 E10.06266
G1 X52.909 Y33.763 E10.08551
G1 X53.031 Y34.424 E10.10787
G1 X53.128 Y35.062 E10.12933
G1 X53.199 Y35.655 E10.14919
G1 X53.257 Y36.342 E10.17213
G1 X53.296 Y37.097 E10.19727
G1 X53.309 Y37.774 E10.21979
G1 X53.301 Y38.313 E10.23772
G1 X53.269 Y38.985 E10.2601
G1 X53.206 Y39.763 E10.28606
G1 X53.13 Y40.429 E10.30835
G1 X53.044 Y41.012 E10.32795
G1 X52.923 Y41.678 E10.35047
G1 X52.776 Y42.358 E10.37361
G1 X52.61 Y43.018 E10.39624
G1 X52.442 Y43.603 E10.41649
G1 X52.238 Y44.236 E10.43861
G1 X51.983 Y44.946 E10.4637
G1 X51.729 Y45.583 E10.48651
G1 X51.51 Y46.084 E10.50469
G1 X51.224 Y46.684 E10.5268
G1 X50.877 Y47.355 E10.55192
G1 X50.549 Y47.943 E10.57432
G1 X50.235 Y48.463 E10.59452
G1 X49.856 Y49.043 E10.61757
G1 X49.458 Y49.611 E10.64063
G1 X49.063 Y50.138 E10.66254
G1 X48.691 Y50.602 E10.68232
G1 X48.254 Y51.112 E10.70466
G1 X47.741 Y51.672 E10.72992
G1 X47.25 Y52.173 E10.75325
G1 X46.82 Y52.582 E10.77299
G1 X46.351 Y53.001 E10.7939
G1 X45.857 Y53.416 E10.81536
G1 X45.303 Y53.85 E10.83877
G1 X44.695 Y54.293 E10.86379
G1 X44.119 Y54.683 E10.88693
G1 X43.658 Y54.973 E10.90504
G1 X43.101 Y55.299 E10.92651
G1 X42.441 Y55.658 E10.9515
G1 X41.834 Y55.963 E10.97409
G1 X41.263 Y56.226 E10.995
G1 X40.652 Y56.483 E11.01705
G1 X40.066 Y56.708 E11.03792
G1 X39.422 Y56.931 E11.06059
G1 X38.749 Y57.139 E11.08402
G1 X38.096 Y57.317 E11.10653
G1 X37.486 Y57.462 E11.12739
G1 X36.818 Y57.598 E11.15006
G1 X36.134 Y57.713 E11.17313
G1 X35.467 Y57.802 E11.19551
G1 X34.823 Y57.867 E11.21704
G1 X34.151 Y57.913 E11.23944
G1 X33.513 Y57.935 E11.26067
G1 X32.848 Y57.936 E11.28279
G1 X32.163 Y57.915 E11.30559
G1 X31.483 Y57.872 E11.32825
G1 X30.798 Y57.805 E11.35114
G1 X30.171 Y57.724 E11.37217
G1 X29.624 Y57.636 E11.39059
G1 X28.899 Y57.492 E11.41518
G1 X28.103 Y57.304 E11.44238
G1 X27.473 Y57.134 E11.46409
G1 X26.981 Y56.984 E11.48119
G1 X26.336 Y56.763 E11.50387
G1 X25.601 Y56.484 E11.53002
G1 X24.989 Y56.229 E11.55207
G1 X24.5 Y56.006 E11.56995
G1 X23.903 Y55.709 E11.59212
G1 X23.263 Y55.365 E11.61629
G1 X22.671 Y55.021 E11.63906
G1 X22.094 Y54.659 E11.66172
G1 X21.526 Y54.275 E11.68452
G1 X21.038 Y53.921 E11.70457
G1 X20.507 Y53.509 E11.72693
G1 X19.956 Y53.051 E11.75076
G1 X19.459 Y52.61 E11.77286
G1 X18.998 Y52.173 E11.79398
G1 X18.524 Y51.693 E11.81642
G1 X18.085 Y51.218 E11.83793
G1 X17.639 Y50.702 E11.86062
G1 X17.216 Y50.178 E11.88302
G1 X16.82 Y49.654 E11.90486
G1 X16.431 Y49.103 E11.9273
G1 X16.049 Y48.519 E11.95051
G1 X15.717 Y47.973 E11.97176
G1 X15.4 Y47.413 E11.99316
G1 X15.103 Y46.847 E12.01442
G1 X14.8 Y46.218 E12.03764
G1 X14.52 Y45.582 E12.06076
G1 X14.268 Y44.954 E12.08326
G1 X14.033 Y44.307 E12.10616
G1 X13.822 Y43.659 E12.12882
G1 X13.658 Y43.092 E12.14846
G1 X13.497 Y42.463 E12.17005
G1 X13.35 Y41.799 E12.19267
G1 X13.224 Y41.12 E12.21564
G1 X13.116 Y40.406 E12.23966
