;FLAVOR:Marlin
;TIME:33087
;Filament used: 33.5734m
;Layer height: 0.2
;MINX:12.885
;MINY:14.828
;MINZ:0.2
;MAXX:216.832
;MAXY:218.785
;MAXZ:11
;Generated with Cura_SteamEngine 4.8.0
M140 S70
M105
M190 S70
M104 S230
M105
M109 S230
M82 ;absolute extrusion mode
; Ender 3 Custom Start G-code
G92 E0 ; Reset Extruder
G28 ; Home all axes
G1 Z2.0 F3000 ; Move Z Axis up little to prevent scratching of Heat Bed
G1 X0.1 Y20 Z0.3 F5000.0 ; Move to start position
G1 X0.1 Y200.0 Z0.3 F1500.0 E15 ; Draw the first line
G1 X0.4 Y200.0 Z0.3 F5000.0 ; Move to side a little
G1 X0.4 Y20 Z0.3 F1500.0 E30 ; Draw the second line
G92 E0 ; Reset Extruder
G1 Z2.0 F3000 ; Move Z Axis up little to prevent scratching of Heat Bed
G1 X5 Y20 Z0.3 F5000.0 ; Move over to prevent blob squish
G92 E0
G92 E0
G1 F2700 E-5
;LAYER_COUNT:55
;LAYER:0
M107
G0 F6000 X42.999 Y44.46 Z0.2
;TYPE:SKIRT
G1 F2700 E0
G1 F1200 X45.983 Y41.609 E0.13727
G1 X46.435 Y41.189 E0.15779
G1 X46.686 Y40.963 E0.16902
G1 X47.482 Y40.269 E0.20415
G1 X50.596 Y37.631 E0.33989
G1 X51.086 Y37.227 E0.36101
G1 X51.343 Y37.021 E0.37196
G1 X52.02 Y36.496 E0.40046
G1 X55.337 Y34.009 E0.53835
G1 X55.956 Y33.557 E0.56384
G1 X56.228 Y33.365 E0.57491
G1 X57.085 Y32.782 E0.60939
G1 X60.544 Y30.499 E0.74723
G1 X61.012 Y30.199 E0.76572
G1 X61.304 Y30.018 E0.77715
G1 X62.242 Y29.459 E0.81347
G1 X65.786 Y27.415 E0.94954
G1 X66.294 Y27.131 E0.9689
G1 X66.583 Y26.975 E0.97982
G1 X67.566 Y26.464 E1.01667
G1 X71.072 Y24.71 E1.14706
G1 X71.771 Y24.373 E1.17287
G1 X72.071 Y24.233 E1.18388
G1 X73.015 Y23.814 E1.21823
G1 X76.688 Y22.243 E1.3511
G1 X77.339 Y21.975 E1.37452
G1 X77.648 Y21.853 E1.38557
G1 X78.703 Y21.458 E1.42304
G1 X82.487 Y20.104 E1.55671
G1 X83.125 Y19.885 E1.57914
G1 X83.456 Y19.777 E1.59072
G1 X84.421 Y19.481 E1.62429
G1 X88.363 Y18.33 E1.76088
G1 X88.978 Y18.16 E1.7821
G1 X89.296 Y18.077 E1.79303
G1 X90.287 Y17.836 E1.82695
G1 X94.3 Y16.921 E1.96385
G1 X94.913 Y16.79 E1.9847
G1 X95.234 Y16.726 E1.99559
G1 X96.261 Y16.54 E2.0303
G1 X100.289 Y15.873 E2.1661
G1 X100.924 Y15.776 E2.18746
G1 X101.266 Y15.729 E2.19895
G1 X102.119 Y15.626 E2.22752
G1 X106.416 Y15.173 E2.37123
G1 X106.987 Y15.121 E2.3903
G1 X107.322 Y15.096 E2.40148
G1 X108.338 Y15.036 E2.43533
G1 X112.473 Y14.852 E2.57299
G1 X113.097 Y14.833 E2.59376
G1 X113.419 Y14.828 E2.60447
G1 X114.46 Y14.828 E2.63909
G1 X118.426 Y14.888 E2.77102
G1 X119.199 Y14.91 E2.79674
G1 X119.527 Y14.924 E2.80766
G1 X120.552 Y14.986 E2.84181
G1 X124.669 Y15.296 E2.97913
G1 X125.247 Y15.347 E2.99843
G1 X125.589 Y15.382 E3.00986
G1 X126.672 Y15.513 E3.04615
G1 X130.546 Y16.037 E3.17617
G1 X131.33 Y16.154 E3.20254
G1 X131.651 Y16.207 E3.21336
G1 X132.682 Y16.394 E3.24821
G1 X136.686 Y17.185 E3.38395
G1 X137.348 Y17.325 E3.40646
G1 X137.648 Y17.393 E3.41669
G1 X138.606 Y17.625 E3.44948
G1 X142.648 Y18.678 E3.5884
G1 X143.225 Y18.837 E3.60831
G1 X143.53 Y18.926 E3.61887
G1 X144.535 Y19.236 E3.65385
G1 X148.436 Y20.505 E3.79029
G1 X149.035 Y20.709 E3.81134
G1 X149.351 Y20.822 E3.8225
G1 X150.175 Y21.131 E3.85177
G1 X153.988 Y22.626 E3.98799
G1 X154.739 Y22.932 E4.01497
G1 X155.044 Y23.062 E4.02599
G1 X155.821 Y23.408 E4.05428
G1 X159.529 Y25.124 E4.19018
G1 X160.263 Y25.475 E4.21724
G1 X160.572 Y25.629 E4.22872
G1 X161.501 Y26.113 E4.26356
G1 X165.087 Y28.043 E4.39901
G1 X165.629 Y28.344 E4.41963
G1 X165.928 Y28.517 E4.43112
G1 X166.852 Y29.07 E4.46694
G1 X170.286 Y31.193 E4.60122
G1 X170.86 Y31.559 E4.62386
G1 X171.132 Y31.738 E4.63469
G1 X171.975 Y32.313 E4.66863
G1 X175.371 Y34.705 E4.80678
G1 X175.847 Y35.051 E4.82636
G1 X176.093 Y35.236 E4.83659
G1 X176.917 Y35.873 E4.87124
G1 X180.163 Y38.463 E5.00935
G1 X180.612 Y38.832 E5.02868
G1 X180.856 Y39.038 E5.0393
G1 X181.675 Y39.754 E5.07549
G1 X184.725 Y42.502 E5.21203
G1 X185.162 Y42.907 E5.23185
G1 X185.402 Y43.136 E5.24288
G1 X186.162 Y43.886 E5.2784
G1 X189.033 Y46.801 E5.41448
G1 X189.451 Y47.237 E5.43457
G1 X189.673 Y47.476 E5.44542
G1 X190.386 Y48.267 E5.48083
G1 X193.103 Y51.38 E5.61826
G1 X193.476 Y51.819 E5.63742
G1 X193.687 Y52.075 E5.64846
G1 X194.344 Y52.9 E5.68354
G1 X196.838 Y56.128 E5.81921
G1 X197.23 Y56.649 E5.8409
G1 X197.436 Y56.931 E5.85251
G1 X198.033 Y57.782 E5.88709
G1 X200.332 Y61.154 E6.02283
G1 X200.688 Y61.693 E6.04431
G1 X200.862 Y61.965 E6.05505
G1 X201.408 Y62.85 E6.08964
G1 X203.521 Y66.39 E6.22676
G1 X203.81 Y66.888 E6.24591
G1 X203.983 Y67.198 E6.25771
G1 X204.485 Y68.132 E6.29298
G1 X206.306 Y71.641 E6.42447
G1 X206.643 Y72.312 E6.44945
G1 X206.785 Y72.605 E6.46028
G1 X207.23 Y73.564 E6.49544
G1 X208.922 Y77.367 E6.63388
G1 X209.145 Y77.889 E6.65276
G1 X209.264 Y78.181 E6.66325
G1 X209.652 Y79.169 E6.69855
G1 X211.074 Y82.961 E6.83325
G1 X211.311 Y83.621 E6.85658
G1 X211.418 Y83.934 E6.86758
G1 X211.732 Y84.904 E6.90149
G1 X212.952 Y88.862 E7.03924
G1 X213.11 Y89.4 E7.05789
G1 X213.199 Y89.719 E7.06891
G1 X213.424 Y90.58 E7.09851
G1 X214.404 Y94.592 E7.23587
G1 X214.579 Y95.351 E7.26178
G1 X214.645 Y95.662 E7.27235
G1 X214.853 Y96.719 E7.30818
G1 X215.574 Y100.699 E7.44271
G1 X215.685 Y101.367 E7.46523
G1 X215.733 Y101.683 E7.47586
G1 X215.874 Y102.728 E7.51094
G1 X216.358 Y106.761 E7.64604
G1 X216.43 Y107.439 E7.66871
G1 X216.461 Y107.779 E7.68007
G1 X216.531 Y108.73 E7.71178
G1 X216.78 Y112.903 E7.85083
G1 X216.807 Y113.509 E7.871
G1 X216.817 Y113.822 E7.88142
G1 X216.831 Y114.693 E7.91039
G1 X216.832 Y118.82 E8.04766
G1 X216.822 Y119.6 E8.0736
G1 X216.813 Y119.915 E8.08408
G1 X216.775 Y120.795 E8.11338
G1 X216.529 Y124.912 E8.25055
G1 X216.475 Y125.67 E8.27583
G1 X216.444 Y126.018 E8.28745
G1 X216.35 Y126.914 E8.31741
G1 X215.847 Y131.105 E8.45781
G1 X215.761 Y131.75 E8.47945
G1 X215.707 Y132.104 E8.49136
G1 X215.538 Y133.111 E8.52532
G1 X214.807 Y137.136 E8.66138
G1 X214.683 Y137.768 E8.68281
G1 X214.62 Y138.066 E8.69294
G1 X214.434 Y138.892 E8.7211
G1 X214.388 Y139.088 E8.72779
G1 X213.402 Y143.118 E8.86578
G1 X213.255 Y143.686 E8.8853
G1 X213.166 Y144.011 E8.89651
G1 X212.882 Y144.98 E8.93009
G1 X211.702 Y148.807 E9.06329
G1 X211.474 Y149.512 E9.08793
G1 X211.37 Y149.816 E9.09862
G1 X210.999 Y150.851 E9.13519
G1 X209.585 Y154.617 E9.26899
G1 X209.335 Y155.255 E9.29178
G1 X209.215 Y155.549 E9.30234
G1 X208.798 Y156.525 E9.33764
G1 X207.12 Y160.288 E9.47468
G1 X206.889 Y160.788 E9.493
G1 X206.744 Y161.09 E9.50414
G1 X206.316 Y161.947 E9.536
G1 X204.381 Y165.676 E9.67573
G1 X204.078 Y166.241 E9.69705
G1 X203.917 Y166.53 E9.70806
G1 X203.386 Y167.45 E9.74339
G1 X201.263 Y171.001 E9.88099
G1 X200.978 Y171.463 E9.89905
G1 X200.801 Y171.741 E9.91001
G1 X200.187 Y172.67 E9.94705
G1 X197.887 Y176.041 E10.08278
G1 X197.542 Y176.532 E10.10274
G1 X197.345 Y176.804 E10.11391
G1 X196.705 Y177.657 E10.14937
G1 X194.303 Y180.765 E10.28002
G1 X193.809 Y181.386 E10.30641
G1 X193.61 Y181.628 E10.31683
G1 X193.036 Y182.307 E10.34641
G1 X190.329 Y185.406 E10.48327
G1 X189.825 Y185.97 E10.50842
G1 X189.587 Y186.227 E10.52007
G1 X188.85 Y186.997 E10.55552
G1 X186.012 Y189.876 E10.68998
G1 X185.506 Y190.375 E10.71362
G1 X185.266 Y190.605 E10.72468
G1 X184.571 Y191.248 E10.75617
G1 X181.596 Y193.927 E10.88932
G1 X181.006 Y194.444 E10.91541
G1 X180.759 Y194.655 E10.92622
G1 X180.123 Y195.179 E10.95363
G1 X176.714 Y197.898 E11.09866
G1 X176.264 Y198.246 E11.11758
G1 X176.01 Y198.436 E11.12813
G1 X175.123 Y199.08 E11.16459
G1 X171.803 Y201.416 E11.29961
G1 X171.29 Y201.767 E11.32028
G1 X171.008 Y201.954 E11.33153
G1 X170.085 Y202.543 E11.36795
G1 X166.607 Y204.691 E11.50391
G1 X166.088 Y205.001 E11.52402
G1 X165.812 Y205.16 E11.53461
G1 X164.885 Y205.677 E11.56992
G1 X161.268 Y207.622 E11.70651
G1 X160.748 Y207.893 E11.72601
G1 X160.438 Y208.048 E11.73754
G1 X159.467 Y208.514 E11.77336
G1 X155.724 Y210.248 E11.91056
G1 X155.203 Y210.48 E11.92953
G1 X154.906 Y210.607 E11.94028
G1 X153.922 Y211.01 E11.97564
G1 X150.107 Y212.507 E12.11195
G1 X149.484 Y212.741 E12.13408
G1 X149.177 Y212.851 E12.14493
G1 X148.423 Y213.109 E12.17144
G1 X144.312 Y214.445 E12.31521
G1 X143.715 Y214.63 E12.336
G1 X143.391 Y214.725 E12.34723
G1 X142.592 Y214.946 E12.3748
G1 X138.566 Y215.993 E12.51316
G1 X137.806 Y216.18 E12.53919
G1 X137.498 Y216.25 E12.54969
G1 X136.457 Y216.471 E12.58509
G1 X132.457 Y217.259 E12.72069
G1 X131.88 Y217.365 E12.7402
G1 X131.532 Y217.423 E12.75193
G1 X130.426 Y217.589 E12.78913
G1 X126.548 Y218.114 E12.91929
G1 X125.801 Y218.205 E12.94432
G1 X125.458 Y218.242 E12.95579
G1 X124.58 Y218.321 E12.98512
G1 X120.495 Y218.628 E13.12137
G1 X119.712 Y218.677 E13.14746
G1 X119.376 Y218.693 E13.15865
G1 X118.327 Y218.724 E13.19355
G1 X114.375 Y218.784 E13.32501
G1 X113.609 Y218.785 E13.35049
G1 X113.29 Y218.78 E13.3611
G1 X112.222 Y218.748 E13.39664
G1 X108.223 Y218.569 E13.52978
G1 X107.523 Y218.528 E13.5531
G1 X107.208 Y218.505 E13.56361
G1 X106.151 Y218.41 E13.5989
G1 X102.171 Y217.991 E13.73201
G1 X101.445 Y217.904 E13.75633
G1 X101.136 Y217.863 E13.7667
G1 X100.07 Y217.703 E13.80255
G1 X96.04 Y217.033 E13.93843
G1 X95.402 Y216.917 E13.96
G1 X95.117 Y216.861 E13.96966
G1 X94.252 Y216.68 E13.99905
G1 X94.052 Y216.636 E14.00586
G1 X90.051 Y215.72 E14.14238
G1 X89.475 Y215.58 E14.16209
G1 X89.149 Y215.495 E14.1733
G1 X88.125 Y215.212 E14.20863
G1 X84.367 Y214.114 E14.33885
G1 X83.597 Y213.878 E14.36564
G1 X83.273 Y213.773 E14.37696
G1 X82.294 Y213.437 E14.41139
G1 X78.436 Y212.055 E14.54769
G1 X77.86 Y211.84 E14.56814
G1 X77.536 Y211.714 E14.5797
G1 X76.755 Y211.394 E14.60778
G1 X72.93 Y209.76 E14.74612
G1 X72.24 Y209.454 E14.77122
G1 X71.952 Y209.321 E14.78177
G1 X70.966 Y208.846 E14.81818
G1 X67.498 Y207.111 E14.94715
G1 X66.774 Y206.737 E14.97426
G1 X66.475 Y206.577 E14.98553
G1 X65.547 Y206.059 E15.02088
G1 X62.181 Y204.116 E15.15015
G1 X61.443 Y203.676 E15.17873
G1 X61.179 Y203.513 E15.18905
G1 X60.348 Y202.983 E15.22183
G1 X56.99 Y200.766 E15.35566
G1 X56.375 Y200.348 E15.38039
G1 X56.107 Y200.159 E15.3913
G1 X55.279 Y199.557 E15.42535
G1 X51.999 Y197.098 E15.5617
G1 X51.474 Y196.692 E15.58377
G1 X51.228 Y196.496 E15.59423
G1 X50.412 Y195.825 E15.62937
G1 X47.397 Y193.269 E15.76084
G1 X46.817 Y192.764 E15.78641
G1 X46.575 Y192.547 E15.79723
G1 X45.955 Y191.973 E15.82533
G1 X42.964 Y189.115 E15.96292
G1 X42.393 Y188.556 E15.9895
G1 X42.149 Y188.309 E16.00105
G1 X41.571 Y187.704 E16.02888
G1 X38.649 Y184.554 E16.17178
G1 X38.222 Y184.08 E16.193
G1 X38.008 Y183.835 E16.20382
G1 X37.372 Y183.084 E16.23655
G1 X34.838 Y180.003 E16.36923
G1 X34.356 Y179.401 E16.39488
G1 X34.154 Y179.142 E16.40581
G1 X33.621 Y178.433 E16.43531
G1 X31.194 Y175.095 E16.57258
G1 X30.758 Y174.48 E16.59765
G1 X30.566 Y174.198 E16.609
G1 X30.074 Y173.453 E16.63869
G1 X27.807 Y169.904 E16.77876
G1 X27.451 Y169.329 E16.80125
G1 X27.278 Y169.039 E16.81248
G1 X26.749 Y168.122 E16.84769
G1 X24.843 Y164.705 E16.97783
G1 X24.46 Y163.994 E17.00469
G1 X24.318 Y163.721 E17.01492
G1 X23.853 Y162.791 E17.04951
G1 X22.118 Y159.189 E17.18248
G1 X21.819 Y158.546 E17.20607
G1 X21.685 Y158.246 E17.217
G1 X21.252 Y157.232 E17.25367
G1 X19.779 Y153.639 E17.38283
G1 X19.479 Y152.877 E17.41006
G1 X19.368 Y152.582 E17.42055
G1 X19.002 Y151.562 E17.45659
G1 X17.687 Y147.709 E17.592
G1 X17.494 Y147.118 E17.61268
G1 X17.394 Y146.794 E17.62396
G1 X17.105 Y145.802 E17.65832
G1 X16.006 Y141.818 E17.79578
G1 X15.849 Y141.215 E17.8165
G1 X15.77 Y140.891 E17.8276
G1 X15.551 Y139.925 E17.86054
G1 X14.701 Y135.927 E17.99649
G1 X14.572 Y135.277 E18.01853
G1 X14.511 Y134.941 E18.02988
G1 X14.334 Y133.869 E18.06602
G1 X13.728 Y129.844 E18.2014
G1 X13.647 Y129.248 E18.22141
G1 X13.608 Y128.923 E18.2323
G1 X13.496 Y127.855 E18.26801
G1 X13.142 Y123.925 E18.39925
G1 X13.085 Y123.173 E18.42434
G1 X13.066 Y122.857 E18.43487
G1 X13.016 Y121.745 E18.47189
G1 X12.896 Y117.68 E18.60715
G1 X12.886 Y117.089 E18.62681
G1 X12.885 Y116.744 E18.63828
G1 X12.902 Y115.673 E18.67391
G1 X13.025 Y111.59 E18.80977
G1 X13.055 Y110.923 E18.83198
G1 X13.074 Y110.612 E18.84234
G1 X13.146 Y109.641 E18.87473
G1 X13.504 Y105.665 E19.00751
G1 X13.584 Y104.895 E19.03325
G1 X13.622 Y104.572 E19.04407
G1 X13.747 Y103.643 E19.07525
G1 X14.349 Y99.642 E19.20982
G1 X14.48 Y98.844 E19.23672
G1 X14.538 Y98.517 E19.24776
G1 X14.741 Y97.489 E19.28261
G1 X15.558 Y93.646 E19.41329
G1 X15.735 Y92.865 E19.43992
G1 X15.81 Y92.553 E19.4506
G1 X16.021 Y91.736 E19.47866
G1 X17.168 Y87.581 E19.62203
G1 X17.346 Y86.971 E19.64316
G1 X17.443 Y86.657 E19.65409
G1 X17.753 Y85.705 E19.68739
G1 X19.092 Y81.788 E19.82507
G1 X19.304 Y81.196 E19.84599
G1 X19.419 Y80.889 E19.85689
G1 X19.737 Y80.078 E19.88587
G1 X21.338 Y76.169 E20.02636
G1 X21.587 Y75.583 E20.04754
G1 X21.733 Y75.255 E20.05948
G1 X22.187 Y74.279 E20.09528
G1 X23.957 Y70.605 E20.23092
G1 X24.242 Y70.035 E20.25212
G1 X24.389 Y69.752 E20.26272
G1 X24.875 Y68.849 E20.29683
G1 X26.862 Y65.287 E20.43249
G1 X27.193 Y64.713 E20.45453
G1 X27.363 Y64.427 E20.46559
G1 X27.838 Y63.658 E20.49566
G1 X30.117 Y60.09 E20.63647
G1 X30.441 Y59.597 E20.65609
G1 X30.634 Y59.313 E20.66751
G1 X31.268 Y58.413 E20.70413
G1 X33.565 Y55.253 E20.83406
G1 X34.041 Y54.615 E20.86054
G1 X34.245 Y54.35 E20.87166
G1 X34.757 Y53.706 E20.89903
G1 X37.404 Y50.487 E21.03764
G1 X37.914 Y49.881 E21.06398
G1 X38.146 Y49.615 E21.07572
G1 X38.78 Y48.914 E21.10716
G1 X41.589 Y45.886 E21.24453
G1 X42.064 Y45.389 E21.2674
G1 X42.285 Y45.164 E21.27789
G1 X42.999 Y44.46 E21.31124
G0 F6000 X43.276 Y44.749
G1 F1200 X46.146 Y42.005 E21.44331
G1 X46.708 Y41.482 E21.46884
G1 X46.95 Y41.264 E21.47967
G1 X47.741 Y40.574 E21.51458
G1 X50.851 Y37.939 E21.65016
G1 X51.341 Y37.535 E21.67128
G1 X51.588 Y37.338 E21.68179
G1 X52.404 Y36.706 E21.71612
G1 X55.576 Y34.329 E21.84795
G1 X56.191 Y33.881 E21.87326
G1 X56.454 Y33.696 E21.88396
G1 X57.306 Y33.116 E21.91824
G1 X60.76 Y30.836 E22.05589
G1 X61.228 Y30.536 E22.07438
G1 X61.51 Y30.361 E22.08542
G1 X62.303 Y29.887 E22.11615
G1 X65.981 Y27.764 E22.25739
G1 X66.489 Y27.48 E22.27675
G1 X66.767 Y27.33 E22.28726
G1 X67.745 Y26.822 E22.32391
G1 X71.392 Y24.999 E22.45952
G1 X71.944 Y24.733 E22.4799
G1 X72.234 Y24.599 E22.49053
G1 X73.173 Y24.182 E22.5247
G1 X76.987 Y22.552 E22.66265
G1 X77.491 Y22.345 E22.68077
G1 X77.789 Y22.228 E22.69142
G1 X78.837 Y21.835 E22.72865
G1 X82.617 Y20.482 E22.86218
G1 X83.255 Y20.263 E22.88462
G1 X83.573 Y20.159 E22.89575
G1 X84.384 Y19.909 E22.92397
G1 X88.47 Y18.715 E23.06556
G1 X89.085 Y18.545 E23.08678
G1 X89.391 Y18.465 E23.0973
G1 X90.217 Y18.263 E23.12558
G1 X94.24 Y17.344 E23.26283
G1 X94.997 Y17.181 E23.28859
G1 X95.306 Y17.12 E23.29906
G1 X96.326 Y16.935 E23.33354
G1 X100.349 Y16.269 E23.46917
G1 X100.984 Y16.172 E23.49054
G1 X101.314 Y16.126 E23.50162
G1 X102.327 Y16.005 E23.53555
G1 X106.303 Y15.586 E23.66852
G1 X107.024 Y15.52 E23.6926
G1 X107.346 Y15.495 E23.70335
G1 X108.191 Y15.444 E23.7315
G1 X112.485 Y15.252 E23.87446
G1 X113.109 Y15.233 E23.89523
G1 X113.42 Y15.228 E23.90557
G1 X114.454 Y15.228 E23.93996
G1 X118.568 Y15.291 E24.07681
G1 X119.188 Y15.309 E24.09744
G1 X119.503 Y15.323 E24.10793
G1 X120.352 Y15.373 E24.13622
G1 X124.634 Y15.694 E24.27904
G1 X125.212 Y15.745 E24.29834
G1 X125.541 Y15.779 E24.30934
G1 X126.459 Y15.889 E24.34009
G1 X130.644 Y16.455 E24.48055
G1 X131.271 Y16.549 E24.50164
G1 X131.58 Y16.6 E24.51205
G1 X132.605 Y16.786 E24.5467
G1 X136.603 Y17.576 E24.68225
G1 X137.265 Y17.716 E24.70475
G1 X137.554 Y17.782 E24.71461
G1 X138.505 Y18.012 E24.74715
G1 X142.395 Y19.024 E24.88084
G1 X143.119 Y19.223 E24.90581
G1 X143.413 Y19.308 E24.91599
G1 X144.411 Y19.616 E24.95073
G1 X148.307 Y20.884 E25.087
G1 X148.906 Y21.088 E25.10805
G1 X149.211 Y21.197 E25.11882
G1 X150.184 Y21.563 E25.1534
G1 X153.99 Y23.057 E25.28939
G1 X154.588 Y23.302 E25.31088
G1 X154.881 Y23.428 E25.32149
G1 X155.799 Y23.838 E25.35493
G1 X159.494 Y25.549 E25.49036
G1 X160.09 Y25.835 E25.51235
G1 X160.388 Y25.984 E25.52343
G1 X161.311 Y26.465 E25.55805
G1 X164.892 Y28.393 E25.69332
G1 X165.434 Y28.694 E25.71394
G1 X165.723 Y28.86 E25.72503
G1 X166.641 Y29.41 E25.76062
G1 X170.071 Y31.53 E25.89473
G1 X170.645 Y31.896 E25.91738
G1 X170.907 Y32.069 E25.92782
G1 X171.745 Y32.64 E25.96155
