;FLAVOR:Marlin
;TIME:16602
;Filament used: 7.44072m
;Layer height: 0.2
;MINX:15.521
;MINY:16.006
;MINZ:0.2
;MAXX:219.474
;MAXY:218.982
;MAXZ:5
;Generated with Cura_SteamEngine 4.8.0
M140 S75
M105
M190 S75
M104 S235
M105
M109 S235
M82 ;absolute extrusion mode
; Ender 3 Custom Start G-code
G92 E0 ; Reset Extruder
G28 ; Home all axes
G1 Z2.0 F3000 ; Move Z Axis up little to prevent scratching of Heat Bed
G1 X0.1 Y20 Z0.3 F5000.0 ; Move to start position
G1 X0.1 Y200.0 Z0.3 F1500.0 E15 ; Draw the first line
G1 X0.4 Y200.0 Z0.3 F5000.0 ; Move to side a little
G1 X0.4 Y20 Z0.3 F1500.0 E30 ; Draw the second line
G92 E0 ; Reset Extruder
G1 Z2.0 F3000 ; Move Z Axis up little to prevent scratching of Heat Bed
G1 X5 Y20 Z0.3 F5000.0 ; Move over to prevent blob squish
G92 E0
G92 E0
G1 F2700 E-5
;LAYER_COUNT:25
;LAYER:0
M107
G0 F6000 X45.251 Y45.03 Z0.2
;TYPE:SKIRT
G1 F2700 E0
G1 F1200 X45.84 Y44.433 E0.02789
G1 X46.065 Y44.212 E0.03838
G1 X46.816 Y43.497 E0.07287
G1 X49.685 Y40.839 E0.20295
G1 X50.292 Y40.293 E0.23011
G1 X50.519 Y40.094 E0.24015
G1 X51.28 Y39.45 E0.27331
G1 X54.461 Y36.838 E0.4102
G1 X54.965 Y36.436 E0.43165
G1 X55.23 Y36.231 E0.44279
G1 X56.015 Y35.645 E0.47537
G1 X59.296 Y33.265 E0.61019
G1 X59.864 Y32.864 E0.63331
G1 X60.143 Y32.673 E0.64456
G1 X60.988 Y32.116 E0.67822
G1 X64.413 Y29.929 E0.81338
G1 X64.971 Y29.583 E0.83521
G1 X65.267 Y29.406 E0.84669
G1 X66.119 Y28.915 E0.87939
G1 X69.711 Y26.913 E1.01617
G1 X70.245 Y26.624 E1.03636
G1 X70.562 Y26.459 E1.04825
G1 X71.469 Y26.007 E1.08195
G1 X75.141 Y24.237 E1.21753
G1 X75.722 Y23.967 E1.23884
G1 X76.019 Y23.834 E1.24966
G1 X76.983 Y23.421 E1.28454
G1 X80.597 Y21.936 E1.4145
G1 X81.426 Y21.609 E1.44414
G1 X82.302 Y21.306 E1.47497
G1 X83.252 Y21.023 E1.50794
G1 X84.144 Y20.769 E1.53879
G1 X86.539 Y20.016 E1.62229
G1 X88.947 Y19.181 E1.70706
G1 X89.814 Y18.873 E1.73766
G1 X90.35 Y18.699 E1.7564
G1 X90.812 Y18.566 E1.77239
G1 X91.365 Y18.421 E1.79141
G1 X93.333 Y17.925 E1.85891
G1 X93.543 Y17.874 E1.8661
G1 X95.459 Y17.431 E1.93151
G1 X95.666 Y17.385 E1.93856
G1 X97.287 Y17.043 E1.99366
G1 X97.505 Y16.999 E2.00106
G1 X99.389 Y16.641 E2.06484
G1 X99.597 Y16.604 E2.07187
G1 X101.501 Y16.28 E2.1361
G1 X102.354 Y16.147 E2.16482
G1 X103.351 Y16.038 E2.19818
G1 X103.945 Y16.015 E2.21795
G1 X104.713 Y16.006 E2.24349
G1 X130.16 Y16.006 E3.08986
G1 X131.016 Y16.017 E3.11834
G1 X131.958 Y16.071 E3.14972
G1 X132.167 Y16.092 E3.15671
G1 X132.638 Y16.15 E3.17249
G1 X133.084 Y16.217 E3.18749
G1 X133.442 Y16.278 E3.19957
G1 X137.6 Y17.027 E3.34009
G1 X138.23 Y17.149 E3.36143
G1 X138.556 Y17.217 E3.37251
G1 X139.532 Y17.438 E3.40579
G1 X143.42 Y18.376 E3.53882
G1 X144.083 Y18.546 E3.56158
G1 X144.378 Y18.626 E3.57175
G1 X145.306 Y18.893 E3.60387
G1 X149.185 Y20.072 E3.73871
G1 X149.785 Y20.264 E3.75966
G1 X150.081 Y20.364 E3.77006
G1 X151.023 Y20.697 E3.80329
G1 X154.81 Y22.096 E3.93756
G1 X155.409 Y22.327 E3.95892
G1 X155.718 Y22.451 E3.96999
G1 X156.605 Y22.826 E4.00202
G1 X160.261 Y24.426 E4.13475
G1 X160.914 Y24.723 E4.15861
G1 X161.193 Y24.855 E4.16888
G1 X162.038 Y25.27 E4.20019
G1 X165.715 Y27.143 E4.33744
G1 X166.214 Y27.406 E4.3562
G1 X166.501 Y27.563 E4.36708
G1 X167.334 Y28.035 E4.39893
G1 X170.808 Y30.069 E4.53282
G1 X171.416 Y30.437 E4.55646
G1 X171.68 Y30.603 E4.56683
G1 X172.479 Y31.119 E4.59846
G1 X175.701 Y33.269 E4.7273
G1 X176.413 Y33.759 E4.75604
G1 X176.65 Y33.927 E4.76571
G1 X177.398 Y34.474 E4.79653
G1 X180.659 Y36.938 E4.93247
G1 X181.124 Y37.299 E4.95205
G1 X181.392 Y37.514 E4.96348
G1 X182.189 Y38.175 E4.99791
G1 X185.253 Y40.786 E5.13181
G1 X185.743 Y41.217 E5.15351
G1 X185.958 Y41.412 E5.16317
G1 X186.642 Y42.048 E5.19423
G1 X189.582 Y44.868 E5.32973
G1 X190.027 Y45.306 E5.35049
G1 X190.261 Y45.544 E5.36159
G1 X190.967 Y46.284 E5.39561
G1 X193.67 Y49.201 E5.52788
G1 X194.124 Y49.704 E5.55042
G1 X194.342 Y49.953 E5.56143
G1 X194.971 Y50.695 E5.59378
G1 X197.436 Y53.686 E5.72269
G1 X197.937 Y54.31 E5.74931
G1 X198.144 Y54.576 E5.76052
G1 X198.705 Y55.323 E5.79159
G1 X201.002 Y58.468 E5.92112
G1 X201.481 Y59.144 E5.94868
G1 X201.65 Y59.389 E5.95858
G1 X202.1 Y60.064 E5.98556
G1 X204.371 Y63.594 E6.12516
G1 X204.724 Y64.159 E6.14732
G1 X204.895 Y64.442 E6.15832
G1 X205.285 Y65.11 E6.18405
G1 X207.293 Y68.67 E6.31999
G1 X207.655 Y69.331 E6.34506
G1 X207.811 Y69.627 E6.35618
G1 X208.27 Y70.535 E6.39002
G1 X210.042 Y74.162 E6.52429
G1 X210.298 Y74.702 E6.54416
G1 X210.444 Y75.024 E6.55592
G1 X210.812 Y75.873 E6.5867
G1 X212.387 Y79.641 E6.72253
G1 X212.632 Y80.252 E6.74443
G1 X212.748 Y80.554 E6.75519
G1 X213.073 Y81.443 E6.78667
G1 X214.358 Y85.106 E6.91578
G1 X214.62 Y85.887 E6.94318
G1 X214.717 Y86.191 E6.95379
G1 X215.001 Y87.135 E6.98658
G1 X216.103 Y90.988 E7.11987
G1 X216.273 Y91.617 E7.14154
G1 X216.352 Y91.927 E7.15218
G1 X216.591 Y92.93 E7.18647
G1 X217.424 Y96.654 E7.31339
G1 X217.596 Y97.475 E7.34129
G1 X217.66 Y97.805 E7.35247
G1 X217.823 Y98.729 E7.38368
G1 X218.464 Y102.668 E7.51642
G1 X218.57 Y103.379 E7.54033
G1 X218.614 Y103.711 E7.55146
G1 X218.722 Y104.637 E7.58247
G1 X219.129 Y108.6 E7.71498
G1 X219.194 Y109.325 E7.73919
G1 X219.219 Y109.662 E7.75043
G1 X219.273 Y110.604 E7.78181
G1 X219.45 Y114.638 E7.91611
G1 X219.469 Y115.298 E7.93807
G1 X219.474 Y115.602 E7.94818
G1 X219.474 Y116.596 E7.98124
G1 X219.418 Y120.438 E8.10904
G1 X219.395 Y121.257 E8.13629
G1 X219.381 Y121.589 E8.14734
G1 X219.321 Y122.594 E8.18083
G1 X219.041 Y126.413 E8.30819
G1 X218.966 Y127.267 E8.33671
G1 X218.934 Y127.584 E8.3473
G1 X218.828 Y128.477 E8.37721
G1 X218.288 Y132.544 E8.51367
G1 X218.2 Y133.147 E8.53394
G1 X218.145 Y133.483 E8.54526
G1 X217.979 Y134.414 E8.57671
G1 X217.211 Y138.389 E8.71137
G1 X217.083 Y139.012 E8.73252
G1 X217.006 Y139.359 E8.74434
G1 X216.781 Y140.294 E8.77633
G1 X215.817 Y144.079 E8.90624
G1 X215.617 Y144.822 E8.93183
G1 X215.533 Y145.117 E8.94203
G1 X215.246 Y146.069 E8.9751
G1 X214.011 Y149.95 E9.11056
G1 X213.817 Y150.532 E9.13097
G1 X213.708 Y150.841 E9.14187
G1 X213.372 Y151.753 E9.17419
G1 X211.939 Y155.485 E9.30716
G1 X211.688 Y156.115 E9.32971
G1 X211.558 Y156.427 E9.34095
G1 X211.16 Y157.34 E9.37408
G1 X209.486 Y161.03 E9.50885
G1 X209.233 Y161.568 E9.52862
G1 X209.094 Y161.853 E9.53917
G1 X208.635 Y162.757 E9.57289
G1 X206.798 Y166.252 E9.70421
G1 X206.448 Y166.898 E9.72865
G1 X206.277 Y167.201 E9.74022
G1 X205.816 Y167.99 E9.77061
G1 X203.716 Y171.471 E9.90583
G1 X203.393 Y171.991 E9.92619
G1 X203.216 Y172.267 E9.9371
G1 X202.659 Y173.104 E9.97054
G1 X200.374 Y176.434 E10.10486
G1 X199.99 Y176.976 E10.12695
G1 X199.805 Y177.228 E10.13735
G1 X199.242 Y177.976 E10.16849
G1 X196.877 Y181.025 E10.29683
G1 X196.34 Y181.699 E10.32549
G1 X196.131 Y181.953 E10.33643
G1 X195.526 Y182.666 E10.36753
G1 X192.839 Y185.737 E10.50325
G1 X192.381 Y186.245 E10.526
G1 X191.724 Y186.914 E10.55719
G1 X190.806 Y187.683 E10.59702
G1 X190.143 Y188.178 E10.62454
G1 X162.655 Y208.149 E11.75462
G1 X162.059 Y208.569 E11.77887
G1 X161.27 Y209.076 E11.81006
G1 X160.187 Y209.63 E11.85052
G1 X159.427 Y209.967 E11.87817
G1 X155.686 Y211.565 E12.01347
G1 X155.001 Y211.847 E12.03811
G1 X154.704 Y211.964 E12.04873
G1 X153.737 Y212.327 E12.08308
G1 X149.864 Y213.715 E12.21992
G1 X149.274 Y213.917 E12.24066
G1 X148.966 Y214.018 E12.25144
G1 X148.175 Y214.263 E12.27899
G1 X144.224 Y215.421 E12.41592
G1 X143.436 Y215.64 E12.44313
G1 X143.139 Y215.718 E12.45334
G1 X142.326 Y215.918 E12.48119
G1 X138.311 Y216.839 E12.61819
G1 X137.57 Y217 E12.64342
G1 X137.221 Y217.07 E12.65525
G1 X136.214 Y217.253 E12.6893
G1 X132.336 Y217.901 E12.82007
G1 X131.544 Y218.022 E12.84671
G1 X131.232 Y218.065 E12.85719
G1 X130.382 Y218.169 E12.88567
G1 X126.283 Y218.607 E13.02278
G1 X125.532 Y218.677 E13.04787
G1 X125.217 Y218.701 E13.05838
G1 X124.166 Y218.766 E13.0934
G1 X120.076 Y218.956 E13.22958
G1 X119.487 Y218.975 E13.24918
G1 X119.156 Y218.981 E13.26019
G1 X118.056 Y218.982 E13.29678
G1 X114.046 Y218.929 E13.43016
G1 X113.362 Y218.91 E13.45292
G1 X113.044 Y218.896 E13.46351
G1 X112.043 Y218.838 E13.49686
G1 X107.94 Y218.54 E13.63368
G1 X107.343 Y218.488 E13.65361
G1 X107.025 Y218.455 E13.66425
G1 X105.965 Y218.33 E13.69975
G1 X101.921 Y217.792 E13.83544
G1 X101.303 Y217.701 E13.85621
G1 X100.981 Y217.648 E13.86707
G1 X100.005 Y217.474 E13.90004
G1 X96 Y216.696 E14.03574
G1 X95.354 Y216.562 E14.05768
G1 X95.027 Y216.489 E14.06882
G1 X94.2 Y216.291 E14.09711
G1 X90.06 Y215.228 E14.23927
G1 X89.487 Y215.073 E14.25901
G1 X89.157 Y214.979 E14.27043
G1 X88.319 Y214.724 E14.29956
G1 X84.415 Y213.471 E14.43593
G1 X83.697 Y213.231 E14.46111
G1 X83.379 Y213.119 E14.47233
G1 X82.392 Y212.752 E14.50735
G1 X78.569 Y211.267 E14.64376
G1 X78.032 Y211.05 E14.66302
G1 X77.724 Y210.92 E14.67414
G1 X76.773 Y210.5 E14.70872
G1 X73.028 Y208.783 E14.84575
G1 X72.509 Y208.537 E14.86485
G1 X72.203 Y208.386 E14.8762
G1 X71.287 Y207.915 E14.91046
G1 X67.683 Y205.994 E15.04629
G1 X67.122 Y205.686 E15.06758
G1 X66.813 Y205.51 E15.0794
G1 X65.967 Y205.008 E15.11212
G1 X62.503 Y202.89 E15.24717
G1 X61.94 Y202.535 E15.2693
G1 X61.655 Y202.349 E15.28062
G1 X60.77 Y201.751 E15.31615
G1 X57.642 Y199.574 E15.4429
G1 X56.918 Y199.054 E15.47255
G1 X56.663 Y198.865 E15.48311
G1 X55.848 Y198.241 E15.51725
G1 X52.681 Y195.741 E15.65145
G1 X52.161 Y195.319 E15.67372
G1 X51.906 Y195.105 E15.68479
G1 X51.135 Y194.438 E15.7187
G1 X48.07 Y191.708 E15.85522
G1 X47.656 Y191.331 E15.87384
G1 X47.381 Y191.072 E15.8864
G1 X46.657 Y190.365 E15.92006
G1 X43.734 Y187.431 E16.05781
G1 X43.339 Y187.024 E16.07667
G1 X43.102 Y186.772 E16.08818
G1 X42.517 Y186.13 E16.11707
G1 X39.772 Y183.029 E16.25481
G1 X39.297 Y182.477 E16.27903
G1 X39.11 Y182.253 E16.28874
G1 X38.431 Y181.414 E16.32464
G1 X35.917 Y178.204 E16.46025
G1 X35.525 Y177.688 E16.4818
G1 X35.336 Y177.431 E16.49241
G1 X34.739 Y176.595 E16.52658
G1 X32.427 Y173.252 E16.66177
G1 X32.073 Y172.726 E16.68286
G1 X31.887 Y172.44 E16.6942
G1 X31.347 Y171.579 E16.72801
G1 X29.301 Y168.209 E16.85913
G1 X28.904 Y167.533 E16.88521
G1 X28.757 Y167.275 E16.89508
G1 X28.236 Y166.325 E16.93112
G1 X26.343 Y162.739 E17.06599
G1 X26.045 Y162.154 E17.08783
G1 X25.903 Y161.864 E17.09857
G1 X25.544 Y161.105 E17.12649
G1 X23.787 Y157.244 E17.26758
G1 X23.52 Y156.633 E17.28976
G1 X23.396 Y156.337 E17.30043
G1 X23.029 Y155.421 E17.33325
G1 X21.536 Y151.535 E17.47171
G1 X21.343 Y151.009 E17.49035
G1 X21.239 Y150.713 E17.50078
G1 X20.942 Y149.826 E17.53189
G1 X19.72 Y145.982 E17.66605
G1 X19.492 Y145.232 E17.69212
G1 X19.401 Y144.915 E17.70309
G1 X19.112 Y143.839 E17.74015
G1 X18.14 Y139.994 E17.87206
G1 X17.974 Y139.297 E17.89589
G1 X17.903 Y138.978 E17.90676
G1 X17.738 Y138.181 E17.93383
G1 X16.935 Y133.969 E18.07644
G1 X16.836 Y133.409 E18.09536
G1 X16.783 Y133.079 E18.10647
G1 X16.622 Y131.967 E18.14384
G1 X16.105 Y127.968 E18.27796
G1 X16.031 Y127.325 E18.29949
G1 X15.998 Y126.991 E18.31065
G1 X15.919 Y126.037 E18.34249
G1 X15.634 Y121.94 E18.47908
G1 X15.599 Y121.314 E18.49994
G1 X15.585 Y120.975 E18.51122
G1 X15.562 Y120.054 E18.54186
G1 X15.521 Y115.849 E18.68173
G1 X15.524 Y115.201 E18.70328
G1 X15.53 Y114.886 E18.71376
G1 X15.557 Y114.074 E18.74078
G1 X15.763 Y109.919 E18.87915
G1 X15.811 Y109.153 E18.90468
G1 X15.835 Y108.846 E18.91492
G1 X15.915 Y107.984 E18.94371
G1 X16.371 Y103.825 E19.08287
G1 X16.459 Y103.112 E19.10676
G1 X16.503 Y102.797 E19.11734
G1 X16.66 Y101.784 E19.15144
G1 X17.323 Y97.892 E19.28275
G1 X17.463 Y97.132 E19.30845
G1 X17.525 Y96.819 E19.31907
G1 X17.705 Y95.983 E19.34751
G1 X18.642 Y91.943 E19.48545
G1 X18.824 Y91.207 E19.51066
G1 X18.904 Y90.906 E19.52102
G1 X19.185 Y89.907 E19.55554
G1 X20.339 Y86.012 E19.69065
G1 X20.534 Y85.384 E19.71252
G1 X20.643 Y85.052 E19.72415
G1 X20.967 Y84.117 E19.75706
G1 X22.308 Y80.413 E19.88808
G1 X22.592 Y79.661 E19.91482
G1 X22.712 Y79.358 E19.92566
G1 X23.099 Y78.424 E19.95928
G1 X24.659 Y74.802 E20.09045
G1 X24.97 Y74.106 E20.1158
G1 X25.107 Y73.812 E20.12659
G1 X25.577 Y72.843 E20.16241
G1 X27.324 Y69.375 E20.29157
G1 X27.705 Y68.644 E20.31898
G1 X27.855 Y68.365 E20.32952
G1 X28.35 Y67.483 E20.36316
G1 X30.401 Y63.954 E20.49892
G1 X30.735 Y63.397 E20.52052
G1 X30.903 Y63.126 E20.53112
G1 X31.453 Y62.269 E20.56499
G1 X33.697 Y58.887 E20.69999
G1 X34.073 Y58.337 E20.72215
G1 X34.263 Y58.068 E20.7331
G1 X34.887 Y57.213 E20.76831
G1 X37.234 Y54.094 E20.89813
G1 X37.713 Y53.475 E20.92417
G1 X37.918 Y53.218 E20.9351
G1 X38.561 Y52.439 E20.9687
G1 X41.228 Y49.305 E21.10557
G1 X41.648 Y48.826 E21.12676
G1 X41.844 Y48.608 E21.13651
G1 X42.412 Y47.994 E21.16433
G1 X42.546 Y47.852 E21.17082
G1 X45.251 Y45.03 E21.30084
G0 F6000 X45.657 Y45.187
G1 F1200 X46.124 Y44.715 E21.32292
G1 X46.341 Y44.501 E21.33306
G1 X47.088 Y43.79 E21.36736
G1 X50.081 Y41.019 E21.50302
G1 X50.559 Y40.59 E21.52438
G1 X50.778 Y40.399 E21.53405
G1 X51.534 Y39.759 E21.56699
G1 X54.71 Y37.151 E21.70368
G1 X55.214 Y36.749 E21.72512
G1 X55.47 Y36.551 E21.73588
G1 X56.25 Y35.969 E21.76825
G1 X59.527 Y33.592 E21.9029
G1 X60.095 Y33.191 E21.92602
G1 X60.363 Y33.007 E21.93684
G1 X61.204 Y32.453 E21.97033
G1 X64.624 Y30.269 E22.1053
G1 X65.182 Y29.923 E22.12713
G1 X65.467 Y29.753 E22.13817
G1 X66.314 Y29.265 E22.17068
G1 X69.902 Y27.265 E22.30731
G1 X70.436 Y26.976 E22.3275
G1 X70.741 Y26.817 E22.33894
G1 X71.643 Y26.367 E22.37247
G1 X75.31 Y24.599 E22.50787
G1 X75.891 Y24.329 E22.52918
G1 X76.177 Y24.202 E22.53959
G1 X77.135 Y23.791 E22.57426
G1 X80.749 Y22.306 E22.70421
G1 X81.573 Y21.981 E22.73368
G1 X82.416 Y21.69 E22.76334
G1 X83.361 Y21.408 E22.79614
G1 X84.235 Y21.159 E22.82636
G1 X86.685 Y20.389 E22.91178
G1 X89.081 Y19.559 E22.99612
G1 X89.252 Y19.496 E23.00218
G1 X89.948 Y19.25 E23.02673
G1 X90.464 Y19.082 E23.04478
G1 X90.619 Y19.036 E23.05016
G1 X90.914 Y18.953 E23.06035
G1 X91.462 Y18.808 E23.07921
G1 X93.43 Y18.312 E23.14671
G1 X93.633 Y18.263 E23.15365
G1 X95.549 Y17.82 E23.21906
G1 X95.749 Y17.776 E23.22587
G1 X97.37 Y17.434 E23.28097
G1 X97.579 Y17.392 E23.28806
G1 X99.463 Y17.034 E23.35185
G1 X99.664 Y16.998 E23.35864
G1 X101.724 Y16.649 E23.42813
G1 X102.415 Y16.542 E23.45139
G1 X103.376 Y16.438 E23.48354
G1 X103.95 Y16.415 E23.50264
G1 X104.713 Y16.406 E23.52802
G1 X130.16 Y16.406 E24.37439
G1 X131.01 Y16.417 E24.40267
G1 X131.918 Y16.469 E24.43292
G1 X132.127 Y16.49 E24.4399
G1 X132.581 Y16.546 E24.45512
G1 X133.018 Y16.611 E24.46981
G1 X133.372 Y16.671 E24.48176
G1 X137.524 Y17.419 E24.62207
G1 X138.154 Y17.541 E24.64342
G1 X138.468 Y17.607 E24.65409
G1 X139.438 Y17.827 E24.68717
G1 X143.321 Y18.763 E24.82002
G1 X143.984 Y18.933 E24.84278
G1 X144.268 Y19.01 E24.85257
G1 X145.026 Y19.227 E24.8788
G1 X149.063 Y20.453 E25.01912
G1 X149.663 Y20.645 E25.04007
G1 X149.949 Y20.741 E25.05011
G1 X150.731 Y21.016 E25.07768
G1 X154.523 Y22.415 E25.21211
G1 X155.265 Y22.7 E25.23855
G1 X155.563 Y22.82 E25.24923
G1 X156.444 Y23.192 E25.28104
G1 X160.096 Y24.79 E25.41363
G1 X160.749 Y25.087 E25.43749
G1 X161.017 Y25.214 E25.44735
G1 X161.857 Y25.626 E25.47847
G1 X165.396 Y27.428 E25.61056
G1 X166.027 Y27.76 E25.63427
G1 X166.304 Y27.911 E25.64476
G1 X167.132 Y28.38 E25.67641
G1 X170.466 Y30.331 E25.80489
G1 X171.209 Y30.78 E25.83377
G1 X171.464 Y30.939 E25.84376
G1 X172.257 Y31.452 E25.87518
G1 X175.615 Y33.694 E26.00947
G1 X176.186 Y34.088 E26.03254
G1 X176.414 Y34.25 E26.04185
G1 X177.157 Y34.794 E26.07247
G1 X180.413 Y37.254 E26.2082
G1 X180.878 Y37.615 E26.22778
G1 X181.137 Y37.822 E26.23881
G1 X181.93 Y38.48 E26.27308
G1 X184.861 Y40.976 E26.40113
G1 X185.479 Y41.518 E26.42847
G1 X185.686 Y41.705 E26.43775
G1 X186.365 Y42.337 E26.4686
G1 X189.302 Y45.153 E26.60393
G1 X189.747 Y45.591 E26.6247
G1 X189.972 Y45.82 E26.63537
G1 X190.674 Y46.556 E26.6692
G1 X193.373 Y49.469 E26.80129
G1 X193.827 Y49.972 E26.82382
G1 X194.037 Y50.212 E26.83443
G1 X194.662 Y50.95 E26.86659
G1 X197.216 Y54.05 E27.00019
G1 X197.625 Y54.56 E27.02193
G1 X197.824 Y54.817 E27.03274
G1 X198.382 Y55.559 E27.06362
G1 X200.776 Y58.839 E27.19868
G1 X201.154 Y59.374 E27.22047
G1 X201.317 Y59.611 E27.23003
G1 X201.767 Y60.286 E27.25702
G1 X204.032 Y63.806 E27.39624
