;FLAVOR:Marlin
;TIME:3303
;Filament used: 2.08276m
;Layer height: 0.2
;MINX:18.27
;MINY:157.142
;MINZ:0.2
;MAXX:60.232
;MAXY:199.109
;MAXZ:20
;Generated with Cura_SteamEngine 4.8.0
M140 S70
M105
M190 S70
M104 S230
M105
M109 S230
M82 ;absolute extrusion mode
; Ender 3 Custom Start G-code
G92 E0 ; Reset Extruder
G28 ; Home all axes
G1 Z2.0 F3000 ; Move Z Axis up little to prevent scratching of Heat Bed
G1 X0.1 Y20 Z0.3 F5000.0 ; Move to start position
G1 X0.1 Y200.0 Z0.3 F1500.0 E15 ; Draw the first line
G1 X0.4 Y200.0 Z0.3 F5000.0 ; Move to side a little
G1 X0.4 Y20 Z0.3 F1500.0 E30 ; Draw the second line
G92 E0 ; Reset Extruder
G1 Z2.0 F3000 ; Move Z Axis up little to prevent scratching of Heat Bed
G1 X5 Y20 Z0.3 F5000.0 ; Move over to prevent blob squish
G92 E0
G92 E0
G1 F2700 E-5
;LAYER_COUNT:100
;LAYER:0
M107
G0 F6000 X35.042 Y157.568 Z0.2
;TYPE:SKIRT
G1 F2700 E0
G1 F1200 X35.767 Y157.434 E0.02452
G1 X36.481 Y157.326 E0.04854
G1 X37.2 Y157.241 E0.07262
G1 X37.78 Y157.192 E0.09198
G1 X38.495 Y157.155 E0.11579
G1 X39.171 Y157.142 E0.13828
G1 X39.906 Y157.152 E0.16273
G1 X40.619 Y157.186 E0.18647
G1 X41.346 Y157.245 E0.21073
G1 X41.949 Y157.314 E0.23092
G1 X42.636 Y157.415 E0.25401
G1 X43.273 Y157.529 E0.27554
G1 X44.035 Y157.694 E0.30147
G1 X44.738 Y157.872 E0.32559
G1 X45.422 Y158.068 E0.34925
G1 X46.019 Y158.261 E0.37012
G1 X46.711 Y158.511 E0.39459
G1 X47.31 Y158.75 E0.41604
G1 X47.967 Y159.037 E0.43989
G1 X48.609 Y159.343 E0.46354
G1 X49.26 Y159.68 E0.48792
G1 X49.75 Y159.955 E0.50661
G1 X50.366 Y160.328 E0.53056
G1 X51.016 Y160.751 E0.55636
G1 X51.581 Y161.145 E0.57927
G1 X52.03 Y161.479 E0.59788
G1 X52.634 Y161.962 E0.6236
G1 X53.181 Y162.432 E0.64759
G1 X53.722 Y162.929 E0.67202
G1 X54.186 Y163.385 E0.69366
G1 X54.674 Y163.897 E0.71719
G1 X55.107 Y164.381 E0.73879
G1 X55.583 Y164.951 E0.76349
G1 X55.969 Y165.446 E0.78436
G1 X56.388 Y166.02 E0.808
G1 X56.825 Y166.662 E0.83383
G1 X57.214 Y167.276 E0.85801
G1 X57.471 Y167.713 E0.87487
G1 X57.825 Y168.364 E0.89952
G1 X58.183 Y169.079 E0.92611
G1 X58.484 Y169.733 E0.95006
G1 X58.693 Y170.229 E0.96796
G1 X58.955 Y170.913 E0.99232
G1 X59.203 Y171.632 E1.01762
G1 X59.42 Y172.337 E1.04215
G1 X59.581 Y172.93 E1.06259
G1 X59.74 Y173.598 E1.08543
G1 X59.867 Y174.216 E1.10641
G1 X59.995 Y174.969 E1.13181
G1 X60.094 Y175.708 E1.15661
G1 X60.166 Y176.421 E1.18045
G1 X60.205 Y176.993 E1.19952
G1 X60.23 Y177.709 E1.22335
G1 X60.232 Y178.403 E1.24643
G1 X60.209 Y179.148 E1.27122
G1 X60.166 Y179.81 E1.29328
G1 X60.095 Y180.533 E1.31745
G1 X60.009 Y181.186 E1.33935
G1 X59.891 Y181.898 E1.36336
G1 X59.756 Y182.576 E1.38635
G1 X59.591 Y183.283 E1.4105
G1 X59.437 Y183.856 E1.43023
G1 X59.23 Y184.537 E1.4539
G1 X59.009 Y185.188 E1.47677
G1 X58.74 Y185.898 E1.50202
G1 X58.468 Y186.548 E1.52546
G1 X58.174 Y187.192 E1.54901
G1 X57.908 Y187.728 E1.56891
G1 X57.557 Y188.381 E1.59357
G1 X57.2 Y188.993 E1.61713
G1 X56.816 Y189.603 E1.6411
G1 X56.459 Y190.132 E1.66233
G1 X56.039 Y190.713 E1.68618
G1 X55.662 Y191.2 E1.70666
G1 X55.195 Y191.763 E1.73099
G1 X54.687 Y192.336 E1.75646
G1 X54.187 Y192.864 E1.78064
G1 X53.77 Y193.276 E1.80014
G1 X53.239 Y193.767 E1.82419
G1 X52.747 Y194.193 E1.84584
G1 X52.16 Y194.667 E1.87093
G1 X51.615 Y195.077 E1.89362
G1 X51.028 Y195.489 E1.91747
G1 X50.434 Y195.878 E1.94109
G1 X49.828 Y196.248 E1.9647
G1 X49.36 Y196.513 E1.98259
G1 X48.692 Y196.862 E2.00766
G1 X47.955 Y197.215 E2.03484
G1 X47.348 Y197.483 E2.05691
G1 X46.881 Y197.673 E2.07368
G1 X46.137 Y197.945 E2.10002
G1 X45.365 Y198.196 E2.12702
G1 X44.671 Y198.397 E2.15105
G1 X44.163 Y198.526 E2.16849
G1 X43.466 Y198.679 E2.19222
G1 X42.702 Y198.821 E2.21807
G1 X41.981 Y198.93 E2.24232
G1 X41.43 Y198.995 E2.26077
G1 X40.715 Y199.056 E2.28464
G1 X39.968 Y199.095 E2.30952
G1 X39.235 Y199.109 E2.3339
G1 X38.681 Y199.101 E2.35233
G1 X37.96 Y199.067 E2.37634
G1 X37.175 Y199.004 E2.40253
G1 X36.433 Y198.919 E2.42737
G1 X35.883 Y198.837 E2.44587
G1 X35.17 Y198.706 E2.46998
G1 X34.415 Y198.542 E2.49568
G1 X33.717 Y198.366 E2.51962
G1 X33.229 Y198.226 E2.5365
G1 X32.547 Y198.007 E2.56033
G1 X31.775 Y197.73 E2.58761
G1 X31.086 Y197.456 E2.61227
G1 X30.603 Y197.245 E2.6298
G1 X29.949 Y196.933 E2.6539
G1 X29.277 Y196.585 E2.67907
G1 X28.649 Y196.233 E2.70302
G1 X28.129 Y195.919 E2.72322
G1 X27.496 Y195.507 E2.74834
G1 X26.926 Y195.107 E2.7715
G1 X26.369 Y194.689 E2.79466
G1 X25.907 Y194.319 E2.81435
G1 X25.353 Y193.845 E2.8386
G1 X24.794 Y193.333 E2.86381
G1 X24.26 Y192.809 E2.8887
G1 X23.856 Y192.385 E2.90817
G1 X23.381 Y191.853 E2.9319
G1 X22.932 Y191.316 E2.95518
G1 X22.48 Y190.737 E2.97961
G1 X22.099 Y190.214 E3.00113
G1 X21.684 Y189.603 E3.0257
G1 X21.343 Y189.062 E3.04697
G1 X20.987 Y188.454 E3.0704
G1 X20.648 Y187.831 E3.09399
G1 X20.314 Y187.164 E3.1188
G1 X20.06 Y186.611 E3.13904
G1 X19.788 Y185.964 E3.16238
G1 X19.546 Y185.334 E3.18483
G1 X19.307 Y184.645 E3.20909
G1 X19.105 Y183.993 E3.23179
G1 X18.91 Y183.282 E3.25631
G1 X18.765 Y182.672 E3.27716
G1 X18.619 Y181.952 E3.3016
G1 X18.504 Y181.268 E3.32467
G1 X18.408 Y180.549 E3.34879
G1 X18.343 Y179.905 E3.37032
G1 X18.294 Y179.188 E3.39423
G1 X18.272 Y178.564 E3.41499
G1 X18.27 Y177.837 E3.43917
G1 X18.293 Y177.09 E3.46403
G1 X18.341 Y176.35 E3.48869
G1 X18.397 Y175.782 E3.50768
G1 X18.487 Y175.091 E3.53085
G1 X18.599 Y174.404 E3.55401
G1 X18.749 Y173.65 E3.57958
G1 X18.906 Y172.984 E3.60233
G1 X19.09 Y172.304 E3.62576
G1 X19.262 Y171.739 E3.64541
G1 X19.498 Y171.046 E3.66976
G1 X19.77 Y170.328 E3.69529
G1 X20.052 Y169.653 E3.71962
G1 X20.275 Y169.165 E3.73747
G1 X20.598 Y168.515 E3.76161
G1 X20.968 Y167.829 E3.78753
G1 X21.326 Y167.214 E3.8112
G1 X21.624 Y166.738 E3.82988
G1 X22.029 Y166.137 E3.85399
G1 X22.457 Y165.544 E3.87831
G1 X22.92 Y164.947 E3.90344
G1 X23.311 Y164.477 E3.92377
G1 X23.788 Y163.94 E3.94766
G1 X24.271 Y163.431 E3.971
G1 X24.796 Y162.913 E3.99553
G1 X25.241 Y162.503 E4.01566
G1 X25.771 Y162.045 E4.03895
G1 X26.35 Y161.576 E4.06374
G1 X26.92 Y161.145 E4.0875
G1 X27.368 Y160.828 E4.10576
G1 X28.004 Y160.41 E4.13107
G1 X28.663 Y160.009 E4.15673
G1 X29.292 Y159.654 E4.18075
G1 X29.817 Y159.38 E4.20045
G1 X30.472 Y159.065 E4.22462
G1 X31.094 Y158.791 E4.24723
G1 X31.781 Y158.516 E4.27184
G1 X32.413 Y158.287 E4.2942
G1 X33.083 Y158.068 E4.31764
G1 X33.687 Y157.892 E4.33857
G1 X34.394 Y157.711 E4.36284
G1 X35.042 Y157.568 E4.38491
G0 F6000 X35.128 Y157.959
G1 F1200 X35.827 Y157.829 E4.40856
G1 X36.541 Y157.721 E4.43258
G1 X37.234 Y157.64 E4.45578
G1 X37.814 Y157.591 E4.47514
G1 X38.502 Y157.555 E4.49806
G1 X39.178 Y157.542 E4.52054
G1 X39.887 Y157.552 E4.54413
G1 X40.6 Y157.586 E4.56787
G1 X41.3 Y157.643 E4.59123
G1 X41.903 Y157.712 E4.61142
G1 X42.565 Y157.809 E4.63367
G1 X43.202 Y157.923 E4.65519
G1 X43.937 Y158.081 E4.6802
G1 X44.64 Y158.259 E4.70432
G1 X45.299 Y158.449 E4.72713
G1 X45.896 Y158.642 E4.748
G1 X46.563 Y158.883 E4.77158
G1 X47.162 Y159.122 E4.79303
G1 X47.795 Y159.398 E4.816
G1 X48.437 Y159.704 E4.83966
G1 X49.064 Y160.029 E4.86315
G1 X49.554 Y160.304 E4.88183
G1 X50.148 Y160.664 E4.90494
G1 X50.798 Y161.087 E4.93073
G1 X51.343 Y161.466 E4.95281
G1 X51.792 Y161.8 E4.97142
G1 X52.373 Y162.265 E4.99617
G1 X52.92 Y162.735 E5.02016
G1 X53.442 Y163.215 E5.04375
G1 X53.906 Y163.671 E5.06538
G1 X54.376 Y164.163 E5.08801
G1 X54.809 Y164.647 E5.10961
G1 X55.268 Y165.197 E5.13344
G1 X55.654 Y165.692 E5.15432
G1 X56.058 Y166.245 E5.1771
G1 X56.495 Y166.887 E5.20293
G1 X56.869 Y167.479 E5.22622
G1 X57.126 Y167.916 E5.24308
G1 X57.467 Y168.543 E5.26682
G1 X57.825 Y169.258 E5.29341
G1 X58.115 Y169.888 E5.31648
G1 X58.324 Y170.384 E5.33438
G1 X58.577 Y171.044 E5.35789
G1 X58.825 Y171.763 E5.38319
G1 X59.034 Y172.442 E5.40682
G1 X59.195 Y173.035 E5.42725
G1 X59.348 Y173.678 E5.44924
G1 X59.475 Y174.296 E5.47022
G1 X59.598 Y175.023 E5.49475
G1 X59.697 Y175.762 E5.51954
G1 X59.766 Y176.448 E5.54248
G1 X59.805 Y177.02 E5.56154
G1 X59.83 Y177.71 E5.58451
G1 X59.832 Y178.404 E5.60759
G1 X59.81 Y179.122 E5.63148
G1 X59.767 Y179.784 E5.65355
G1 X59.698 Y180.481 E5.67684
G1 X59.612 Y181.134 E5.69875
G1 X59.499 Y181.82 E5.72187
G1 X59.364 Y182.498 E5.74487
G1 X59.205 Y183.179 E5.76813
G1 X59.051 Y183.752 E5.78786
G1 X58.851 Y184.408 E5.81067
G1 X58.63 Y185.059 E5.83354
G1 X58.371 Y185.744 E5.85789
G1 X58.099 Y186.394 E5.88133
G1 X57.816 Y187.014 E5.904
G1 X57.55 Y187.55 E5.9239
G1 X57.211 Y188.179 E5.94767
G1 X56.854 Y188.791 E5.97123
G1 X56.484 Y189.38 E5.99437
G1 X56.127 Y189.909 E6.01559
G1 X55.723 Y190.468 E6.03853
G1 X55.346 Y190.955 E6.05902
G1 X54.896 Y191.498 E6.08247
G1 X54.388 Y192.071 E6.10794
G1 X53.906 Y192.579 E6.13123
G1 X53.489 Y192.991 E6.15073
G1 X52.978 Y193.465 E6.17391
G1 X52.486 Y193.891 E6.19556
G1 X51.919 Y194.348 E6.21978
G1 X51.374 Y194.758 E6.24246
G1 X50.809 Y195.155 E6.26543
G1 X50.215 Y195.544 E6.28905
G1 X49.631 Y195.9 E6.31179
G1 X49.163 Y196.165 E6.32968
G1 X48.519 Y196.501 E6.35384
G1 X47.782 Y196.854 E6.38102
G1 X47.198 Y197.112 E6.40226
G1 X46.731 Y197.302 E6.41902
G1 X46.013 Y197.565 E6.44446
G1 X45.241 Y197.816 E6.47146
G1 X44.573 Y198.009 E6.49458
G1 X44.065 Y198.138 E6.51202
G1 X43.393 Y198.286 E6.5349
G1 X42.629 Y198.428 E6.56075
G1 X41.934 Y198.533 E6.58413
G1 X41.383 Y198.598 E6.60258
G1 X40.694 Y198.657 E6.62558
G1 X39.947 Y198.696 E6.65046
G1 X39.241 Y198.709 E6.67395
G1 X38.687 Y198.701 E6.69237
G1 X37.992 Y198.668 E6.71551
G1 X37.207 Y198.605 E6.74171
G1 X36.492 Y198.523 E6.76564
G1 X35.942 Y198.441 E6.78414
G1 X35.255 Y198.315 E6.80737
G1 X34.5 Y198.151 E6.83307
G1 X33.827 Y197.982 E6.85615
G1 X33.339 Y197.842 E6.87303
G1 X32.682 Y197.63 E6.89599
G1 X31.91 Y197.353 E6.92327
G1 X31.247 Y197.09 E6.947
G1 X30.764 Y196.879 E6.96453
G1 X30.133 Y196.578 E6.98778
G1 X29.461 Y196.23 E7.01295
G1 X28.856 Y195.891 E7.03602
G1 X28.336 Y195.577 E7.05622
G1 X27.726 Y195.18 E7.08043
G1 X27.156 Y194.78 E7.10359
G1 X26.619 Y194.377 E7.12592
G1 X26.157 Y194.007 E7.14561
G1 X25.623 Y193.55 E7.16898
G1 X25.064 Y193.038 E7.19419
G1 X24.55 Y192.533 E7.21816
G1 X24.146 Y192.109 E7.23764
G1 X23.688 Y191.596 E7.26051
G1 X23.239 Y191.059 E7.28379
G1 X22.803 Y190.501 E7.30735
G1 X22.422 Y189.978 E7.32887
G1 X22.023 Y189.389 E7.35253
G1 X21.682 Y188.848 E7.3738
G1 X21.338 Y188.262 E7.3964
G1 X20.999 Y187.639 E7.41999
G1 X20.677 Y186.997 E7.44388
G1 X20.423 Y186.444 E7.46412
G1 X20.161 Y185.821 E7.4866
G1 X19.919 Y185.191 E7.50905
G1 X19.689 Y184.527 E7.53242
G1 X19.487 Y183.875 E7.55512
G1 X19.299 Y183.189 E7.57878
G1 X19.154 Y182.579 E7.59963
G1 X19.014 Y181.885 E7.62318
G1 X18.899 Y181.201 E7.64625
G1 X18.806 Y180.508 E7.6695
G1 X18.741 Y179.864 E7.69103
G1 X18.694 Y179.173 E7.71407
G1 X18.672 Y178.549 E7.73484
G1 X18.67 Y177.85 E7.75808
G1 X18.693 Y177.103 E7.78294
G1 X18.739 Y176.389 E7.80674
G1 X18.795 Y175.821 E7.82572
G1 X18.882 Y175.155 E7.84806
G1 X18.994 Y174.468 E7.87121
G1 X19.139 Y173.742 E7.89584
G1 X19.296 Y173.076 E7.91859
G1 X19.472 Y172.421 E7.94115
G1 X19.644 Y171.856 E7.9608
G1 X19.872 Y171.188 E7.98427
G1 X20.144 Y170.47 E8.00981
G1 X20.416 Y169.819 E8.03328
G1 X20.639 Y169.331 E8.05112
G1 X20.951 Y168.705 E8.07438
G1 X21.321 Y168.019 E8.10031
G1 X21.665 Y167.426 E8.12311
G1 X21.963 Y166.95 E8.14179
G1 X22.353 Y166.371 E8.16501
G1 X22.781 Y165.778 E8.18933
G1 X23.227 Y165.203 E8.21353
G1 X23.618 Y164.733 E8.23387
G1 X24.078 Y164.216 E8.25689
G1 X24.561 Y163.707 E8.28022
G1 X25.068 Y163.207 E8.30391
G1 X25.513 Y162.797 E8.32403
G1 X26.023 Y162.356 E8.34646
G1 X26.602 Y161.887 E8.37124
G1 X27.151 Y161.471 E8.39415
G1 X27.599 Y161.154 E8.4124
G1 X28.212 Y160.752 E8.43679
G1 X28.871 Y160.351 E8.46244
G1 X29.477 Y160.009 E8.48559
G1 X30.002 Y159.735 E8.50528
G1 X30.633 Y159.432 E8.52856
G1 X31.255 Y159.158 E8.55117
G1 X31.917 Y158.892 E8.5749
G1 X32.549 Y158.663 E8.59726
G1 X33.195 Y158.452 E8.61986
G1 X33.799 Y158.276 E8.64079
G1 X34.48 Y158.102 E8.66416
G1 X35.128 Y157.959 E8.68623
G0 F6000 X35.214 Y158.35
G1 F1200 X35.886 Y158.225 E8.70897
G1 X36.6 Y158.117 E8.73299
G1 X37.267 Y158.038 E8.75533
G1 X37.847 Y157.989 E8.77469
G1 X38.51 Y157.955 E8.79677
G1 X39.186 Y157.942 E8.81925
G1 X39.868 Y157.952 E8.84194
G1 X40.581 Y157.986 E8.86568
G1 X41.255 Y158.04 E8.88817
G1 X41.858 Y158.109 E8.90836
G1 X42.495 Y158.203 E8.92977
G1 X43.132 Y158.317 E8.9513
G1 X43.839 Y158.469 E8.97535
G1 X44.542 Y158.647 E8.99947
G1 X45.176 Y158.83 E9.02142
G1 X45.773 Y159.023 E9.04228
G1 X46.415 Y159.254 E9.06498
G1 X47.014 Y159.493 E9.08643
G1 X47.623 Y159.759 E9.10853
G1 X48.265 Y160.065 E9.13219
G1 X48.868 Y160.378 E9.15478
G1 X49.358 Y160.653 E9.17347
G1 X49.93 Y160.999 E9.19571
G1 X50.58 Y161.422 E9.2215
G1 X51.104 Y161.787 E9.24274
G1 X51.553 Y162.121 E9.26135
G1 X52.112 Y162.569 E9.28518
G1 X52.659 Y163.039 E9.30917
G1 X53.162 Y163.5 E9.33186
G1 X53.626 Y163.956 E9.3535
G1 X54.078 Y164.43 E9.37528
G1 X54.511 Y164.914 E9.39688
G1 X54.953 Y165.443 E9.41981
G1 X55.339 Y165.938 E9.44069
G1 X55.727 Y166.47 E9.46259
G1 X56.164 Y167.112 E9.48842
G1 X56.524 Y167.681 E9.51081
G1 X56.781 Y168.118 E9.52767
G1 X57.11 Y168.722 E9.55055
G1 X57.468 Y169.437 E9.57714
G1 X57.747 Y170.043 E9.59933
G1 X57.956 Y170.539 E9.61724
G1 X58.199 Y171.174 E9.63985
G1 X58.447 Y171.893 E9.66515
G1 X58.648 Y172.546 E9.68787
G1 X58.809 Y173.139 E9.70831
G1 X58.956 Y173.759 E9.7295
G1 X59.083 Y174.377 E9.75049
G1 X59.202 Y175.076 E9.77407
G1 X59.301 Y175.815 E9.79887
G1 X59.367 Y176.475 E9.82093
G1 X59.406 Y177.047 E9.84
G1 X59.43 Y177.712 E9.86213
G1 X59.432 Y178.406 E9.88521
G1 X59.411 Y179.096 E9.90817
G1 X59.368 Y179.758 E9.93024
G1 X59.302 Y180.429 E9.95266
G1 X59.216 Y181.082 E9.97457
G1 X59.107 Y181.742 E9.99682
G1 X58.972 Y182.42 E10.01981
G1 X58.818 Y183.075 E10.04219
G1 X58.664 Y183.648 E10.06192
G1 X58.473 Y184.28 E10.08388
G1 X58.252 Y184.931 E10.10675
G1 X58.002 Y185.589 E10.13016
G1 X57.73 Y186.239 E10.1536
G1 X57.458 Y186.836 E10.17542
G1 X57.192 Y187.372 E10.19532
G1 X56.866 Y187.977 E10.21818
G1 X56.509 Y188.589 E10.24174
G1 X56.153 Y189.156 E10.26401
G1 X55.796 Y189.685 E10.28524
G1 X55.407 Y190.223 E10.30732
G1 X55.03 Y190.71 E10.3278
G1 X54.596 Y191.233 E10.35041
G1 X54.088 Y191.806 E10.37588
G1 X53.625 Y192.295 E10.39827
G1 X53.208 Y192.707 E10.41777
G1 X52.716 Y193.162 E10.44006
G1 X52.224 Y193.588 E10.46171
G1 X51.679 Y194.028 E10.485
G1 X51.134 Y194.438 E10.50769
G1 X50.59 Y194.82 E10.52979
G1 X49.996 Y195.209 E10.55341
G1 X49.434 Y195.552 E10.57531
G1 X48.966 Y195.817 E10.5932
G1 X48.346 Y196.14 E10.61645
G1 X47.609 Y196.493 E10.64363
G1 X47.047 Y196.742 E10.66407
G1 X46.58 Y196.932 E10.68084
G1 X45.89 Y197.184 E10.70527
G1 X45.118 Y197.435 E10.73227
G1 X44.474 Y197.621 E10.75457
G1 X43.966 Y197.75 E10.772
G1 X43.32 Y197.892 E10.794
G1 X42.556 Y198.034 E10.81985
G1 X41.887 Y198.136 E10.84235
G1 X41.336 Y198.201 E10.86081
G1 X40.673 Y198.257 E10.88294
G1 X39.926 Y198.296 E10.90782
G1 X39.247 Y198.309 E10.9304
G1 X38.693 Y198.301 E10.94883
G1 X38.024 Y198.269 E10.97111
G1 X37.239 Y198.206 E10.9973
G1 X36.551 Y198.127 E11.02034
G1 X36.001 Y198.045 E11.03883
G1 X35.34 Y197.925 E11.06118
G1 X34.585 Y197.761 E11.08687
G1 X33.937 Y197.598 E11.1091
G1 X33.449 Y197.458 E11.12598
G1 X32.817 Y197.254 E11.14807
G1 X32.045 Y196.977 E11.17535
G1 X31.407 Y196.723 E11.19819
G1 X30.924 Y196.512 E11.21572
G1 X30.316 Y196.223 E11.23811
G1 X29.644 Y195.875 E11.26328
G1 X29.062 Y195.549 E11.28547
G1 X28.542 Y195.235 E11.30567
G1 X27.956 Y194.852 E11.32896
G1 X27.386 Y194.452 E11.35212
G1 X26.869 Y194.064 E11.37362
G1 X26.407 Y193.694 E11.3933
G1 X25.894 Y193.255 E11.41576
G1 X25.335 Y192.743 E11.44097
G1 X24.839 Y192.257 E11.46407
G1 X24.435 Y191.833 E11.48355
G1 X23.995 Y191.34 E11.50553
G1 X23.546 Y190.803 E11.52881
G1 X23.127 Y190.266 E11.55146
G1 X22.746 Y189.743 E11.57298
G1 X22.361 Y189.176 E11.59578
G1 X22.02 Y188.635 E11.61705
G1 X21.69 Y188.071 E11.63878
G1 X21.351 Y187.448 E11.66237
G1 X21.041 Y186.83 E11.68537
G1 X20.787 Y186.277 E11.70561
G1 X20.534 Y185.678 E11.72723
G1 X20.292 Y185.048 E11.74968
G1 X20.071 Y184.409 E11.77217
G1 X19.869 Y183.757 E11.79487
G1 X19.689 Y183.097 E11.81763
G1 X19.544 Y182.487 E11.83848
