;FLAVOR:Marlin
;TIME:20451
;Filament used: 11.2018m
;Layer height: 0.2
;MINX:15.692
;MINY:10.495
;MINZ:0.2
;MAXX:229.637
;MAXY:224.451
;MAXZ:7
;Generated with Cura_SteamEngine 4.8.0
M140 S85
M105
M190 S85
M104 S235
M105
M109 S235
M82 ;absolute extrusion mode
; Ender 3 Custom Start G-code
G92 E0 ; Reset Extruder
G28 ; Home all axes
G1 Z2.0 F3000 ; Move Z Axis up little to prevent scratching of Heat Bed
G1 X0.1 Y20 Z0.3 F5000.0 ; Move to start position
G1 X0.1 Y200.0 Z0.3 F1500.0 E15 ; Draw the first line
G1 X0.4 Y200.0 Z0.3 F5000.0 ; Move to side a little
G1 X0.4 Y20 Z0.3 F1500.0 E30 ; Draw the second line
G92 E0 ; Reset Extruder
G1 Z2.0 F3000 ; Move Z Axis up little to prevent scratching of Heat Bed
G1 X5 Y20 Z0.3 F5000.0 ; Move over to prevent blob squish
G92 E0
G92 E0
G1 F2700 E-5
;LAYER_COUNT:35
;LAYER:0
M107
G0 F6000 X45.708 Y43.178 Z0.2
;TYPE:SKIRT
G1 F2700 E0
G1 F1200 X46.291 Y42.566 E0.02811
G1 X46.521 Y42.332 E0.03903
G1 X47.154 Y41.707 E0.06861
G1 X50.343 Y38.656 E0.2154
G1 X50.883 Y38.152 E0.23997
G1 X51.138 Y37.921 E0.25142
G1 X51.827 Y37.319 E0.28185
G1 X55.155 Y34.497 E0.42697
G1 X55.78 Y33.981 E0.45393
G1 X56.035 Y33.777 E0.46479
G1 X56.732 Y33.237 E0.49412
G1 X60.357 Y30.519 E0.64481
G1 X60.893 Y30.129 E0.66686
G1 X61.16 Y29.941 E0.67772
G1 X61.886 Y29.445 E0.70697
G1 X65.577 Y27.007 E0.85409
G1 X66.215 Y26.598 E0.8793
G1 X66.483 Y26.432 E0.88978
G1 X67.417 Y25.874 E0.92597
G1 X71.248 Y23.663 E1.07309
G1 X71.742 Y23.387 E1.09191
G1 X72.04 Y23.227 E1.10316
G1 X72.974 Y22.743 E1.13815
G1 X76.918 Y20.771 E1.28481
G1 X77.481 Y20.5 E1.30559
G1 X77.767 Y20.368 E1.31607
G1 X78.734 Y19.937 E1.35128
G1 X82.657 Y18.261 E1.49317
G1 X83.355 Y17.974 E1.51827
G1 X83.652 Y17.857 E1.52889
G1 X84.63 Y17.49 E1.56363
G1 X88.783 Y16.003 E1.71035
G1 X89.397 Y15.793 E1.73193
G1 X89.707 Y15.692 E1.74277
G1 X90.658 Y15.399 E1.77587
G1 X94.954 Y14.144 E1.92473
G1 X95.494 Y13.995 E1.94336
G1 X95.807 Y13.914 E1.95411
G1 X96.897 Y13.649 E1.99142
G1 X101.087 Y12.693 E2.13436
G1 X101.782 Y12.544 E2.158
G1 X102.113 Y12.479 E2.16922
G1 X103.066 Y12.306 E2.20144
G1 X107.426 Y11.584 E2.34843
G1 X108.055 Y11.488 E2.36959
G1 X108.397 Y11.441 E2.38107
G1 X109.436 Y11.317 E2.41588
G1 X113.793 Y10.86 E2.56158
G1 X114.44 Y10.801 E2.58319
G1 X114.776 Y10.776 E2.5944
G1 X115.79 Y10.716 E2.62818
G1 X120.178 Y10.52 E2.77428
G1 X120.843 Y10.5 E2.7964
G1 X121.161 Y10.495 E2.80698
G1 X122.193 Y10.495 E2.84131
G1 X126.44 Y10.558 E2.98258
G1 X127.247 Y10.581 E3.00943
G1 X127.574 Y10.595 E3.02032
G1 X128.386 Y10.643 E3.04737
G1 X132.884 Y10.979 E3.19739
G1 X133.587 Y11.04 E3.22086
G1 X133.923 Y11.075 E3.2321
G1 X134.799 Y11.18 E3.26144
G1 X139.372 Y11.799 E3.41493
G1 X139.933 Y11.883 E3.43379
G1 X140.259 Y11.937 E3.44478
G1 X141.134 Y12.095 E3.47436
G1 X145.507 Y12.956 E3.6226
G1 X146.235 Y13.109 E3.64734
G1 X146.533 Y13.176 E3.6575
G1 X147.556 Y13.424 E3.69251
G1 X151.844 Y14.541 E3.83989
G1 X152.441 Y14.706 E3.86049
G1 X152.743 Y14.794 E3.87095
G1 X153.602 Y15.058 E3.90084
G1 X157.771 Y16.411 E4.04662
G1 X158.557 Y16.678 E4.07423
G1 X158.856 Y16.785 E4.08479
G1 X159.797 Y17.139 E4.11823
G1 X163.928 Y18.761 E4.26584
G1 X164.521 Y19.004 E4.28716
G1 X164.814 Y19.129 E4.29775
G1 X165.555 Y19.458 E4.32472
G1 X169.605 Y21.333 E4.47316
G1 X170.302 Y21.667 E4.49886
G1 X170.593 Y21.812 E4.50968
G1 X171.557 Y22.313 E4.54581
G1 X175.386 Y24.375 E4.69046
G1 X175.981 Y24.706 E4.7131
G1 X176.27 Y24.873 E4.7242
G1 X177.085 Y25.361 E4.7558
G1 X180.868 Y27.699 E4.90371
G1 X181.414 Y28.047 E4.92525
G1 X181.691 Y28.229 E4.93627
G1 X182.53 Y28.802 E4.97006
G1 X186.185 Y31.377 E5.11877
G1 X186.656 Y31.719 E5.13813
G1 X186.915 Y31.913 E5.14889
G1 X187.707 Y32.526 E5.1822
G1 X191.068 Y35.205 E5.32516
G1 X191.675 Y35.703 E5.35127
G1 X191.918 Y35.909 E5.36186
G1 X192.681 Y36.576 E5.39557
G1 X195.983 Y39.55 E5.54338
G1 X196.445 Y39.978 E5.56432
G1 X196.685 Y40.207 E5.57536
G1 X197.376 Y40.889 E5.60765
G1 X200.407 Y43.965 E5.75128
G1 X200.94 Y44.521 E5.7769
G1 X201.159 Y44.756 E5.78758
G1 X201.848 Y45.522 E5.82185
G1 X204.633 Y48.71 E5.96264
G1 X205.167 Y49.338 E5.99006
G1 X205.373 Y49.587 E6.00081
G1 X206.006 Y50.381 E6.03458
G1 X208.709 Y53.878 E6.18159
G1 X209.096 Y54.394 E6.20304
G1 X209.287 Y54.656 E6.21382
G1 X209.772 Y55.344 E6.24182
G1 X212.273 Y59.011 E6.38945
G1 X212.708 Y59.666 E6.4156
G1 X212.884 Y59.941 E6.42646
G1 X213.422 Y60.812 E6.46051
G1 X215.665 Y64.569 E6.60605
G1 X216.002 Y65.151 E6.62842
G1 X216.167 Y65.446 E6.63966
G1 X216.657 Y66.358 E6.67409
G1 X218.697 Y70.292 E6.82148
G1 X218.96 Y70.817 E6.84101
G1 X219.102 Y71.112 E6.8519
G1 X219.538 Y72.054 E6.88643
G1 X221.347 Y76.119 E7.03441
G1 X221.569 Y76.636 E7.05313
G1 X221.695 Y76.944 E7.0642
G1 X222.085 Y77.936 E7.09965
G1 X223.584 Y81.93 E7.24154
G1 X223.839 Y82.64 E7.26663
G1 X223.94 Y82.934 E7.27697
G1 X224.228 Y83.816 E7.30783
G1 X225.533 Y88.045 E7.45503
G1 X225.734 Y88.726 E7.47865
G1 X225.827 Y89.06 E7.49018
G1 X226.099 Y90.109 E7.52622
G1 X227.102 Y94.216 E7.66683
G1 X227.28 Y94.99 E7.69325
G1 X227.348 Y95.309 E7.7041
G1 X227.542 Y96.291 E7.73739
G1 X228.341 Y100.705 E7.88659
G1 X228.431 Y101.244 E7.90476
G1 X228.48 Y101.572 E7.91579
G1 X228.626 Y102.655 E7.95214
G1 X229.141 Y106.945 E8.09585
G1 X229.214 Y107.63 E8.11876
G1 X229.244 Y107.964 E8.12992
G1 X229.322 Y109.01 E8.1648
G1 X229.585 Y113.42 E8.31174
G1 X229.612 Y114.016 E8.33158
G1 X229.622 Y114.337 E8.34226
G1 X229.636 Y115.209 E8.37127
G1 X229.637 Y119.636 E8.51851
G1 X229.627 Y120.42 E8.54459
G1 X229.617 Y120.747 E8.55547
G1 X229.57 Y121.779 E8.58983
G1 X229.306 Y126.195 E8.73697
G1 X229.26 Y126.812 E8.75755
G1 X229.231 Y127.132 E8.76824
G1 X229.121 Y128.174 E8.80309
G1 X228.598 Y132.51 E8.94835
G1 X228.51 Y133.169 E8.97046
G1 X228.458 Y133.519 E8.98223
G1 X228.292 Y134.509 E9.01562
G1 X227.529 Y138.721 E9.15799
G1 X227.381 Y139.477 E9.18361
G1 X227.32 Y139.767 E9.19347
G1 X227.134 Y140.592 E9.2216
G1 X226.069 Y144.954 E9.37094
G1 X225.888 Y145.659 E9.39515
G1 X225.8 Y145.978 E9.40615
G1 X225.49 Y147.04 E9.44295
G1 X224.246 Y151.074 E9.58336
G1 X224.009 Y151.807 E9.60898
G1 X223.903 Y152.117 E9.61988
G1 X223.551 Y153.097 E9.65451
G1 X222.008 Y157.205 E9.80046
G1 X221.771 Y157.811 E9.8221
G1 X221.646 Y158.12 E9.83319
G1 X221.31 Y158.908 E9.86168
G1 X219.442 Y163.102 E10.01439
G1 X219.179 Y163.672 E10.03527
G1 X219.03 Y163.982 E10.04671
G1 X218.592 Y164.856 E10.07922
G1 X216.547 Y168.794 E10.22681
G1 X216.259 Y169.331 E10.24707
G1 X216.094 Y169.627 E10.25835
G1 X215.554 Y170.561 E10.29423
G1 X213.291 Y174.348 E10.44096
G1 X212.974 Y174.861 E10.46102
G1 X212.803 Y175.129 E10.47159
G1 X212.242 Y175.978 E10.50544
G1 X209.818 Y179.534 E10.64857
G1 X209.381 Y180.156 E10.67386
G1 X209.198 Y180.409 E10.68424
G1 X208.675 Y181.108 E10.71328
G1 X205.883 Y184.718 E10.86507
G1 X205.489 Y185.214 E10.88614
G1 X205.266 Y185.486 E10.89784
G1 X204.586 Y186.286 E10.93276
G1 X201.718 Y189.568 E11.07772
G1 X201.258 Y190.08 E11.10062
G1 X201.043 Y190.312 E11.11114
G1 X200.509 Y190.873 E11.1369
G1 X197.331 Y194.1 E11.28754
G1 X196.798 Y194.627 E11.31247
G1 X196.565 Y194.85 E11.32319
G1 X195.812 Y195.548 E11.35734
G1 X192.529 Y198.503 E11.50425
G1 X192.06 Y198.914 E11.525
G1 X191.802 Y199.133 E11.53625
G1 X191.128 Y199.688 E11.56529
G1 X187.671 Y202.446 E11.71238
G1 X187.046 Y202.931 E11.73869
G1 X186.8 Y203.116 E11.74893
G1 X186.11 Y203.619 E11.77733
G1 X182.457 Y206.191 E11.92592
G1 X181.827 Y206.623 E11.95133
G1 X181.552 Y206.805 E11.9623
G1 X180.849 Y207.255 E11.99006
G1 X176.892 Y209.701 E12.14479
G1 X176.417 Y209.985 E12.16319
G1 X176.13 Y210.151 E12.17422
G1 X175.173 Y210.683 E12.21064
G1 X171.325 Y212.754 E12.35598
G1 X170.749 Y213.053 E12.37757
G1 X170.464 Y213.196 E12.38817
G1 X169.706 Y213.562 E12.41617
G1 X165.555 Y215.485 E12.56833
G1 X164.971 Y215.746 E12.5896
G1 X164.65 Y215.883 E12.60121
G1 X163.687 Y216.276 E12.6358
G1 X159.556 Y217.897 E12.7834
G1 X159.026 Y218.096 E12.80223
G1 X158.721 Y218.205 E12.813
G1 X157.7 Y218.553 E12.84888
G1 X153.522 Y219.91 E12.99499
G1 X152.91 Y220.099 E13.01629
G1 X152.599 Y220.19 E13.02707
G1 X151.63 Y220.457 E13.0605
G1 X147.339 Y221.572 E13.20796
G1 X146.717 Y221.724 E13.22925
G1 X146.401 Y221.796 E13.24003
G1 X145.421 Y222.004 E13.27335
G1 X141.074 Y222.859 E13.42071
G1 X140.461 Y222.971 E13.44143
G1 X140.13 Y223.026 E13.45259
G1 X139.102 Y223.18 E13.48717
G1 X134.744 Y223.77 E13.63344
G1 X134.134 Y223.844 E13.65387
G1 X133.796 Y223.88 E13.66518
G1 X132.875 Y223.963 E13.69594
G1 X128.411 Y224.298 E13.84483
G1 X127.738 Y224.34 E13.86725
G1 X127.392 Y224.356 E13.87877
G1 X126.374 Y224.386 E13.91265
G1 X122.109 Y224.45 E14.05452
G1 X121.342 Y224.451 E14.08003
G1 X121.016 Y224.446 E14.09087
G1 X119.936 Y224.413 E14.12681
G1 X115.545 Y224.215 E14.273
G1 X114.976 Y224.182 E14.29196
G1 X114.635 Y224.156 E14.30334
G1 X113.557 Y224.059 E14.33933
G1 X109.191 Y223.599 E14.48535
G1 X108.593 Y223.528 E14.50538
G1 X108.256 Y223.483 E14.51669
G1 X107.194 Y223.322 E14.55242
G1 X102.894 Y222.606 E14.6974
G1 X102.249 Y222.49 E14.7192
G1 X101.93 Y222.428 E14.73001
G1 X101.094 Y222.252 E14.75842
G1 X96.64 Y221.235 E14.91038
G1 X96.018 Y221.084 E14.93167
G1 X95.699 Y221.001 E14.94263
G1 X94.679 Y220.719 E14.97783
G1 X90.472 Y219.488 E15.12362
G1 X89.85 Y219.297 E15.14526
G1 X89.528 Y219.193 E15.15651
G1 X88.588 Y218.871 E15.18956
G1 X84.434 Y217.381 E15.33634
G1 X83.827 Y217.154 E15.3579
G1 X83.516 Y217.032 E15.36901
G1 X82.562 Y216.641 E15.4033
G1 X78.666 Y214.977 E15.54421
G1 X77.947 Y214.658 E15.57037
G1 X77.648 Y214.519 E15.58134
G1 X76.657 Y214.041 E15.61793
G1 X72.81 Y212.116 E15.76101
G1 X72.194 Y211.798 E15.78407
G1 X71.885 Y211.633 E15.79572
G1 X71.032 Y211.156 E15.82822
G1 X67.159 Y208.918 E15.977
G1 X66.7 Y208.645 E15.99476
G1 X66.403 Y208.462 E16.00636
G1 X65.469 Y207.864 E16.04325
G1 X61.849 Y205.473 E16.18754
G1 X61.287 Y205.091 E16.21015
G1 X61.007 Y204.894 E16.22153
G1 X60.22 Y204.321 E16.25391
G1 X56.667 Y201.657 E16.40161
G1 X56.183 Y201.283 E16.42196
G1 X55.93 Y201.081 E16.43272
G1 X55.076 Y200.379 E16.46949
G1 X51.747 Y197.556 E16.61467
G1 X51.286 Y197.154 E16.63501
G1 X51.041 Y196.933 E16.64599
G1 X50.279 Y196.225 E16.68058
G1 X47.088 Y193.174 E16.82742
G1 X46.638 Y192.731 E16.84842
G1 X46.401 Y192.491 E16.85964
G1 X45.802 Y191.864 E16.88848
G1 X42.717 Y188.54 E17.03932
G1 X42.275 Y188.05 E17.06127
G1 X42.051 Y187.794 E17.07258
G1 X41.38 Y187 E17.10716
G1 X38.615 Y183.636 E17.25199
G1 X38.194 Y183.109 E17.27442
G1 X37.997 Y182.855 E17.28511
G1 X37.478 Y182.165 E17.31383
G1 X34.889 Y178.603 E17.46029
G1 X34.422 Y177.944 E17.48715
G1 X34.233 Y177.667 E17.49831
G1 X33.668 Y176.811 E17.53242
G1 X31.404 Y173.266 E17.67232
G1 X30.961 Y172.552 E17.70027
G1 X30.787 Y172.262 E17.71152
G1 X30.356 Y171.516 E17.74017
G1 X28.213 Y167.674 E17.88649
G1 X27.838 Y166.981 E17.9127
G1 X27.685 Y166.688 E17.92369
G1 X27.296 Y165.912 E17.95257
G1 X25.36 Y161.894 E18.10091
G1 X25.055 Y161.24 E18.12491
G1 X24.919 Y160.934 E18.13605
G1 X24.494 Y159.937 E18.1721
G1 X22.889 Y156.022 E18.31283
G1 X22.601 Y155.292 E18.33893
G1 X22.484 Y154.984 E18.34989
G1 X22.21 Y154.223 E18.37679
G1 X20.77 Y150.009 E18.5249
G1 X20.52 Y149.245 E18.55164
G1 X20.427 Y148.944 E18.56212
G1 X20.131 Y147.933 E18.59716
G1 X18.96 Y143.682 E18.74381
G1 X18.807 Y143.095 E18.76399
G1 X18.728 Y142.776 E18.77492
G1 X18.487 Y141.717 E18.81104
G1 X17.588 Y137.482 E18.95504
G1 X17.458 Y136.825 E18.97731
G1 X17.398 Y136.494 E18.9885
G1 X17.223 Y135.435 E19.0242
G1 X16.571 Y131.109 E19.16971
G1 X16.488 Y130.499 E19.19018
G1 X16.449 Y130.177 E19.20097
G1 X16.34 Y129.135 E19.23582
G1 X15.945 Y124.731 E19.38288
G1 X15.9 Y124.135 E19.40276
G1 X15.88 Y123.809 E19.41363
G1 X15.839 Y122.912 E19.44349
G1 X15.706 Y118.489 E19.59067
G1 X15.693 Y117.755 E19.61508
G1 X15.692 Y117.41 E19.62656
G1 X15.709 Y116.339 E19.66219
G1 X15.842 Y111.949 E19.80826
G1 X15.869 Y111.337 E19.82864
G1 X15.888 Y111.009 E19.83957
G1 X15.968 Y109.944 E19.87509
G1 X16.362 Y105.584 E20.02069
G1 X16.428 Y104.951 E20.04186
G1 X16.467 Y104.624 E20.05281
G1 X16.585 Y103.748 E20.08221
G1 X17.262 Y99.25 E20.2335
G1 X17.366 Y98.623 E20.25464
G1 X17.424 Y98.303 E20.26546
G1 X17.635 Y97.237 E20.3016
G1 X18.54 Y92.982 E20.44629
G1 X18.683 Y92.353 E20.46774
G1 X18.76 Y92.035 E20.47863
G1 X19.024 Y91.02 E20.51351
G1 X20.211 Y86.724 E20.66175
G1 X20.365 Y86.198 E20.67998
G1 X20.457 Y85.9 E20.69035
G1 X20.742 Y85.02 E20.72112
G1 X22.165 Y80.851 E20.86763
G1 X22.429 Y80.106 E20.89392
G1 X22.554 Y79.772 E20.90578
G1 X22.907 Y78.878 E20.93775
G1 X24.603 Y74.742 E21.08643
G1 X24.831 Y74.207 E21.10577
G1 X24.969 Y73.896 E21.11709
G1 X25.347 Y73.08 E21.147
G1 X27.316 Y68.989 E21.29801
G1 X27.593 Y68.433 E21.31867
G1 X27.748 Y68.134 E21.32987
G1 X28.267 Y67.17 E21.36628
G1 X30.371 Y63.399 E21.50991
G1 X30.714 Y62.803 E21.53278
G1 X30.891 Y62.506 E21.54428
G1 X31.42 Y61.653 E21.57766
G1 X33.716 Y58.059 E21.71951
G1 X34.126 Y57.435 E21.74435
G1 X34.316 Y57.155 E21.7556
G1 X34.938 Y56.272 E21.79152
G1 X37.517 Y52.724 E21.93741
G1 X37.908 Y52.203 E21.95908
G1 X38.097 Y51.958 E21.96937
G1 X38.622 Y51.298 E21.99742
G1 X41.413 Y47.903 E22.1436
G1 X41.958 Y47.256 E22.17173
G1 X42.183 Y46.999 E22.18309
G1 X42.843 Y46.266 E22.2159
G1 X45.708 Y43.178 E22.356
G0 F6000 X46.103 Y43.343
G1 F1200 X46.581 Y42.842 E22.37903
G1 X46.802 Y42.616 E22.38955
G1 X47.435 Y41.991 E22.41913
G1 X50.619 Y38.945 E22.56569
G1 X51.156 Y38.444 E22.59012
G1 X51.402 Y38.223 E22.60112
G1 X52.211 Y37.517 E22.63683
G1 X55.53 Y34.705 E22.78151
G1 X56.034 Y34.29 E22.80323
G1 X56.28 Y34.094 E22.81369
G1 X57.111 Y33.452 E22.84862
G1 X60.592 Y30.843 E22.9933
G1 X61.128 Y30.453 E23.01535
G1 X61.385 Y30.272 E23.02581
G1 X62.251 Y29.682 E23.06066
G1 X65.932 Y27.253 E23.20734
G1 X66.43 Y26.935 E23.22699
G1 X66.688 Y26.775 E23.23709
G1 X67.471 Y26.306 E23.26745
G1 X71.443 Y24.012 E23.42001
G1 X71.937 Y23.736 E23.43883
G1 X72.224 Y23.582 E23.44966
G1 X73.153 Y23.101 E23.48446
G1 X77.092 Y21.132 E23.63093
G1 X77.655 Y20.861 E23.65171
G1 X77.93 Y20.733 E23.6618
G1 X78.892 Y20.305 E23.69682
G1 X82.954 Y18.571 E23.84371
G1 X83.507 Y18.344 E23.8636
G1 X83.793 Y18.231 E23.87382
G1 X84.765 Y17.866 E23.90836
G1 X88.913 Y16.381 E24.05489
G1 X89.527 Y16.171 E24.07648
G1 X89.825 Y16.074 E24.0869
G1 X90.771 Y15.783 E24.11982
G1 X94.905 Y14.574 E24.26308
G1 X95.601 Y14.381 E24.2871
G1 X95.902 Y14.303 E24.29744
G1 X96.986 Y14.039 E24.33455
G1 X101.171 Y13.085 E24.47731
G1 X101.866 Y12.936 E24.50095
G1 X102.185 Y12.872 E24.51178
G1 X103.131 Y12.701 E24.54375
G1 X107.487 Y11.979 E24.69061
G1 X108.116 Y11.883 E24.71177
G1 X108.445 Y11.838 E24.72282
G1 X109.477 Y11.715 E24.75738
G1 X113.829 Y11.259 E24.90292
G1 X114.476 Y11.2 E24.92453
G1 X114.8 Y11.175 E24.93534
G1 X115.645 Y11.124 E24.9635
G1 X120.033 Y10.926 E25.10959
G1 X120.855 Y10.9 E25.13694
G1 X121.162 Y10.895 E25.14716
G1 X122.187 Y10.895 E25.18125
G1 X126.434 Y10.958 E25.32252
G1 X127.236 Y10.981 E25.3492
G1 X127.551 Y10.994 E25.35969
G1 X128.363 Y11.042 E25.38674
G1 X132.854 Y11.378 E25.53653
G1 X133.551 Y11.439 E25.5598
G1 X133.876 Y11.472 E25.57067
G1 X134.752 Y11.577 E25.60001
G1 X139.166 Y12.174 E25.74816
G1 X139.874 Y12.279 E25.77197
G1 X140.188 Y12.331 E25.78255
G1 X141.229 Y12.52 E25.81774
G1 X145.576 Y13.378 E25.96511
G1 X146.152 Y13.5 E25.9847
G1 X146.439 Y13.565 E25.99448
G1 X147.269 Y13.765 E26.02288
G1 X151.583 Y14.886 E26.17113
G1 X152.335 Y15.092 E26.19706
G1 X152.625 Y15.177 E26.20711
G1 X153.644 Y15.491 E26.24258
G1 X157.647 Y16.791 E26.38256
G1 X158.428 Y17.057 E26.41
G1 X158.715 Y17.16 E26.42015
G1 X159.651 Y17.512 E26.45341
G1 X163.776 Y19.132 E26.60081
G1 X164.369 Y19.375 E26.62212
G1 X164.651 Y19.495 E26.63231
G1 X165.546 Y19.894 E26.66491
G1 X169.576 Y21.762 E26.81264
G1 X170.129 Y22.028 E26.83305
G1 X170.409 Y22.168 E26.84347
G1 X171.367 Y22.665 E26.87936
G1 X175.191 Y24.725 E27.02383
G1 X175.786 Y25.056 E27.04648
G1 X176.065 Y25.216 E27.05717
G1 X176.737 Y25.617 E27.0832
G1 X180.653 Y28.036 E27.23629
G1 X181.199 Y28.384 E27.25783
G1 X181.466 Y28.56 E27.26846
